; generated by PrusaSlicer 2.6.0+MacOS-arm64 on 2023-06-25 at 17:00:23 UTC


;
;
; 

; external perimeters extrusion width = 0.65mm
; perimeters extrusion width = 0.65mm
; infill extrusion width = 0.65mm
; solid infill extrusion width = 0.65mm
; top infill extrusion width = 0.60mm
; first layer extrusion width = 0.65mm

M73 P0 R4
M73 Q0 S4
M201 X1000 Y1000 Z200 E5000 ; sets maximum accelerations, mm/sec^2
M203 X200 Y200 Z12 E120 ; sets maximum feedrates, mm / sec
M204 S1250 T1250 ; sets acceleration (S) and retract acceleration (R), mm/sec^2
M205 X8.00 Y8.00 Z0.40 E4.50 ; sets the jerk limits, mm/sec
M205 S0 T0 ; sets the minimum extruding and travel feed rate, mm/sec
;TYPE:Custom
M862.3 P "MK3S" ; printer model check
M862.1 P0.6 ; nozzle diameter check
M115 U3.12.2 ; tell printer latest fw version
G90 ; use absolute coordinates
M83 ; extruder relative mode
M104 S230 ; set extruder temp
M140 S85 ; set bed temp
M190 S85 ; wait for bed temp
M109 S230 ; wait for extruder temp
G28 W ; home all without mesh bed level
G80 ; mesh bed leveling

G1 Z0.2 F720
G1 Y-3 F1000 ; go outside print area
G92 E0
G1 X60 E9 F1000 ; intro line
G1 X100 E12.5 F1000 ; intro line

G92 E0
M221 S95
G21 ; set units to millimeters
G90 ; use absolute coordinates
M83 ; use relative distances for extrusion
M900 K0.04 ; Filament gcode LA 1.5
M900 K24 ; Filament gcode LA 1.0
M107
;LAYER_CHANGE
;Z:0.2
;HEIGHT:0.2
;BEFORE_LAYER_CHANGE
G92 E0.0
;0.2


M73 P1 R4
M73 Q1 S4
G1 E-1 F2100
M73 P2 R4
M73 Q2 S4
G1 Z.2 F720
;AFTER_LAYER_CHANGE
;0.2
G1 Z.4
G1 X110.596 Y95.989 F10800
G1 Z.2 F720
G1 E1 F1500
M204 S800
;TYPE:Skirt/Brim
;WIDTH:0.65
G1 F1200
G1 X112.01 Y94.574 E.10098
G1 X113.79 Y93.812 E.09774
G1 X128.173 Y93.461 E.72625
G1 X135.886 Y93.46 E.38934
M73 Q3 S4
G1 X137.562 Y94.07 E.09003
M73 P3 R4
G1 X139.094 Y95.356 E.10097
G1 X139.895 Y96.54 E.07216
G1 X140.024 Y97.406 E.0442
G1 X139.719 Y112.305 E.75224
G1 X139.298 Y113.673 E.07225
G1 X138.608 Y114.388 E.05016
G1 X136.969 Y115.535 E.10098
G1 X135.474 Y116.006 E.07912
G1 X128.648 Y116.006 E.34457
G1 X113.323 Y114.951 E.77542
G1 X111.506 Y114.026 E.10292
M73 Q4 S4
G1 X110.22 Y112.493 E.10101
M73 P4 R4
G1 X109.611 Y110.773 E.09211
G1 X109.833 Y97.788 E.65556
G1 X110.561 Y96.072 E.09409
M204 S1000
; printing object cliptest.stl id:0 copy 0
;WIPE_START
G1 F8640
G1 X112.01 Y94.574 E-.48123
G1 X113.79 Y93.812 E-.44708
G1 X114.1 Y93.804 E-.07169
;WIPE_END
G1 Z.4 F720
G1 X131.519 Y104.994 F10800
G1 Z.2 F720
G1 E1 F1500
M204 S800
;TYPE:Perimeter
;WIDTH:0.649999
G1 F1200
G1 X131.639 Y105.336 E.0183
G1 X131.75 Y105.463 E.00851
G1 X131.583 Y105.484 E.0085
G1 X131.075 Y105.608 E.0264
G1 X130.815 Y105.715 E.01419
G1 X130.324 Y105.977 E.02809
G1 X129.872 Y106.365 E.03007
G1 X129.797 Y105.964 E.02059
G1 X129.737 Y105.857 E.00619
G1 X129.511 Y105.618 E.0166
G1 X129.275 Y105.494 E.01346
G1 X128.974 Y105.443 E.01541
G1 X121.151 Y105.443 E.3949
G1 X120.852 Y105.494 E.01531
G1 X120.616 Y105.617 E.01343
G1 X120.334 Y105.952 E.0221
G1 X120.264 Y106.146 E.01041
G1 X120.274 Y106.398 E.01273
G1 X119.918 Y106.069 E.02447
G1 X119.388 Y105.742 E.03144
G1 X118.854 Y105.55 E.02865
G1 X118.352 Y105.469 E.02567
G1 X118.542 Y105.282 E.01346
G1 X118.625 Y105.093 E.01042
G1 X118.665 Y104.624 E.02376
G1 X118.631 Y104.085 E.02726
G1 X118.55 Y103.887 E.0108
G1 X118.347 Y103.681 E.0146
G1 X118.884 Y103.593 E.02747
G1 X119.554 Y103.319 E.03654
M73 Q5 S4
G1 X119.978 Y103.035 E.02576
G1 X120.272 Y102.754 E.02053
G1 X120.247 Y102.928 E.00887
G1 X120.302 Y103.135 E.01081
G1 X120.555 Y103.488 E.02192
G1 X120.85 Y103.657 E.01716
G1 X121.148 Y103.707 E.01525
G1 X128.971 Y103.707 E.3949
G1 X129.273 Y103.656 E.01546
M73 P5 R4
G1 X129.573 Y103.48 E.01756
G1 X129.84 Y103.069 E.02474
G1 X129.866 Y102.776 E.01485
G1 X130.085 Y102.986 E.01532
G1 X130.715 Y103.394 E.03789
G1 X131.209 Y103.584 E.02672
G1 X131.79 Y103.683 E.02975
G1 X131.574 Y103.917 E.01608
G1 X131.527 Y104.031 E.00622
G1 X131.478 Y104.329 E.01524
G1 X131.489 Y104.91 E.02933
M204 S1000
G1 X132.087 Y104.824 F10800
M204 S800
;TYPE:External perimeter
G1 F1200
G1 X132.14 Y104.994 E.00899
;WIDTH:0.691756
G1 X132.194 Y105.047 E.00408
;WIDTH:0.733513
G1 X132.249 Y105.101 E.00443
;WIDTH:0.77527
G1 X132.303 Y105.155 E.00465
;WIDTH:0.817027
G1 X132.357 Y105.208 E.00487
;WIDTH:0.82516
G1 X132.652 Y105.241 E.01931
G1 X133.19 Y105.38 E.03614
;WIDTH:0.832075
G1 X133.695 Y105.612 E.03647
G1 X134.157 Y105.92 E.03643
;WIDTH:0.831242
G1 X134.561 Y106.3 E.03636
;WIDTH:0.833447
G1 X134.892 Y106.746 E.03651
G1 X135.147 Y107.239 E.03648
;WIDTH:0.833025
G1 X135.329 Y107.821 E.04006
;WIDTH:0.830457
G1 X135.396 Y108.317 E.03278
G1 X135.381 Y108.872 E.03636
G1 X135.269 Y109.442 E.03804
;WIDTH:0.85859
G1 X135.124 Y109.824 E.02771
;WIDTH:0.895139
G1 X134.979 Y110.206 E.02895
G1 X135.033 Y110.315 E.00862
;WIDTH:0.8583
G1 X135.087 Y110.424 E.00825
;WIDTH:0.82146
G1 X136.262 Y112.102 E.13261
G1 X135.624 Y112.549 E.05043
G1 X134.449 Y110.87 E.13266
;WIDTH:0.8583
G1 X134.249 Y110.533 E.02657
;WIDTH:0.895139
G1 X134.049 Y110.196 E.02777
G1 X134.202 Y109.929 E.02181
;WIDTH:0.859272
G1 X134.356 Y109.661 E.02098
;WIDTH:0.823404
G1 X134.539 Y109.171 E.03395
;WIDTH:0.830384
G1 X134.603 Y108.754 E.02762
G1 X134.611 Y108.36 E.0258
G1 X134.534 Y107.858 E.03325
;WIDTH:0.824252
G1 X134.303 Y107.287 E.04002
;WIDTH:0.825923
G1 X133.944 Y106.787 E.04008
G1 X133.473 Y106.39 E.04011
;WIDTH:0.824298
G1 X132.923 Y106.113 E.04001
G1 X132.322 Y105.981 E.03998
;WIDTH:0.817027
G1 X132.174 Y106.004 E.00964
;WIDTH:0.77527
G1 X132.025 Y106.027 E.00918
;WIDTH:0.733513
G1 X131.876 Y106.05 E.00866
;WIDTH:0.691756
G1 X131.727 Y106.073 E.00813
;WIDTH:0.649999
G1 X131.096 Y106.253 E.03312
G1 X130.629 Y106.507 E.02683
;WIDTH:0.691432
G1 X130.512 Y106.592 E.0078
;WIDTH:0.732865
G1 X130.396 Y106.677 E.00825
;WIDTH:0.774298
G1 X130.279 Y106.761 E.00876
;WIDTH:0.815731
G1 X130.163 Y106.846 E.00924
;WIDTH:0.857163
G1 X130.046 Y106.931 E.00979
G1 X129.779 Y107.371 E.03485
;WIDTH:0.822664
G1 X129.562 Y107.985 E.04222
G1 X129.504 Y108.561 E.03753
;WIDTH:0.821541
G1 X129.587 Y109.179 E.04037
;WIDTH:0.83616
G1 X129.804 Y109.748 E.04017
;WIDTH:0.865684
G1 X129.939 Y109.991 E.01902
;WIDTH:0.895207
G1 X130.074 Y110.235 E.01976
G1 X129.873 Y110.553 E.02666
;WIDTH:0.858333
G1 X129.673 Y110.871 E.02547
;WIDTH:0.821459
G1 X128.498 Y112.549 E.13261
G1 X127.861 Y112.102 E.05038
G1 X129.036 Y110.424 E.13261
;WIDTH:0.858333
G1 X129.089 Y110.315 E.00822
;WIDTH:0.895207
G1 X129.143 Y110.207 E.00856
G1 X129.088 Y110.069 E.01053
;WIDTH:0.859292
G1 X129.034 Y109.932 E.01
;WIDTH:0.823376
G1 X128.838 Y109.382 E.03789
;WIDTH:0.826962
G1 X128.747 Y108.873 E.03371
G1 X128.731 Y108.349 E.03418
;WIDTH:0.822143
G1 X128.859 Y107.614 E.04834
;WIDTH:0.816605
G1 X129.09 Y107.019 E.04106
;WIDTH:0.857163
G1 X129.343 Y106.526 E.03752
G1 X129.337 Y106.477 E.00334
;WIDTH:0.821038
G1 X129.332 Y106.429 E.00312
;WIDTH:0.784913
G1 X129.326 Y106.38 E.00305
;WIDTH:0.748787
G1 X129.24 Y106.244 E.00944
;WIDTH:0.699393
G1 X129.153 Y106.109 E.00877
;WIDTH:0.649999
G1 X128.974 Y106.05 E.00951
G1 X121.151 Y106.05 E.3949
G1 X120.939 Y106.136 E.01155
;WIDTH:0.69242
M73 P6 R4
M73 Q6 S4
G1 X120.9 Y106.22 E.005
;WIDTH:0.73484
G1 X120.86 Y106.304 E.00535
;WIDTH:0.77726
G1 X120.821 Y106.389 E.00571
;WIDTH:0.81968
G1 X120.781 Y106.473 E.00601
;WIDTH:0.845569
G1 X120.822 Y106.6 E.00891
G1 X121.208 Y107.428 E.06097
;WIDTH:0.825515
G1 X121.351 Y107.979 E.03704
;WIDTH:0.821355
G1 X121.386 Y108.696 E.04646
;WIDTH:0.855514
G1 X121.351 Y109.045 E.0237
;WIDTH:0.894776
G1 X121.316 Y109.395 E.02491
G1 X121.396 Y109.486 E.00858
;WIDTH:0.858118
G1 X121.476 Y109.577 E.00821
;WIDTH:0.82146
G1 X123.044 Y110.893 E.13252
G1 X122.544 Y111.489 E.05036
G1 X120.975 Y110.173 E.13257
;WIDTH:0.858118
G1 X120.689 Y109.909 E.02638
;WIDTH:0.894776
G1 X120.402 Y109.645 E.02762
G1 X120.508 Y109.363 E.02134
G1 X120.533 Y109.232 E.00945
;WIDTH:0.861558
G1 X120.559 Y109.102 E.00902
;WIDTH:0.828339
G1 X120.62 Y108.526 E.03783
;WIDTH:0.819711
G1 X120.553 Y107.951 E.03739
;WIDTH:0.816286
G1 X120.36 Y107.405 E.03724
;WIDTH:0.81968
G1 X120.05 Y106.915 E.03745
G1 X119.936 Y106.832 E.00911
;WIDTH:0.77726
G1 X119.821 Y106.748 E.0087
;WIDTH:0.73484
G1 X119.706 Y106.664 E.00819
;WIDTH:0.69242
G1 X119.592 Y106.581 E.00762
;WIDTH:0.649999
G1 X119.087 Y106.276 E.02978
G1 X118.584 Y106.106 E.0268
;WIDTH:0.693749
G1 X118.442 Y106.071 E.00791
;WIDTH:0.737498
G1 X118.301 Y106.035 E.0084
;WIDTH:0.781247
G1 X118.159 Y105.999 E.00899
;WIDTH:0.824996
G1 X118.017 Y105.964 E.00951
G1 X117.444 Y106.044 E.03762
;WIDTH:0.816895
G1 X116.901 Y106.246 E.03729
;WIDTH:0.8189
G1 X116.417 Y106.565 E.0374
G1 X116.02 Y106.986 E.03734
;WIDTH:0.815999
G1 X115.725 Y107.484 E.03721
;WIDTH:0.820587
G1 X115.549 Y108.036 E.03746
G1 X115.505 Y108.614 E.03748
;WIDTH:0.832546
G1 X115.569 Y109.142 E.03492
;WIDTH:0.863688
G1 X115.644 Y109.393 E.01788
;WIDTH:0.89483
G1 X115.72 Y109.645 E.01864
G1 X115.433 Y109.909 E.02762
;WIDTH:0.858145
G1 X115.147 Y110.173 E.02638
;WIDTH:0.82146
G1 X113.578 Y111.489 E.13257
G1 X113.078 Y110.893 E.05036
G1 X114.646 Y109.577 E.13252
;WIDTH:0.858145
G1 X114.726 Y109.486 E.00821
;WIDTH:0.89483
G1 X114.806 Y109.395 E.00858
G1 X114.794 Y109.29 E.00749
;WIDTH:0.861605
G1 X114.783 Y109.185 E.00719
;WIDTH:0.828379
G1 X114.728 Y108.452 E.04801
;WIDTH:0.820592
G1 X114.787 Y107.894 E.03628
;WIDTH:0.825107
G1 X114.948 Y107.338 E.03765
;WIDTH:0.825476
G1 X115.2 Y106.817 E.03766
G1 X115.537 Y106.347 E.03763
;WIDTH:0.821706
G1 X115.951 Y105.943 E.03746
;WIDTH:0.824281
G1 X116.372 Y105.652 E.03325
G1 X116.688 Y105.494 E.02295
;WIDTH:0.815202
G1 X117.274 Y105.291 E.03982
;WIDTH:0.819549
G1 X117.788 Y105.211 E.03359
G1 X117.932 Y105.142 E.01031
;WIDTH:0.771087
G1 X117.97 Y105.066 E.00514
;WIDTH:0.730725
G1 X118.007 Y104.99 E.00483
;WIDTH:0.690362
G1 X118.045 Y104.914 E.00457
;WIDTH:0.649999
G1 X118.057 Y104.421 E.02489
G1 X118.019 Y104.18 E.01232
;WIDTH:0.693952
G1 X117.98 Y104.123 E.00374
;WIDTH:0.737905
G1 X117.942 Y104.066 E.00396
;WIDTH:0.781858
G1 X117.903 Y104.009 E.00424
;WIDTH:0.825811
G1 X117.864 Y103.952 E.0045
G1 X117.479 Y103.907 E.02523
;WIDTH:0.826142
G1 X116.945 Y103.765 E.03599
G1 X116.429 Y103.533 E.03684
;WIDTH:0.820418
G1 X115.955 Y103.208 E.03716
;WIDTH:0.826465
G1 X115.581 Y102.851 E.03369
G1 X115.246 Y102.411 E.03603
;WIDTH:0.82341
G1 X114.988 Y101.923 E.03582
;WIDTH:0.825751
G1 X114.819 Y101.397 E.03596
;WIDTH:0.828136
G1 X114.738 Y100.85 E.0361
G1 X114.752 Y100.237 E.04003
;WIDTH:0.856923
G1 X114.823 Y99.856 E.02623
;WIDTH:0.895142
G1 X114.895 Y99.476 E.02741
G1 X114.823 Y99.378 E.00862
;WIDTH:0.858301
G1 X114.751 Y99.28 E.00824
;WIDTH:0.82146
G1 X113.303 Y97.832 E.13256
G1 X113.854 Y97.282 E.0504
G1 X115.302 Y98.73 E.13256
;WIDTH:0.858301
G1 X115.562 Y99.021 E.02646
;WIDTH:0.895142
G1 X115.821 Y99.311 E.02755
G1 X115.716 Y99.594 E.02139
;WIDTH:0.860097
G1 X115.611 Y99.877 E.02051
;WIDTH:0.825051
G1 X115.508 Y100.476 E.03953
;WIDTH:0.818455
G1 X115.551 Y101.104 E.04059
;WIDTH:0.819334
G1 X115.715 Y101.646 E.03656
G1 X116.019 Y102.165 E.03883
;WIDTH:0.822386
G1 X116.463 Y102.621 E.04125
G1 X116.941 Y102.924 E.03668
;WIDTH:0.816349
M73 Q7 S4
G1 X117.42 Y103.101 E.03284
;WIDTH:0.820528
G1 X117.864 Y103.166 E.02901
G1 X118.104 Y103.16 E.01552
;WIDTH:0.770999
G1 X118.294 Y103.114 E.01183
;WIDTH:0.730666
G1 X118.484 Y103.069 E.01117
;WIDTH:0.690333
G1 X118.674 Y103.023 E.01052
;WIDTH:0.649999
G1 X119.216 Y102.814 E.02932
G1 X119.695 Y102.484 E.02936
;WIDTH:0.696299
M73 P7 R4
G1 X119.813 Y102.387 E.0083
;WIDTH:0.742598
G1 X119.93 Y102.29 E.00884
;WIDTH:0.788897
G1 X120.047 Y102.193 E.00943
;WIDTH:0.835196
G1 X120.165 Y102.096 E.01006
G1 X120.443 Y101.562 E.03966
;WIDTH:0.821128
G1 X120.594 Y100.98 E.03891
;WIDTH:0.820198
G1 X120.609 Y100.379 E.03886
;WIDTH:0.839674
G1 X120.49 Y99.787 E.04
;WIDTH:0.867302
G1 X120.396 Y99.543 E.01792
;WIDTH:0.89493
G1 X120.303 Y99.299 E.0185
G1 X120.561 Y99.015 E.02718
;WIDTH:0.858195
G1 X120.82 Y98.73 E.02611
;WIDTH:0.82146
G1 X122.268 Y97.282 E.13256
G1 X122.819 Y97.832 E.0504
G1 X121.37 Y99.281 E.13266
;WIDTH:0.858195
G1 X121.299 Y99.378 E.00815
;WIDTH:0.89493
G1 X121.227 Y99.476 E.00862
G1 X121.254 Y99.604 E.00927
;WIDTH:0.859985
G1 X121.28 Y99.732 E.00887
;WIDTH:0.825039
G1 X121.383 Y100.321 E.03889
;WIDTH:0.826566
G1 X121.387 Y100.835 E.03349
G1 X121.317 Y101.343 E.03341
;WIDTH:0.823433
G1 X121.094 Y102 E.04503
;WIDTH:0.816981
G1 X120.802 Y102.634 E.04493
;WIDTH:0.806119
G1 X120.813 Y102.686 E.00337
;WIDTH:0.767089
G1 X120.825 Y102.737 E.00315
;WIDTH:0.728059
G1 X120.836 Y102.789 E.00303
;WIDTH:0.689029
G1 X120.847 Y102.841 E.00286
;WIDTH:0.649999
G1 X120.95 Y103.027 E.01073
G1 X121.148 Y103.1 E.01065
G1 X128.971 Y103.1 E.3949
G1 X129.146 Y103.045 E.00926
G1 X129.261 Y102.888 E.00982
;WIDTH:0.691179
G1 X129.275 Y102.806 E.00448
;WIDTH:0.732358
G1 X129.289 Y102.725 E.00471
;WIDTH:0.773537
G1 X129.303 Y102.644 E.00499
;WIDTH:0.800805
G1 X129.253 Y102.502 E.00949
;WIDTH:0.828073
G1 X128.896 Y101.666 E.05935
;WIDTH:0.824745
G1 X128.773 Y101.166 E.03347
;WIDTH:0.826608
G1 X128.73 Y100.597 E.03718
G1 X128.782 Y100.023 E.03756
;WIDTH:0.858139
G1 X128.894 Y99.614 E.02875
;WIDTH:0.895568
G1 X129.007 Y99.204 E.03015
G1 X128.944 Y99.1 E.00862
;WIDTH:0.858514
G1 X128.881 Y98.997 E.00819
;WIDTH:0.821459
G1 X127.565 Y97.428 E.13257
G1 X128.161 Y96.928 E.05036
G1 X129.477 Y98.496 E.13252
;WIDTH:0.858514
G1 X129.701 Y98.792 E.02517
;WIDTH:0.895568
G1 X129.925 Y99.087 E.02626
G1 X129.93 Y99.141 E.00384
G1 X129.8 Y99.426 E.02221
;WIDTH:0.858916
G1 X129.67 Y99.71 E.02119
;WIDTH:0.822264
G1 X129.534 Y100.222 E.03433
;WIDTH:0.826608
G1 X129.512 Y100.636 E.02702
G1 X129.543 Y101.044 E.02666
;WIDTH:0.824745
G1 X129.674 Y101.544 E.0336
;WIDTH:0.828073
G1 X129.91 Y102.019 E.03463
G1 X129.982 Y102.089 E.00656
;WIDTH:0.800805
G1 X130.054 Y102.16 E.00637
;WIDTH:0.773537
G1 X130.18 Y102.27 E.01016
;WIDTH:0.732358
G1 X130.306 Y102.379 E.00955
;WIDTH:0.691179
G1 X130.433 Y102.489 E.00906
;WIDTH:0.649999
G1 X130.932 Y102.827 E.03042
G1 X131.498 Y103.035 E.03044
;WIDTH:0.694023
G1 X131.652 Y103.073 E.00859
;WIDTH:0.738047
G1 X131.805 Y103.111 E.00911
;WIDTH:0.782071
G1 X131.959 Y103.149 E.00975
;WIDTH:0.826094
G1 X132.112 Y103.187 E.01027
G1 X132.725 Y103.094 E.04038
;WIDTH:0.820966
G1 X133.306 Y102.861 E.0405
;WIDTH:0.821563
G1 X133.726 Y102.568 E.03316
;WIDTH:0.826675
G1 X134.012 Y102.266 E.02711
G1 X134.256 Y101.93 E.02706
;WIDTH:0.824489
G1 X134.48 Y101.456 E.03407
;WIDTH:0.817152
G1 X134.609 Y100.846 E.04014
;WIDTH:0.820378
G1 X134.589 Y100.222 E.04036
;WIDTH:0.834782
G1 X134.422 Y99.619 E.0412
;WIDTH:0.865196
G1 X134.307 Y99.38 E.01813
;WIDTH:0.89561
G1 X134.192 Y99.141 E.01881
G1 X134.197 Y99.087 E.00385
G1 X134.421 Y98.792 E.02626
;WIDTH:0.858535
G1 X134.645 Y98.496 E.02517
;WIDTH:0.821459
G1 X135.961 Y96.928 E.13252
G1 X136.259 Y97.178 E.02518
;WIDTH:0.82146
G1 X136.557 Y97.428 E.02518
G1 X135.241 Y98.996 E.13252
;WIDTH:0.858535
G1 X135.178 Y99.1 E.00825
;WIDTH:0.89561
G1 X135.115 Y99.204 E.00862
G1 X135.161 Y99.358 E.0114
;WIDTH:0.858921
G1 X135.206 Y99.511 E.01082
;WIDTH:0.822231
G1 X135.354 Y100.101 E.03942
;WIDTH:0.826417
G1 X135.392 Y100.679 E.03774
G1 X135.333 Y101.255 E.03772
;WIDTH:0.825198
G1 X135.154 Y101.864 E.04129
;WIDTH:0.824489
G1 X134.923 Y102.332 E.03392
;WIDTH:0.826675
M73 Q8 S4
G1 X134.584 Y102.801 E.03771
G1 X134.199 Y103.187 E.03553
;WIDTH:0.821563
G1 X133.752 Y103.499 E.03529
;WIDTH:0.820966
G1 X133.521 Y103.616 E.01675
;WIDTH:0.815651
M73 P8 R4
G1 X132.885 Y103.85 E.04354
;WIDTH:0.820204
G1 X132.341 Y103.939 E.03563
G1 X132.271 Y103.977 E.00515
;WIDTH:0.793184
G1 X132.201 Y104.015 E.00497
;WIDTH:0.766163
G1 X132.165 Y104.096 E.00533
;WIDTH:0.727442
G1 X132.129 Y104.177 E.00505
;WIDTH:0.688721
G1 X132.092 Y104.258 E.00478
;WIDTH:0.649999
G1 X132.088 Y104.734 E.02403
M204 S1000
;WIPE_START
G1 F8640
G1 X132.14 Y104.994 E-.06122
G1 X132.194 Y105.047 E-.01747
G1 X132.249 Y105.101 E-.0178
G1 X132.303 Y105.155 E-.01763
G1 X132.357 Y105.208 E-.01747
G1 X132.652 Y105.241 E-.06854
G1 X133.19 Y105.38 E-.1283
