; generated by PrusaSlicer 2.4.2+arm64 on 2022-07-19 at 22:53:43 UTC


;
;
; 

; external perimeters extrusion width = 0.45mm
; perimeters extrusion width = 0.45mm
; infill extrusion width = 0.45mm
; solid infill extrusion width = 0.45mm
; top infill extrusion width = 0.40mm
; first layer extrusion width = 0.42mm

M73 P0 R11
M73 Q0 S11
M201 X1000 Y1000 Z200 E5000 ; sets maximum accelerations, mm/sec^2
M203 X200 Y200 Z12 E120 ; sets maximum feedrates, mm / sec
M204 P1250 R1250 T1250 ; sets acceleration (P, T) and retract acceleration (R), mm/sec^2
M205 X8.00 Y8.00 Z0.40 E4.50 ; sets the jerk limits, mm/sec
M205 S0 T0 ; sets the minimum extruding and travel feed rate, mm/sec
M107
;TYPE:Custom
M862.3 P "MK3S" ; printer model check
M862.1 P0.4 ; nozzle diameter check
M115 U3.11.0 ; tell printer latest fw version
G90 ; use absolute coordinates
M83 ; extruder relative mode
M104 S230 ; set extruder temp
M140 S85 ; set bed temp
M190 S85 ; wait for bed temp
M109 S230 ; wait for extruder temp
G28 W ; home all without mesh bed level
G80 ; mesh bed leveling
G1 Z0.2 F720
G1 Y-3 F1000 ; go outside print area
G92 E0
G1 X60 E9 F1000 ; intro line
G1 X100 E12.5 F1000 ; intro line
G92 E0
M221 S95

; Don't change E values below. Excessive value can damage the printer.
M907 E430 ; set extruder motor current
G21 ; set units to millimeters
G90 ; use absolute coordinates
M83 ; use relative distances for extrusion
M900 K0.08 ; Filament gcode LA 1.5
M900 K45 ; Filament gcode LA 1.0
M107
;LAYER_CHANGE
;Z:0.2
;HEIGHT:0.2
;BEFORE_LAYER_CHANGE
G92 E0.0
;0.2


G1 E-1 F2100
G1 Z.2 F720
;AFTER_LAYER_CHANGE
;0.2
G1 Z.4
G1 X114.788 Y89.481 F10800
G1 Z.2 F720
M73 P1 R11
M73 Q1 S11
G1 E1 F2100
M204 S800
;TYPE:Skirt/Brim
;WIDTH:0.42
G1 F1200
G1 X115.588 Y88.513 E.03938
G1 X116.74 Y87.401 E.0502
G1 X118.315 Y86.257 E.06102
G1 X119.415 Y85.652 E.03938
G1 X120.896 Y85.043 E.0502
G1 X122.441 Y84.623 E.0502
G1 X123.895 Y84.418 E.04602
G1 X125.973 Y84.401 E.06517
G1 X127.559 Y84.623 E.0502
G1 X128.775 Y84.936 E.03938
G1 X130.191 Y85.473 E.0475
G1 X131.685 Y86.257 E.05289
G1 X132.993 Y87.181 E.0502
G1 X134.175 Y88.261 E.0502
G1 X135.212 Y89.481 E.0502
G1 X136.088 Y90.821 E.0502
G1 X136.79 Y92.26 E.0502
G1 X137.391 Y94.111 E.06102
G1 X137.627 Y95.345 E.03938
G1 X137.749 Y96.941 E.0502
G1 X137.749 Y113.038 E.5047
G1 X137.674 Y114.26 E.03841
G1 X137.409 Y115.8 E.04897
G1 X136.957 Y117.295 E.04897
G1 X136.339 Y118.696 E.04801
G1 X135.331 Y120.341 E.06048
G1 X134.567 Y121.298 E.03841
G1 X133.464 Y122.404 E.04897
G1 X131.955 Y123.555 E.05953
G1 X130.596 Y124.325 E.04897
G1 X129.47 Y124.81 E.03841
G1 X127.977 Y125.267 E.04897
G1 X126.439 Y125.538 E.04897
G1 X124.541 Y125.611 E.05953
G1 X122.987 Y125.459 E.04897
G1 X121.463 Y125.118 E.04897
G1 X120.303 Y124.722 E.03841
G1 X118.889 Y124.059 E.04897
G1 X117.567 Y123.228 E.04897
G1 X116.111 Y122.01 E.05953
G1 X115.06 Y120.854 E.04897
G1 X114.158 Y119.579 E.04897
G1 X113.419 Y118.203 E.04897
G1 X112.854 Y116.747 E.04897
G1 X112.538 Y115.563 E.03841
G1 X112.278 Y113.745 E.05758
G1 X112.251 Y96.941 E.52689
G1 X112.373 Y95.345 E.0502
G1 X112.609 Y94.111 E.03938
G1 X113.083 Y92.582 E.0502
G1 X113.688 Y91.244 E.04602
G1 X114.756 Y89.531 E.06329
M204 S1000
G1 X115.073 Y89.729 F10800
M204 S800
G1 F1200
G1 X115.879 Y88.753 E.03967
G1 X116.999 Y87.676 E.04872
G1 X118.497 Y86.588 E.05806
G1 X119.867 Y85.856 E.04872
G1 X121.035 Y85.393 E.03938
G1 X122.535 Y84.989 E.04872
G1 X123.942 Y84.792 E.04454
G1 X125.926 Y84.775 E.06221
G1 X127.465 Y84.989 E.04872
M73 Q2 S11
G1 X128.681 Y85.301 E.03938
G1 X130.053 Y85.824 E.04601
G1 X131.503 Y86.588 E.05141
G1 X132.771 Y87.486 E.04872
M73 P2 R11
G1 X133.917 Y88.536 E.04872
G1 X134.922 Y89.721 E.04872
G1 X135.77 Y91.023 E.04872
G1 X136.449 Y92.421 E.04872
G1 X137.021 Y94.182 E.05806
G1 X137.294 Y95.711 E.04872
G1 X137.372 Y96.965 E.03937
G1 X137.373 Y113.015 E.50323
G1 X137.262 Y114.526 E.04753
G1 X137.038 Y115.731 E.03841
G1 X136.598 Y117.181 E.04753
G1 X136.038 Y118.448 E.04345
G1 X135.037 Y120.105 E.06069
G1 X134.272 Y121.062 E.03841
G1 X133.201 Y122.134 E.04752
G1 X131.764 Y123.23 E.05664
G1 X130.707 Y123.848 E.03841
G1 X129.321 Y124.463 E.04753
G1 X127.871 Y124.905 E.04753
G1 X126.378 Y125.165 E.04753
G1 X124.573 Y125.235 E.05664
G1 X123.064 Y125.09 E.04753
G1 X121.865 Y124.839 E.03841
G1 X120.425 Y124.366 E.04753
G1 X119.054 Y123.72 E.04753
G1 X117.772 Y122.912 E.04753
G1 X116.387 Y121.752 E.05664
G1 X115.365 Y120.632 E.04753
G1 X114.488 Y119.396 E.04753
G1 X113.769 Y118.062 E.04753
G1 X113.31 Y116.926 E.03841
G1 X112.902 Y115.466 E.04753
G1 X112.654 Y113.731 E.05495
G1 X112.628 Y96.965 E.52569
G1 X112.744 Y95.415 E.04872
G1 X112.979 Y94.182 E.03938
G1 X113.442 Y92.698 E.04872
G1 X114.029 Y91.405 E.04454
G1 X115.041 Y89.78 E.06003
M204 S1000
; printing object flagclip_new-Cut.stl id:0 copy 0
;WIPE_START
G1 F8640
G1 X115.879 Y88.753 E-.30591
G1 X116.999 Y87.676 E-.35878
G1 X117.998 Y86.95 E-.28531
;WIPE_END
G1 E-.05 F2100
G1 Z.4 F720
G1 X128.502 Y91.247 F10800
G1 Z.2 F720
G1 E1 F2100
M204 S800
;TYPE:Perimeter
G1 F1200
G1 X127.492 Y91.886 E.03745
G1 X127.665 Y92.61 E.02334
G1 X127.711 Y93.095 E.01528
G1 X127.661 Y93.624 E.01664
G1 X127.518 Y94.115 E.01605
G1 X127.285 Y94.571 E.01605
G1 X126.97 Y94.974 E.01605
G1 X126.585 Y95.311 E.01605
G1 X126.143 Y95.57 E.01605
G1 X125.987 Y95.626 E.00519
G1 X125.987 Y95.556 E.00219
G1 X126.483 Y95.301 E.01748
G1 X126.967 Y94.879 E.02015
G1 X127.335 Y94.352 E.02015
G1 X127.565 Y93.752 E.02015
G1 X127.643 Y93.114 E.02014
G1 X127.566 Y92.48 E.02004
G1 X127.339 Y91.883 E.02003
G1 X126.975 Y91.357 E.02003
G1 X126.496 Y90.935 E.02003
G1 X125.929 Y90.64 E.02003
G1 X125.308 Y90.489 E.02003
G1 X124.669 Y90.492 E.02003
G1 X124.05 Y90.648 E.02003
G1 X123.486 Y90.948 E.02003
G1 X123.01 Y91.374 E.02003
G1 X122.651 Y91.903 E.02003
G1 X122.429 Y92.502 E.02003
G1 X122.357 Y93.137 E.02003
G1 X122.44 Y93.77 E.02003
G1 X122.672 Y94.365 E.02003
G1 X123.04 Y94.887 E.02003
G1 X123.523 Y95.306 E.02003
G1 X124.013 Y95.556 E.01724
G1 X124.013 Y95.623 E.00211
G1 X123.807 Y95.546 E.00688
G1 X123.349 Y95.262 E.0169
G1 X122.957 Y94.893 E.0169
G1 X122.645 Y94.453 E.0169
G1 X122.426 Y93.96 E.0169
G1 X122.31 Y93.433 E.0169
G1 X122.3 Y92.894 E.0169
G1 X122.509 Y91.749 E.03651
G1 X121.57 Y91.189 E.03428
G1 X120.334 Y92.182 E.04971
G1 X119.597 Y93.002 E.03458
G1 X119.002 Y93.931 E.03458
G1 X118.566 Y94.944 E.03458
M73 Q3 S11
G1 X118.3 Y96.015 E.03458
G1 X118.213 Y97.082 E.03358
G1 X118.213 Y108.543 E.35937
G1 X116.101 Y110.662 E.09379
M73 P3 R11
G1 X115.741 Y111.072 E.01712
M73 P3 R10
G1 X115.783 Y110.422 E.02044
G1 X115.787 Y97.139 E.41647
G1 X115.861 Y95.959 E.03705
G1 X116.078 Y94.823 E.03627
G1 X116.435 Y93.723 E.03627
G1 X116.928 Y92.676 E.03627
G1 X117.548 Y91.7 E.03627
G1 X118.285 Y90.808 E.03627
G1 X119.128 Y90.016 E.03627
G1 X120.064 Y89.337 E.03627
G1 X121.078 Y88.779 E.03627
G1 X122.154 Y88.353 E.03627
G1 X123.274 Y88.066 E.03627
G1 X124.422 Y87.921 E.03627
G1 X125.578 Y87.921 E.03627
G1 X126.726 Y88.066 E.03627
G1 X127.846 Y88.353 E.03627
G1 X128.922 Y88.779 E.03627
G1 X129.936 Y89.337 E.03627
G1 X130.872 Y90.016 E.03627
G1 X131.715 Y90.808 E.03627
G1 X132.452 Y91.7 E.03627
G1 X133.072 Y92.676 E.03627
G1 X133.565 Y93.723 E.03627
G1 X133.922 Y94.823 E.03627
G1 X134.139 Y95.959 E.03627
G1 X134.213 Y97.139 E.03705
G1 X134.213 Y112.845 E.49245
G1 X134.142 Y113.995 E.03614
M73 Q3 S10
G1 X133.936 Y115.105 E.03538
G1 X133.596 Y116.18 E.03538
G1 X133.126 Y117.207 E.03538
G1 X132.535 Y118.168 E.03538
G1 X131.83 Y119.049 E.03538
G1 X131.023 Y119.838 E.03538
G1 X130.126 Y120.522 E.03538
G1 X129.152 Y121.092 E.03538
G1 X128.115 Y121.538 E.03538
G1 X127.032 Y121.853 E.03538
G1 X125.918 Y122.034 E.03538
G1 X124.791 Y122.078 E.03538
G1 X123.666 Y121.983 E.03538
G1 X122.562 Y121.752 E.03538
G1 X121.494 Y121.387 E.03538
G1 X120.479 Y120.894 E.03538
G1 X119.531 Y120.281 E.03538
G1 X118.666 Y119.557 E.03538
G1 X117.896 Y118.732 E.03538
G1 X117.232 Y117.82 E.03538
G1 X116.685 Y116.833 E.03538
G1 X116.263 Y115.786 E.03538
G1 X115.972 Y114.696 E.03538
G1 X115.863 Y113.918 E.02463
G1 X117.911 Y111.863 E.09098
G1 X118.25 Y111.479 E.01605
G1 X118.219 Y111.932 E.01424
G1 X118.213 Y112.898 E.03027
G1 X118.294 Y113.931 E.03249
G1 X118.543 Y114.967 E.0334
G1 X118.951 Y115.951 E.0334
G1 X119.507 Y116.86 E.0334
G1 X120.199 Y117.67 E.0334
G1 X121.009 Y118.362 E.03341
G1 X121.918 Y118.918 E.0334
G1 X122.902 Y119.326 E.0334
G1 X123.938 Y119.575 E.0334
G1 X125 Y119.658 E.0334
G1 X126.062 Y119.575 E.0334
G1 X127.098 Y119.326 E.0334
G1 X128.082 Y118.918 E.0334
G1 X128.991 Y118.362 E.0334
G1 X129.801 Y117.67 E.0334
G1 X130.493 Y116.86 E.0334
G1 X131.05 Y115.951 E.0334
G1 X131.457 Y114.967 E.0334
G1 X131.706 Y113.931 E.0334
G1 X131.787 Y112.9 E.03243
G1 X131.787 Y97.082 E.49596
G1 X131.7 Y96.015 E.03358
M73 P4 R10
M73 Q4 S10
G1 X131.434 Y94.944 E.03458
G1 X130.998 Y93.931 E.03458
G1 X130.403 Y93.002 E.03458
G1 X129.666 Y92.182 E.03458
G1 X128.548 Y91.285 E.04493
M204 S1000
G1 X128.476 Y91.71 F10800
M204 S800
;TYPE:External perimeter
G1 F1200
G1 X127.922 Y92.06 E.02056
G1 X128.036 Y92.54 E.01545
G1 X128.076 Y92.826 E.00905
G1 X128.089 Y93.104 E.00874
G1 X128.033 Y93.695 E.0186
G1 X127.87 Y94.255 E.01829
G1 X127.604 Y94.774 E.01829
G1 X127.245 Y95.234 E.01829
G1 X126.806 Y95.619 E.01829
G1 X126.303 Y95.914 E.01829
G1 X125.753 Y96.109 E.01829
G1 X125.61 Y96.131 E.00454
G1 X125.61 Y95.278 E.02673
G1 X125.78 Y95.238 E.00549
G1 X126.27 Y94.987 E.01725
G1 X126.685 Y94.625 E.01725
G1 X126.999 Y94.174 E.01725
G1 X127.196 Y93.66 E.01725
G1 X127.263 Y93.114 E.01725
G1 X127.197 Y92.571 E.01716
G1 X127.002 Y92.06 E.01715
G1 X126.691 Y91.61 E.01715
G1 X126.281 Y91.248 E.01715
G1 X125.796 Y90.995 E.01715
G1 X125.264 Y90.866 E.01715
G1 X124.717 Y90.869 E.01715
G1 X124.186 Y91.002 E.01715
G1 X123.703 Y91.259 E.01715
G1 X123.296 Y91.624 E.01715
G1 X122.989 Y92.077 E.01715
G1 X122.799 Y92.59 E.01715
G1 X122.737 Y93.133 E.01715
G1 X122.808 Y93.676 E.01715
G1 X123.007 Y94.185 E.01715
G1 X123.322 Y94.632 E.01715
G1 X123.735 Y94.991 E.01715
G1 X124.223 Y95.239 E.01715
G1 X124.39 Y95.278 E.00539
G1 X124.39 Y96.128 E.02665
G1 X124.217 Y96.101 E.00551
G1 X123.641 Y95.887 E.01927
G1 X123.118 Y95.562 E.01927
G1 X122.671 Y95.141 E.01927
G1 X122.315 Y94.64 E.01927
G1 X122.066 Y94.078 E.01927
G1 X121.934 Y93.478 E.01927
G1 X121.922 Y92.864 E.01927
G1 X122.091 Y91.939 E.02948
G1 X121.602 Y91.647 E.01785
G1 X120.594 Y92.456 E.04054
G1 X119.898 Y93.231 E.03266
G1 X119.337 Y94.109 E.03266
G1 X118.925 Y95.065 E.03266
G1 X118.673 Y96.076 E.03266
G1 X118.59 Y97.097 E.03213
G1 X118.59 Y108.699 E.36377
G1 X116.376 Y110.921 E.09833
G1 X116.05 Y111.287 E.01538
G1 X115.505 Y112.067 E.02982
G1 X115.21 Y112.362 E.01309
G1 X115.21 Y111.906 E.01429
G1 X115.311 Y111.428 E.01532
G1 X115.381 Y110.919 E.01611
G1 X115.406 Y110.412 E.01591
G1 X115.41 Y97.127 E.41656
G1 X115.486 Y95.912 E.03816
G1 X115.712 Y94.729 E.03776
G1 X116.084 Y93.584 E.03776
G1 X116.597 Y92.494 E.03776
G1 X117.242 Y91.478 E.03776
G1 X118.01 Y90.55 E.03776
G1 X118.888 Y89.725 E.03776
G1 X119.862 Y89.018 E.03776
G1 X120.917 Y88.437 E.03776
G1 X122.037 Y87.994 E.03776
G1 X123.203 Y87.695 E.03776
G1 X124.398 Y87.544 E.03776
G1 X125.602 Y87.544 E.03776
G1 X126.797 Y87.695 E.03776
G1 X127.963 Y87.994 E.03776
G1 X129.083 Y88.437 E.03776
G1 X130.138 Y89.018 E.03776
G1 X131.112 Y89.725 E.03776
G1 X131.99 Y90.55 E.03776
G1 X132.758 Y91.478 E.03776
G1 X133.403 Y92.494 E.03776
G1 X133.916 Y93.584 E.03776
G1 X134.288 Y94.729 E.03776
G1 X134.514 Y95.912 E.03776
G1 X134.59 Y97.127 E.03816
G1 X134.59 Y112.856 E.49319
G1 X134.517 Y114.041 E.03723
G1 X134.302 Y115.196 E.03683
G1 X133.948 Y116.316 E.03683
G1 X133.459 Y117.385 E.03683
G1 X132.844 Y118.385 E.03683
G1 X132.111 Y119.303 E.03683
M73 Q5 S10
G1 X131.27 Y120.124 E.03683
G1 X130.336 Y120.836 E.03683
G1 X129.322 Y121.429 E.03683
G1 X128.243 Y121.893 E.03683
M73 P5 R10
G1 X127.115 Y122.222 E.03683
G1 X125.956 Y122.41 E.03683
G1 X124.782 Y122.456 E.03683
G1 X123.611 Y122.357 E.03683
G1 X122.462 Y122.116 E.03683
G1 X121.35 Y121.736 E.03683
G1 X120.293 Y121.224 E.03683
G1 X119.307 Y120.585 E.03683
G1 X118.406 Y119.831 E.03683
G1 X117.604 Y118.973 E.03683
G1 X116.914 Y118.023 E.03683
G1 X116.344 Y116.995 E.03683
G1 X115.904 Y115.906 E.03683
G1 X115.601 Y114.771 E.03683
G1 X115.464 Y113.785 E.03123
G1 X117.636 Y111.605 E.0965
G1 X117.959 Y111.24 E.01527
G1 X118.5 Y110.466 E.0296
G1 X118.79 Y110.176 E.01287
G1 X118.79 Y110.565 E.01219
G1 X118.629 Y111.472 E.02889
G1 X118.596 Y111.947 E.01492
G1 X118.59 Y112.884 E.0294
G1 X118.668 Y113.872 E.03106
G1 X118.903 Y114.85 E.03154
G1 X119.288 Y115.78 E.03154
G1 X119.813 Y116.637 E.03154
G1 X120.467 Y117.402 E.03154
G1 X121.232 Y118.056 E.03154
G1 X122.089 Y118.581 E.03154
G1 X123.019 Y118.966 E.03154
G1 X123.997 Y119.201 E.03154
G1 X125 Y119.28 E.03154
G1 X126.003 Y119.201 E.03154
G1 X126.981 Y118.966 E.03154
G1 X127.911 Y118.581 E.03154
G1 X128.768 Y118.056 E.03154
G1 X129.533 Y117.402 E.03154
G1 X130.187 Y116.637 E.03154
G1 X130.712 Y115.78 E.03154
G1 X131.097 Y114.85 E.03154
G1 X131.332 Y113.872 E.03154
G1 X131.41 Y112.885 E.03104
G1 X131.41 Y97.097 E.49501
G1 X131.327 Y96.076 E.03213
G1 X131.075 Y95.065 E.03266
G1 X130.663 Y94.109 E.03266
G1 X130.102 Y93.231 E.03266
G1 X129.406 Y92.456 E.03266
G1 X128.522 Y91.747 E.03553
M204 S1000
G1 X128.234 Y91.391 F10800
;WIPE_START
G1 F8640
G1 X127.922 Y92.06 E-.15644
G1 X128.036 Y92.54 E-.1138
G1 X128.076 Y92.826 E-.06666
G1 X128.089 Y93.104 E-.06439
G1 X128.033 Y93.695 E-.137
G1 X127.87 Y94.255 E-.13471
G1 X127.604 Y94.774 E-.13471
G1 X127.245 Y95.234 E-.13471
G1 X127.221 Y95.256 E-.00757
;WIPE_END
G1 E-.05 F2100
G1 Z.4 F720
G1 X130.096 Y89.593 F10800
G1 Z.2 F720
G1 E1 F2100
M204 S800
;TYPE:Solid infill
;WIDTH:0.424303
G1 F1200
G1 X131.521 Y91.018 E.06391
G1 X132.223 Y91.866 E.03491
G1 X132.865 Y92.902 E.03864
G1 X129.241 Y89.278 E.16253
G1 X128.801 Y89.036 E.01593
G1 X128.236 Y88.812 E.01927
G1 X133.325 Y93.9 E.2282
G1 X133.584 Y94.699 E.02664
G1 X127.421 Y88.536 E.27639
G1 X126.696 Y88.35 E.02376
G1 X133.744 Y95.398 E.31609
G1 X133.861 Y96.055 E.02117
G1 X126.075 Y88.269 E.3492
G1 X125.471 Y88.204 E.01928
G1 X128.304 Y91.037 E.12708
G1 X127.974 Y91.246 E.0124
M73 Q6 S10
G1 X124.931 Y88.204 E.13646
G1 X124.397 Y88.209 E.01694
M73 P6 R10
G1 X127.644 Y91.455 E.14559
G1 X127.465 Y91.568 E.00671
G1 X127.188 Y91.168 E.01544
G1 X126.657 Y90.7 E.02244
G1 X126.02 Y90.371 E.02274
G1 X123.918 Y88.269 E.09424
G1 X123.44 Y88.33 E.01531
G1 X125.316 Y90.206 E.08415
G1 X124.779 Y90.209 E.01703
G1 X122.999 Y88.428 E.07984
G1 X122.57 Y88.539 E.01405
G1 X124.319 Y90.288 E.07847
G1 X123.899 Y90.408 E.01385
G1 X122.15 Y88.659 E.07843
G1 X121.764 Y88.812 E.01318
G1 X123.547 Y90.595 E.07997
G1 X123.323 Y90.714 E.00806
G1 X123.22 Y90.807 E.00439
G1 X121.378 Y88.965 E.08261
G1 X121.199 Y89.036 E.0061
G1 X121.012 Y89.138 E.00676
G1 X122.935 Y91.062 E.08626
G1 X122.796 Y91.187 E.00594
G1 X122.685 Y91.35 E.00627
G1 X120.664 Y89.33 E.09063
G1 X120.316 Y89.521 E.01259
G1 X121.78 Y90.985 E.06565
G1 X121.546 Y90.846 E.00861
G1 X121.299 Y91.044 E.01004
G1 X119.993 Y89.738 E.05858
G1 X119.681 Y89.965 E.01225
G1 X121 Y91.284 E.05917
G1 X120.701 Y91.524 E.01217
G1 X119.368 Y90.192 E.05977
G1 X119.084 Y90.446 E.01211
G1 X120.402 Y91.764 E.05911
G1 X120.108 Y92.01 E.01214
G1 X118.806 Y90.708 E.05841
G1 X118.527 Y90.969 E.0121
G1 X119.853 Y92.294 E.05944
G1 X119.598 Y92.578 E.01211
G1 X118.279 Y91.26 E.05914
G1 X118.035 Y91.555 E.01215
G1 X119.347 Y92.867 E.05887
G1 X119.137 Y93.196 E.01238
G1 X117.791 Y91.85 E.06038
G1 X117.777 Y91.866 E.00067
G1 X117.579 Y92.178 E.01171
G1 X118.926 Y93.525 E.06042
G1 X118.724 Y93.862 E.01247
G1 X117.37 Y92.508 E.06074
G1 X117.163 Y92.841 E.01242
G1 X118.562 Y94.239 E.06273
G1 X118.4 Y94.616 E.01302
G1 X116.991 Y93.207 E.06319
G1 X116.818 Y93.574 E.01285
G1 X118.258 Y95.014 E.06456
G1 X118.15 Y95.446 E.01411
G1 X116.658 Y93.954 E.06692
G1 X116.526 Y94.361 E.01357
G1 X118.043 Y95.878 E.06803
G1 X117.988 Y96.362 E.01547
G1 X116.393 Y94.768 E.07151
