; generated by PrusaSlicer 2.4.2+arm64 on 2022-05-26 at 16:53:38 UTC


;
;
; 

; external perimeters extrusion width = 0.45mm
; perimeters extrusion width = 0.45mm
; infill extrusion width = 0.45mm
; solid infill extrusion width = 0.45mm
; top infill extrusion width = 0.40mm
; first layer extrusion width = 0.42mm

M73 P0 R32
M73 Q0 S32
M201 X1000 Y1000 Z200 E5000 ; sets maximum accelerations, mm/sec^2
M203 X200 Y200 Z12 E120 ; sets maximum feedrates, mm / sec
M204 P1250 R1250 T1250 ; sets acceleration (P, T) and retract acceleration (R), mm/sec^2
M205 X8.00 Y8.00 Z0.40 E4.50 ; sets the jerk limits, mm/sec
M205 S0 T0 ; sets the minimum extruding and travel feed rate, mm/sec
M107
;TYPE:Custom
M862.3 P "MK3S" ; printer model check
M862.1 P0.4 ; nozzle diameter check
M115 U3.11.0 ; tell printer latest fw version
G90 ; use absolute coordinates
M83 ; extruder relative mode
M104 S230 ; set extruder temp
M140 S85 ; set bed temp
M190 S85 ; wait for bed temp
M109 S230 ; wait for extruder temp
G28 W ; home all without mesh bed level
G80 ; mesh bed leveling
G1 Z0.2 F720
G1 Y-3 F1000 ; go outside print area
G92 E0
G1 X60 E9 F1000 ; intro line
G1 X100 E12.5 F1000 ; intro line
G92 E0
M221 S95

; Don't change E values below. Excessive value can damage the printer.
M907 E430 ; set extruder motor current
G21 ; set units to millimeters
G90 ; use absolute coordinates
M83 ; use relative distances for extrusion
M900 K0.08 ; Filament gcode LA 1.5
M900 K45 ; Filament gcode LA 1.0
M107
;LAYER_CHANGE
;Z:0.2
;HEIGHT:0.2
;BEFORE_LAYER_CHANGE
G92 E0.0
;0.2


G1 E-1 F2100
G1 Z.2 F720
;AFTER_LAYER_CHANGE
;0.2
G1 Z.4
G1 X117.759 Y62.747 F10800
G1 Z.2 F720
G1 E1 F2100
M204 S800
;TYPE:Skirt/Brim
;WIDTH:0.42
G1 F1200
G1 X118.41 Y61.773 E.03672
G1 X119.157 Y61.1 E.03153
G1 X120.747 Y60.49 E.0534
G1 X130 Y60.49 E.29011
G1 X131.307 Y60.882 E.04278
G1 X132.248 Y62.094 E.04813
G1 X140.617 Y86.438 E.80713
G1 X141.158 Y88.733 E.07391
G1 X141.374 Y91.254 E.07934
G1 X143.293 Y131.419 E1.26078
G1 X143.083 Y133.981 E.0806
G1 X142.414 Y136.813 E.09126
G1 X141.455 Y139.205 E.08079
G1 X140.353 Y141.158 E.07031
G1 X138.803 Y143.216 E.08079
G1 X136.725 Y145.254 E.09126
G1 X134.918 Y146.583 E.07031
G1 X132.66 Y147.824 E.08079
G1 X129.929 Y148.828 E.09126
G1 X127.404 Y149.346 E.08079
G1 X125.167 Y149.504 E.07031
G1 X122.596 Y149.346 E.08079
G1 X120.071 Y148.828 E.08079
G1 X117.34 Y147.824 E.09126
G1 X115.082 Y146.583 E.08079
G1 X113.02 Y145.037 E.08079
G1 X111.197 Y143.216 E.08079
G1 X109.647 Y141.158 E.08079
G1 X108.402 Y138.902 E.08079
G1 X107.486 Y136.494 E.08079
G1 X106.917 Y133.981 E.08079
G1 X106.707 Y131.42 E.08057
G1 X108.655 Y90.426 E1.28678
G1 X108.962 Y88.077 E.07428
G1 X109.545 Y85.949 E.06917
G1 X117.739 Y62.803 E.76986
M204 S1000
; printing object flagclip.stl id:0 copy 0
;WIPE_START
G1 F8640
M73 P0 R31
G1 X118.41 Y61.773 E-.28383
G1 X119.157 Y61.1 E-.23219
G1 X120.747 Y60.49 E-.39328
G1 X120.924 Y60.49 E-.0407
;WIPE_END
G1 E-.05 F2100
G1 Z.4 F720
G1 X124.287 Y63.649 F10800
G1 Z.2 F720
G1 E1 F2100
M204 S800
;TYPE:Perimeter
G1 F1200
G1 X123.448 Y63.906 E.0275
G1 X123.223 Y64.042 E.00824
G1 X122.711 Y63.62 E.02083
G1 X123.164 Y63.648 E.01423
G1 X124.227 Y63.649 E.03333
M204 S1000
;WIPE_START
G1 F8640
G1 X123.448 Y63.906 E-.1893
G1 X123.223 Y64.042 E-.0607
G1 X122.711 Y63.62 E-.1534
G1 X123.164 Y63.648 E-.10477
G1 X124.227 Y63.649 E-.24546
;WIPE_END
G1 E-.24638 F2100
G1 Z.4 F720
G1 X129.213 Y82.231 F10800
G1 Z.2 F720
G1 E1 F2100
M204 S800
G1 F1200
G1 X130.055 Y81.789 E.02982
G1 X131.805 Y82.994 E.06664
G1 X133.044 Y84.177 E.0537
G1 X134.081 Y85.54 E.0537
G1 X134.889 Y87.051 E.0537
M73 Q1 S32
G1 X135.787 Y89.654 E.08635
G1 X132.086 Y89.654 E.11604
M73 P1 R31
G1 X131.29 Y87.845 E.06197
G1 X130.5 Y86.706 E.04347
G1 X129.213 Y85.455 E.05628
G1 X129.213 Y82.291 E.09918
M204 S1000
G1 X129.59 Y82.459 F10800
M204 S800
;TYPE:External perimeter
G1 F1200
G1 X130.029 Y82.229 E.01553
G1 X131.567 Y83.288 E.05856
G1 X132.762 Y84.429 E.05182
G1 X133.763 Y85.745 E.05182
G1 X134.542 Y87.202 E.05182
G1 X135.258 Y89.277 E.06883
G1 X132.332 Y89.277 E.09174
G1 X131.621 Y87.66 E.05539
G1 X130.789 Y86.461 E.04576
G1 X129.59 Y85.295 E.05243
G1 X129.59 Y82.519 E.08704
M204 S1000
G1 X129.427 Y82.094 F10800
;WIPE_START
G1 F8640
G1 X130.029 Y82.229 E-.12145
G1 X131.567 Y83.288 E-.43126
G1 X132.762 Y84.429 E-.3816
G1 X132.804 Y84.483 E-.01568
;WIPE_END
G1 E-.05 F2100
G1 Z.4 F720
G1 X120.787 Y82.231 F10800
G1 Z.2 F720
G1 E1 F2100
M204 S800
;TYPE:Perimeter
G1 F1200
G1 X120.787 Y85.455 E.10106
G1 X119.5 Y86.706 E.05628
G1 X118.71 Y87.845 E.04347
G1 X117.914 Y89.654 E.06196
G1 X114.213 Y89.654 E.11604
G1 X115.111 Y87.051 E.08635
G1 X115.919 Y85.54 E.0537
G1 X116.956 Y84.177 E.0537
G1 X118.195 Y82.994 E.0537
G1 X119.945 Y81.789 E.06664
G1 X120.734 Y82.203 E.02794
M204 S1000
G1 X120.41 Y82.459 F10800
M204 S800
;TYPE:External perimeter
G1 F1200
G1 X120.41 Y85.295 E.08893
G1 X119.211 Y86.461 E.05243
G1 X118.379 Y87.66 E.04576
G1 X117.668 Y89.277 E.05539
G1 X114.742 Y89.277 E.09174
G1 X115.458 Y87.202 E.06883
G1 X116.237 Y85.745 E.05182
G1 X117.238 Y84.429 E.05182
G1 X118.433 Y83.288 E.05182
G1 X119.971 Y82.229 E.05856
G1 X120.357 Y82.431 E.01365
M204 S1000
G1 X120.807 Y82.406 F10800
;WIPE_START
G1 F8640
G1 X120.41 Y85.295 E-.66143
G1 X119.514 Y86.167 E-.28857
;WIPE_END
G1 E-.05 F2100
M73 Q1 S31
G1 Z.4 F720
G1 X129.213 Y78.79 F10800
G1 Z.2 F720
G1 E1 F2100
M204 S800
;TYPE:Perimeter
G1 F1200
G1 X131.517 Y79.876 E.07987
G1 X133.168 Y80.985 E.06236
G1 X134.635 Y82.329 E.06236
G1 X135.882 Y83.877 E.06236
G1 X136.883 Y85.596 E.06236
G1 X137.615 Y87.446 E.06236
G1 X138.061 Y89.384 E.06236
G1 X138.211 Y91.37 E.06244
G1 X138.085 Y93.186 E.05708
G1 X137.71 Y94.97 E.05716
G1 X137.093 Y96.685 E.05716
G1 X136.246 Y98.3 E.05716
G1 X135.185 Y99.782 E.05716
G1 X133.929 Y101.104 E.05716
G1 X132.042 Y102.608 E.07567
G1 X139.614 Y127.282 E.80922
G1 X140.022 Y129.387 E.06726
G1 X140.129 Y131.516 E.06683
G1 X139.936 Y133.639 E.06683
G1 X139.447 Y135.713 E.06683
G1 X138.671 Y137.699 E.06683
G1 X137.624 Y139.555 E.06683
G1 X136.327 Y141.246 E.06683
G1 X134.804 Y142.738 E.06683
G1 X133.088 Y144.001 E.06683
G1 X131.211 Y145.011 E.06683
G1 X129.21 Y145.746 E.06683
G1 X127.126 Y146.194 E.06683
G1 X125 Y146.344 E.06683
G1 X122.874 Y146.194 E.06683
G1 X120.79 Y145.746 E.06683
G1 X118.789 Y145.011 E.06683
G1 X116.912 Y144.001 E.06683
G1 X115.196 Y142.738 E.06683
G1 X113.673 Y141.246 E.06683
G1 X112.376 Y139.555 E.06683
G1 X111.329 Y137.699 E.06683
G1 X110.553 Y135.713 E.06683
G1 X110.064 Y133.639 E.06683
G1 X109.871 Y131.516 E.06683
G1 X109.978 Y129.387 E.06683
G1 X110.386 Y127.282 E.06726
G1 X110.612 Y126.545 E.02417
G1 X112.817 Y128.395 E.09026
G1 X112.496 Y130.08 E.05378
G1 X112.45 Y132.082 E.0628
G1 X112.723 Y134.065 E.06274
G1 X113.307 Y135.978 E.06274
G1 X114.186 Y137.776 E.06274
G1 X115.34 Y139.41 E.06274
G1 X116.739 Y140.841 E.06274
G1 X118.347 Y142.032 E.06274
G1 X120.124 Y142.953 E.06274
G1 X122.024 Y143.58 E.06274
G1 X124 Y143.897 E.06274
G1 X126 Y143.897 E.06274
G1 X127.976 Y143.58 E.06274
G1 X129.876 Y142.953 E.06274
G1 X131.653 Y142.032 E.06274
G1 X133.261 Y140.841 E.06274
G1 X134.66 Y139.41 E.06274
G1 X135.814 Y137.776 E.06274
G1 X136.693 Y135.978 E.06274
G1 X137.277 Y134.065 E.06274
G1 X137.55 Y132.082 E.06274
G1 X137.504 Y130.082 E.06274
G1 X137.145 Y128.131 E.0622
G1 X128.934 Y101.374 E.87756
G1 X129.896 Y100.982 E.03257
G1 X131.447 Y100.019 E.05725
G1 X132.814 Y98.808 E.05725
G1 X133.956 Y97.384 E.05725
G1 X134.843 Y95.788 E.05725
G1 X135.793 Y93.08 E.08997
G1 X132.086 Y93.08 E.11623
G1 X131.29 Y94.89 E.062
G1 X130.498 Y96.03 E.04351
G1 X129.503 Y96.997 E.04351
G1 X128.341 Y97.755 E.04351
G1 X127.056 Y98.277 E.04351
G1 X125.694 Y98.543 E.04351
G1 X124.306 Y98.543 E.04351
G1 X122.944 Y98.277 E.04351
G1 X121.659 Y97.755 E.04351
G1 X120.497 Y96.997 E.04351
G1 X119.502 Y96.03 E.04351
G1 X118.71 Y94.89 E.04351
G1 X117.914 Y93.08 E.062
G1 X114.207 Y93.08 E.11623
G1 X115.157 Y95.788 E.08997
G1 X116.044 Y97.384 E.05725
G1 X117.186 Y98.808 E.05725
G1 X118.553 Y100.019 E.05725
G1 X120.104 Y100.982 E.05725
G1 X121.066 Y101.374 E.03257
G1 X113.762 Y125.175 E.78062
G1 X111.591 Y123.353 E.08886
G1 X117.957 Y102.61 E.68032
G1 X116.006 Y101.043 E.07846
M73 P2 R31
M73 Q2 S31
G1 X114.703 Y99.644 E.05993
G1 X113.617 Y98.071 E.05993
G1 X112.768 Y96.358 E.05993
G1 X112.176 Y94.541 E.05993
G1 X111.852 Y92.657 E.05993
G1 X111.804 Y90.746 E.05994
G1 X112.032 Y88.848 E.05993
G1 X112.531 Y87.003 E.05993
G1 X113.291 Y85.249 E.05993
G1 X114.297 Y83.624 E.05993
G1 X115.526 Y82.16 E.05993
G1 X116.954 Y80.889 E.05993
G1 X118.55 Y79.838 E.05993
G1 X120.787 Y78.791 E.07743
G1 X120.784 Y65.987 E.40147
G1 X120.763 Y65.457 E.01661
G1 X120.727 Y65.175 E.00893
G1 X120.861 Y65.335 E.00656
G1 X121.501 Y65.947 E.02777
G1 X121.421 Y66.112 E.00575
G1 X121.23 Y66.954 E.02706
G1 X121.235 Y67.817 E.02706
G1 X121.434 Y68.657 E.02706
G1 X121.818 Y69.43 E.02706
G1 X122.366 Y70.096 E.02706
G1 X123.052 Y70.621 E.02706
G1 X123.704 Y70.916 E.02245
G1 X123.407 Y71.073 E.01054
G1 X122.905 Y71.52 E.02104
G1 X122.525 Y72.073 E.02104
G1 X122.288 Y72.701 E.02104
G1 X122.207 Y73.367 E.02104
G1 X122.288 Y74.034 E.02104
G1 X122.525 Y74.661 E.02104
G1 X122.905 Y75.214 E.02104
G1 X123.407 Y75.661 E.02104
G1 X123.821 Y75.88 E.0147
G1 X123.649 Y75.965 E.00603
G1 X123.232 Y76.292 E.0166
G1 X122.892 Y76.698 E.0166
G1 X122.642 Y77.168 E.01671
G1 X122.489 Y77.718 E.0179
G1 X122.464 Y78.292 E.01801
G1 X122.568 Y78.857 E.01801
G1 X122.796 Y79.384 E.01801
G1 X123.137 Y79.847 E.01801
G1 X123.497 Y80.156 E.01489
G1 X123.278 Y80.354 E.00925
G1 X122.982 Y80.781 E.01631
G1 X122.788 Y81.266 E.01638
G1 X122.708 Y81.804 E.01704
G1 X122.758 Y82.347 E.01711
G1 X122.935 Y82.863 E.01711
G1 X123.229 Y83.323 E.01711
G1 X123.623 Y83.7 E.01711
G1 X123.943 Y83.886 E.01163
G1 X123.685 Y84.054 E.00967
G1 X123.34 Y84.426 E.01591
G1 X123.098 Y84.872 E.01591
G1 X122.973 Y85.363 E.01591
G1 X122.973 Y85.871 E.01591
G1 X123.098 Y86.363 E.01591
G1 X123.34 Y86.808 E.01591
G1 X123.592 Y87.08 E.01161
G1 X122.833 Y87.08 E.02379
G1 X122.158 Y87.513 E.02515
G1 X121.682 Y87.915 E.01952
G1 X121.249 Y88.388 E.02011
G1 X120.685 Y89.282 E.03315
G1 X120.329 Y90.298 E.03374
G1 X120.208 Y91.367 E.03374
G1 X120.329 Y92.437 E.03374
G1 X120.685 Y93.452 E.03374
G1 X121.259 Y94.362 E.03373
G1 X122.018 Y95.118 E.03358
G1 X122.925 Y95.687 E.03357
G1 X123.936 Y96.04 E.03357
G1 X125 Y96.159 E.03357
G1 X126.064 Y96.04 E.03357
G1 X127.075 Y95.687 E.03357
G1 X127.982 Y95.118 E.03357
G1 X128.741 Y94.362 E.03358
G1 X129.315 Y93.452 E.03374
G1 X129.671 Y92.437 E.03374
G1 X129.792 Y91.367 E.03374
G1 X129.671 Y90.298 E.03374
G1 X129.315 Y89.282 E.03374
G1 X128.751 Y88.388 E.03315
G1 X128.318 Y87.915 E.02011
G1 X127.842 Y87.513 E.01952
G1 X127.167 Y87.08 E.02515
G1 X126.406 Y87.08 E.02387
G1 X126.582 Y86.909 E.0077
G1 X126.833 Y86.517 E.01458
G1 X126.989 Y86.079 E.01458
G1 X127.042 Y85.617 E.01458
G1 X126.989 Y85.155 E.01458
G1 X126.833 Y84.717 E.01458
G1 X126.582 Y84.326 E.01458
G1 X126.249 Y84.001 E.01458
G1 X126.057 Y83.885 E.00702
G1 X126.36 Y83.712 E.01094
G1 X126.751 Y83.347 E.01677
G1 X127.046 Y82.901 E.01677
G1 X127.23 Y82.398 E.01677
G1 X127.289 Y81.896 E.01587
G1 X127.278 Y81.651 E.00768
G1 X127.206 Y81.25 E.01277
G1 X127.018 Y80.781 E.01585
G1 X126.722 Y80.354 E.01631
G1 X126.507 Y80.159 E.00908
G1 X126.922 Y79.782 E.0176
G1 X127.26 Y79.282 E.01892
G1 X127.471 Y78.716 E.01892
G1 X127.54 Y78.139 E.01824
G1 X127.518 Y77.793 E.01087
G1 X127.456 Y77.474 E.01018
G1 X127.349 Y77.151 E.01068
G1 X127.108 Y76.698 E.0161
G1 X126.768 Y76.292 E.0166
G1 X126.351 Y75.965 E.0166
G1 X126.179 Y75.88 E.00603
G1 X126.593 Y75.661 E.0147
G1 X127.095 Y75.214 E.02104
G1 X127.475 Y74.661 E.02104
G1 X127.712 Y74.034 E.02104
G1 X127.793 Y73.367 E.02104
G1 X127.712 Y72.701 E.02104
G1 X127.475 Y72.073 E.02104
G1 X127.095 Y71.52 E.02104
G1 X126.593 Y71.073 E.02104
G1 X126.291 Y70.914 E.01072
G1 X126.733 Y70.739 E.0149
G1 X127.342 Y70.346 E.0227
G1 X127.67 Y70.055 E.01377
G1 X127.953 Y69.74 E.01325
G1 X128.208 Y69.384 E.01373
G1 X128.525 Y68.762 E.02189
G1 X128.723 Y68.077 E.02236
G1 X128.792 Y67.355 E.02274
G1 X128.676 Y66.432 E.02916
G1 X128.332 Y65.555 E.02954
G1 X127.783 Y64.79 E.02954
G1 X127.062 Y64.183 E.02954
G1 X126.213 Y63.773 E.02954
G1 X125.611 Y63.65 E.01927
G1 X129.213 Y63.654 E.11293
G1 X129.213 Y78.73 E.47269
M204 S1000
G1 X129.59 Y78.55 F10800
M204 S800
;TYPE:External perimeter
G1 F1200
G1 X131.704 Y79.547 E.07327
G1 X133.402 Y80.687 E.06415
G1 X134.91 Y82.07 E.06415
G1 X136.194 Y83.663 E.06415
G1 X137.224 Y85.431 E.06415
G1 X137.976 Y87.333 E.06415
G1 X138.435 Y89.327 E.06415
G1 X138.589 Y91.368 E.06419
G1 X138.46 Y93.238 E.05875
G1 X138.074 Y95.073 E.0588
G1 X137.439 Y96.838 E.05879
G1 X136.568 Y98.498 E.0588
G1 X135.476 Y100.022 E.0588
G1 X134.185 Y101.382 E.05879
G1 X132.478 Y102.743 E.06844
G1 X139.981 Y127.19 E.8018
G1 X140.397 Y129.342 E.06872
G1 X140.507 Y131.524 E.0685
G1 X140.309 Y133.699 E.0685
G1 X139.808 Y135.826 E.0685
G1 X139.013 Y137.861 E.0685
G1 X137.94 Y139.764 E.0685
G1 X136.61 Y141.497 E.0685
G1 X135.049 Y143.026 E.0685
G1 X133.29 Y144.321 E.0685
G1 X131.366 Y145.355 E.0685
G1 X129.315 Y146.109 E.0685
G1 X127.179 Y146.568 E.0685
G1 X125 Y146.722 E.0685
G1 X122.821 Y146.568 E.0685
G1 X120.685 Y146.109 E.0685
G1 X118.634 Y145.355 E.0685
G1 X116.71 Y144.321 E.0685
G1 X114.951 Y143.026 E.0685
G1 X113.39 Y141.497 E.0685
G1 X112.06 Y139.764 E.0685
G1 X110.987 Y137.861 E.0685
G1 X110.192 Y135.826 E.0685
G1 X109.691 Y133.699 E.0685
G1 X109.493 Y131.524 E.0685
G1 X109.603 Y129.342 E.0685
G1 X110.02 Y127.19 E.06872
G1 X110.419 Y125.89 E.04264
G1 X113.229 Y128.248 E.11504
G1 X112.872 Y130.12 E.05974
G1 X112.828 Y132.061 E.06087
G1 X113.092 Y133.983 E.06085
G1 X113.658 Y135.84 E.06085
G1 X114.512 Y137.583 E.06085
G1 X115.631 Y139.168 E.06085
G1 X116.988 Y140.556 E.06085
G1 X118.547 Y141.711 E.06085
G1 X120.27 Y142.604 E.06085
G1 X122.113 Y143.212 E.06085
G1 X124.03 Y143.52 E.06085
G1 X125.97 Y143.52 E.06085
G1 X127.887 Y143.212 E.06085
G1 X129.73 Y142.604 E.06085
G1 X131.453 Y141.711 E.06085
G1 X133.012 Y140.556 E.06085
G1 X134.369 Y139.168 E.06085
G1 X135.488 Y137.583 E.06085
G1 X136.342 Y135.84 E.06085
G1 X136.908 Y133.983 E.06085
G1 X137.172 Y132.061 E.06085
G1 X137.128 Y130.12 E.06085
G1 X136.778 Y128.221 E.06057
G1 X128.472 Y101.154 E.8877
G1 X129.724 Y100.645 E.04239
G1 X131.221 Y99.716 E.05524
G1 X132.54 Y98.547 E.05524
G1 X133.642 Y97.173 E.05524
G1 X134.498 Y95.633 E.05524
G1 X135.261 Y93.457 E.07229
G1 X132.332 Y93.457 E.09184
G1 X131.62 Y95.075 E.05543
G1 X130.787 Y96.275 E.04579
G1 X129.74 Y97.293 E.04579
G1 X128.517 Y98.091 E.04579
G1 X127.164 Y98.64 E.04579
G1 X125.73 Y98.92 E.04579
G1 X124.27 Y98.92 E.04579
G1 X122.836 Y98.64 E.04579
G1 X121.483 Y98.091 E.04579
G1 X120.26 Y97.293 E.04579
G1 X119.213 Y96.275 E.04579
G1 X118.38 Y95.075 E.04579
G1 X117.668 Y93.457 E.05543
G1 X114.739 Y93.457 E.09184
G1 X115.502 Y95.633 E.07229
G1 X116.358 Y97.173 E.05524
G1 X117.46 Y98.547 E.05524
G1 X118.779 Y99.716 E.05524
G1 X120.276 Y100.645 E.05524
G1 X121.528 Y101.154 E.04239
M73 P3 R31
M73 Q3 S31
G1 X113.956 Y125.83 E.80928
G1 X111.158 Y123.481 E.11454
G1 X117.521 Y102.744 E.68014
G1 X115.748 Y101.32 E.0713
G1 X114.409 Y99.881 E.06165
G1 X113.291 Y98.263 E.06165
G1 X112.418 Y96.501 E.06165
G1 X111.809 Y94.632 E.06165
G1 X111.476 Y92.694 E.06165
G1 X111.426 Y90.728 E.06165
G1 X111.66 Y88.776 E.06165
G1 X112.174 Y86.878 E.06165
G1 X112.956 Y85.074 E.06165
G1 X113.99 Y83.402 E.06165
G1 X115.255 Y81.896 E.06165
G1 X116.724 Y80.589 E.06165
G1 X118.366 Y79.508 E.06165
G1 X120.41 Y78.551 E.07076
G1 X120.407 Y65.994 E.39372
G1 X120.387 Y65.489 E.01585
G1 X120.321 Y64.978 E.01617
G1 X120.21 Y64.499 E.0154
G1 X120.214 Y64.017 E.01512
G1 X120.547 Y64.315 E.014
G1 X120.82 Y64.699 E.01477
G1 X121.139 Y65.08 E.01558
G1 X121.964 Y65.858 E.03555
G1 X121.78 Y66.238 E.01324
G1 X121.608 Y66.995 E.02435
G1 X121.611 Y67.772 E.02435
G1 X121.791 Y68.528 E.02435
G1 X122.136 Y69.223 E.02435
G1 X122.63 Y69.823 E.02435
