; generated by PrusaSlicer 2.6.0+MacOS-arm64 on 2023-06-26 at 12:36:45 UTC


;
;
; 

; external perimeters extrusion width = 0.65mm
; perimeters extrusion width = 0.65mm
; infill extrusion width = 0.65mm
; solid infill extrusion width = 0.65mm
; top infill extrusion width = 0.60mm
; first layer extrusion width = 0.65mm

M73 P0 R12
M73 Q0 S12
M201 X1000 Y1000 Z200 E5000 ; sets maximum accelerations, mm/sec^2
M203 X200 Y200 Z12 E120 ; sets maximum feedrates, mm / sec
M204 S1250 T1250 ; sets acceleration (S) and retract acceleration (R), mm/sec^2
M205 X8.00 Y8.00 Z0.40 E4.50 ; sets the jerk limits, mm/sec
M205 S0 T0 ; sets the minimum extruding and travel feed rate, mm/sec
;TYPE:Custom
M862.3 P "MK3S" ; printer model check
M862.1 P0.6 ; nozzle diameter check
M115 U3.12.2 ; tell printer latest fw version
G90 ; use absolute coordinates
M83 ; extruder relative mode
M104 S230 ; set extruder temp
M140 S85 ; set bed temp
M190 S85 ; wait for bed temp
M109 S230 ; wait for extruder temp
G28 W ; home all without mesh bed level
G80 ; mesh bed leveling

G1 Z0.2 F720
G1 Y-3 F1000 ; go outside print area
G92 E0
G1 X60 E9 F1000 ; intro line
G1 X100 E12.5 F1000 ; intro line

G92 E0
M221 S95
G21 ; set units to millimeters
G90 ; use absolute coordinates
M83 ; use relative distances for extrusion
M900 K0.04 ; Filament gcode LA 1.5
M900 K24 ; Filament gcode LA 1.0
M107
;LAYER_CHANGE
;Z:0.2
;HEIGHT:0.2
;BEFORE_LAYER_CHANGE
G92 E0.0
;0.2


G1 E-1 F2100
G1 Z.2 F720
;AFTER_LAYER_CHANGE
;0.2
G1 Z.4
G1 X111.69 Y72.044 F10800
G1 Z.2 F720
G1 E1 F1500
M204 S800
;TYPE:Skirt/Brim
;WIDTH:0.65
G1 F1200
G1 X112.839 Y71.192 E.07221
G1 X113.758 Y71.025 E.04715
G1 X136.241 Y71.025 E1.13492
G1 X137.616 Y71.417 E.07217
M73 P1 R12
M73 Q1 S12
G1 X138.578 Y72.476 E.07222
G1 X138.835 Y73.374 E.04715
G1 X141.459 Y99.801 E1.34057
G1 X141.585 Y101.743 E.09824
G1 X141.444 Y104.084 E.11839
G1 X138.441 Y127.968 E1.21513
G1 X137.946 Y129.933 E.10229
G1 X137.335 Y131.456 E.08284
G1 X136.336 Y133.219 E.10229
G1 X134.821 Y135.097 E.1218
G1 X133.613 Y136.207 E.08281
G1 X131.951 Y137.366 E.10228
G1 X129.774 Y138.407 E.12181
G1 X128.206 Y138.888 E.08279
G1 X126.206 Y139.216 E.10231
G1 X124.179 Y139.245 E.10233
G1 X121.793 Y138.888 E.12178
G1 X119.864 Y138.266 E.10231
G1 X118.048 Y137.366 E.10231
G1 X116.386 Y136.207 E.10228
G1 X114.914 Y134.814 E.1023
G1 X113.664 Y133.219 E.10229
G1 X112.664 Y131.456 E.10231
G1 X111.937 Y129.564 E.10231
G1 X111.508 Y127.691 E.097
G1 X108.553 Y104.084 E1.20095
G1 X108.412 Y102.088 E.10101
G1 X108.538 Y99.801 E.11562
G1 X111.164 Y73.374 E1.34058
G1 X111.657 Y72.128 E.06764
M204 S1000
; printing object flagclip_v4.stl id:0 copy 0
;WIPE_START
M73 P2 R12
M73 Q2 S12
G1 F8640
G1 X112.839 Y71.192 E-.34814
G1 X113.758 Y71.025 E-.21567
G1 X115.647 Y71.025 E-.43619
;WIPE_END
G1 Z.4 F720
G1 X114.021 Y103.798 F10800
G1 Z.2 F720
G1 E1 F1500
M204 S800
;TYPE:Perimeter
;WIDTH:0.649999
G1 F1200
G1 X114.033 Y103.909 E.00564
G1 X114.583 Y105.801 E.09946
G1 X115.298 Y107.337 E.08552
G1 X116.236 Y108.743 E.08532
G1 X117.382 Y109.996 E.08571
G1 X118.702 Y111.058 E.08552
G1 X120.168 Y111.908 E.08554
G1 X121.613 Y112.484 E.07852
G1 X121.942 Y112.57 E.01717
G1 X117.529 Y123.223 E.58206
G1 X115.926 Y122.559 E.08758
G1 X119.313 Y114.38 E.44687
G1 X119.383 Y114.022 E.01841
G1 X119.316 Y113.691 E.01705
G1 X119.139 Y113.411 E.01672
G1 X118.968 Y113.268 E.01125
G1 X117.32 Y112.199 E.09916
G1 X116.024 Y111.091 E.08607
G1 X114.887 Y109.821 E.08605
G1 X113.927 Y108.413 E.08602
G1 X113.161 Y106.889 E.0861
G1 X112.604 Y105.279 E.086
G1 X112.27 Y103.639 E.08448
G1 X112.148 Y101.906 E.0877
G1 X112.257 Y100.206 E.08599
G1 X112.584 Y98.566 E.08441
G1 X113.141 Y96.92 E.08772
G1 X113.9 Y95.395 E.08599
G1 X114.854 Y93.982 E.08606
G1 X115.987 Y92.708 E.08606
G1 X117.277 Y91.595 E.086
G1 X118.902 Y90.532 E.09802
G1 X119.101 Y90.355 E.01344
G1 X119.277 Y90.024 E.01892
G1 X119.276 Y89.509 E.026
G1 X119.039 Y88.718 E.04168
G1 X121.342 Y90.482 E.14644
G1 X122.618 Y95.146 E.24409
G1 X122.618 Y98.475 E.16804
G1 X122.257 Y98.706 E.02163
G1 X121.477 Y99.441 E.0541
G1 X120.878 Y100.367 E.05567
G1 X120.517 Y101.409 E.05567
G1 X120.415 Y102.507 E.05566
;WIDTH:0.698681
G1 X120.422 Y102.761 E.01386
;WIDTH:0.747362
G1 X120.43 Y103.015 E.01489
;WIDTH:0.79014
G1 X120.42 Y103.111 E.006
;WIDTH:0.832917
G1 X120.411 Y103.208 E.0064
;WIDTH:0.875694
G1 X120.401 Y103.305 E.00675
;WIDTH:0.918471
G1 X120.392 Y103.402 E.00709
G1 X120.464 Y103.641 E.01817
;WIDTH:0.893825
G1 X120.798 Y104.461 E.06265
;WIDTH:0.856431
G1 X121.117 Y104.964 E.04029
;WIDTH:0.847871
G1 X121.437 Y105.389 E.03561
;WIDTH:0.808022
G1 X121.708 Y105.667 E.0247
G1 X122.463 Y106.271 E.06151
;WIDTH:0.770548
G1 X123.465 Y106.748 E.06714
;WIDTH:0.742269
G1 X124.259 Y106.944 E.04756
G1 X124.557 Y106.981 E.01746
;WIDTH:0.744194
G1 X125.201 Y106.99 E.03756
G1 X125.669 Y106.954 E.02737
;WIDTH:0.736803
G1 X126.529 Y106.748 E.05102
;WIDTH:0.76792
G1 X127.017 Y106.541 E.03196
G1 X127.534 Y106.267 E.03527
;WIDTH:0.788208
G1 X127.821 Y106.069 E.02161
;WIDTH:0.815282
G1 X128.565 Y105.392 E.0646
;WIDTH:0.850676
G1 X129.085 Y104.675 E.05949
;WIDTH:0.856695
G1 X129.201 Y104.461 E.01647
;WIDTH:0.903354
G1 X129.474 Y103.813 E.05031
;WIDTH:0.909775
G1 X129.603 Y103.401 E.03112
G1 X129.6 Y103.252 E.01074
;WIDTH:0.866479
G1 X129.597 Y103.103 E.01021
;WIDTH:0.823183
G1 X129.594 Y102.954 E.00967
;WIDTH:0.779887
G1 X129.59 Y102.805 E.00913
;WIDTH:0.736591
G1 X129.587 Y102.656 E.0086
;WIDTH:0.693295
G1 X129.584 Y102.507 E.00806
;WIDTH:0.649999
G1 X129.55 Y101.985 E.02641
G1 X129.431 Y101.196 E.04028
G1 X129.094 Y100.302 E.04823
G1 X128.801 Y99.85 E.02719
G1 X128.378 Y99.276 E.03599
G1 X127.759 Y98.721 E.04197
G1 X127.382 Y98.475 E.02272
G1 X127.382 Y95.146 E.16804
G1 X130.05 Y85.394 E.51036
G1 X130.02 Y84.822 E.02891
G1 X129.917 Y84.631 E.01095
G1 X129.264 Y83.698 E.05749
G1 X129.671 Y83.827 E.02155
G1 X129.949 Y83.779 E.01424
G1 X130.277 Y83.654 E.01772
G1 X130.616 Y83.271 E.02582
G1 X130.671 Y83.122 E.00802
G1 X132.168 Y77.651 E.28632
G1 X132.179 Y77.213 E.02212
M73 P3 R12
M73 Q3 S12
G1 X132.014 Y76.858 E.01976
G1 X131.714 Y76.605 E.01981
G1 X131.29 Y76.5 E.02205
G1 X128.101 Y76.5 E.16098
G1 X127.789 Y76.555 E.01599
G1 X127.529 Y76.702 E.01508
G1 X127.397 Y76.833 E.00939
G1 X127.28 Y77.018 E.01105
G1 X127.193 Y77.425 E.02101
G1 X126.653 Y76.984 E.03519
G1 X125.986 Y76.665 E.03732
G1 X125.261 Y76.514 E.03738
G1 X124.521 Y76.54 E.03738
G1 X123.809 Y76.742 E.03736
G1 X123.263 Y77.034 E.03126
G1 X122.799 Y77.432 E.03086
G1 X122.72 Y77.018 E.02128
G1 X122.659 Y76.911 E.00622
G1 X122.47 Y76.702 E.01422
G1 X122.21 Y76.555 E.01508
G1 X121.898 Y76.5 E.01599
G1 X118.709 Y76.5 E.16098
G1 X118.285 Y76.605 E.02205
G1 X117.986 Y76.858 E.01977
G1 X117.82 Y77.213 E.01978
G1 X117.831 Y77.651 E.02212
G1 X119.328 Y83.122 E.28632
G1 X119.511 Y83.47 E.01985
G1 X119.653 Y83.605 E.00989
G1 X119.841 Y83.716 E.01102
G1 X120.328 Y83.827 E.02521
G1 X120.748 Y83.694 E.02224
G1 X120.092 Y84.636 E.05795
G1 X119.951 Y85.323 E.0354
G1 X117.648 Y83.558 E.14647
G1 X115.242 Y74.764 E.46023
G1 X134.758 Y74.764 E.98514
G1 X130.718 Y89.53 E.77277
G1 X130.69 Y89.685 E.00795
G1 X130.711 Y89.985 E.01518
G1 X130.892 Y90.347 E.02043
G1 X131.097 Y90.532 E.01394
G1 X132.721 Y91.595 E.09798
G1 X134.011 Y92.709 E.08604
G1 X135.143 Y93.983 E.08603
G1 X136.097 Y95.396 E.08606
G1 X136.856 Y96.922 E.08603
G1 X137.406 Y98.535 E.08603
G1 X137.743 Y100.263 E.08887
G1 X137.849 Y101.907 E.08316
G1 X137.732 Y103.608 E.08607
G1 X137.393 Y105.278 E.08602
G1 X136.835 Y106.889 E.08606
G1 X136.07 Y108.412 E.08603
G1 X135.111 Y109.821 E.08604
G1 X133.974 Y111.09 E.08601
G1 X132.679 Y112.199 E.08606
G1 X130.975 Y113.308 E.10263
G1 X130.683 Y113.69 E.02427
G1 X130.617 Y114.021 E.01704
G1 X130.686 Y114.38 E.01845
G1 X134.818 Y124.356 E.54506
G1 X134.906 Y125.721 E.06905
G1 X134.783 Y127.188 E.07431
G1 X134.444 Y128.62 E.07428
G1 X133.896 Y129.986 E.0743
G1 X133.152 Y131.256 E.0743
G1 X132.228 Y132.401 E.07427
G1 X131.145 Y133.397 E.07427
G1 X129.946 Y134.208 E.07307
G1 X128.597 Y134.857 E.07557
G1 X127.191 Y135.288 E.07423
G1 X125.735 Y135.506 E.07432
G1 X124.264 Y135.506 E.07425
G1 X122.808 Y135.288 E.07432
G1 X121.401 Y134.857 E.07428
G1 X120.074 Y134.222 E.07426
G1 X118.855 Y133.397 E.0743
G1 X117.79 Y132.418 E.07302
G1 X116.847 Y131.255 E.07558
G1 X116.103 Y129.986 E.07426
G1 X115.556 Y128.62 E.07428
G1 X115.216 Y127.188 E.0743
G1 X115.095 Y125.748 E.07295
G1 X116.695 Y126.411 E.08743
G1 X116.788 Y127.247 E.04246
M73 Q4 S12
G1 X117.226 Y128.728 E.07796
G1 X117.928 Y130.104 E.07798
M73 P4 R12
G1 X118.758 Y131.203 E.06952
G1 X118.869 Y131.325 E.00833
G1 X119.853 Y132.222 E.06721
G1 X120.023 Y132.356 E.01093
G1 X120.872 Y132.882 E.05042
G1 X121.344 Y133.156 E.02755
G1 X122.79 Y133.699 E.07797
G1 X124.144 Y133.952 E.06953
G1 X124.311 Y133.968 E.00847
G1 X125.678 Y133.968 E.069
G1 X125.856 Y133.952 E.00902
G1 X127.371 Y133.653 E.07795
G1 X128.655 Y133.156 E.0695
G1 X129.148 Y132.869 E.0288
G1 X130.11 Y132.254 E.05764
G1 X131.128 Y131.327 E.0695
G1 X131.241 Y131.203 E.00847
G1 X132.16 Y129.961 E.07799
G1 X132.804 Y128.661 E.07323
G1 X133.242 Y127.081 E.08276
G1 X133.372 Y125.676 E.07123
G1 X133.307 Y125.244 E.02205
G1 X128.056 Y112.566 E.69269
G1 X128.456 Y112.461 E.02088
G1 X130.085 Y111.782 E.08909
G1 X131.469 Y110.938 E.08183
G1 X132.921 Y109.7 E.09632
G1 X134.057 Y108.35 E.08906
G1 X134.965 Y106.837 E.08907
G1 X135.623 Y105.2 E.08906
G1 X136.052 Y103.367 E.09503
G1 X136.047 Y102.93 E.02206
G1 X135.878 Y102.593 E.01903
G1 X135.641 Y102.383 E.01598
;WIDTH:0.682191
G1 X135.403 Y102.3 E.0134
;WIDTH:0.714381
G1 X135.166 Y102.217 E.01402
G1 X131.675 Y102.217 E.19491
G1 X131.473 Y102.277 E.01177
;WIDTH:0.68711
G1 X131.271 Y102.338 E.0113
;WIDTH:0.659839
G1 X130.933 Y102.633 E.02301
;WIDTH:0.649999
G1 X130.808 Y102.882 E.01406
;WIDTH:0.693295
G1 X130.748 Y102.999 E.00711
;WIDTH:0.736591
G1 X130.687 Y103.117 E.00766
;WIDTH:0.779887
G1 X130.627 Y103.234 E.00806
;WIDTH:0.823183
G1 X130.567 Y103.352 E.00859
;WIDTH:0.866479
G1 X130.506 Y103.47 E.0091
;WIDTH:0.909775
G1 X130.446 Y103.587 E.00948
G1 X130.254 Y104.173 E.04445
;WIDTH:0.903354
G1 X129.991 Y104.667 E.04004
;WIDTH:0.877015
G1 X129.729 Y105.161 E.03878
;WIDTH:0.850676
G1 X129.181 Y105.857 E.0595
;WIDTH:0.815282
G1 X128.893 Y106.137 E.0258
;WIDTH:0.798675
G1 X128.306 Y106.634 E.04833
;WIDTH:0.788208
G1 X127.874 Y106.898 E.03137
;WIDTH:0.76792
G1 X127.299 Y107.207 E.03935
G1 X126.818 Y107.383 E.03088
;WIDTH:0.752874
G1 X126.297 Y107.546 E.03223
G1 X125.795 Y107.625 E.03
;WIDTH:0.744194
G1 X125.181 Y107.691 E.03601
G1 X124.09 Y107.623 E.06374
;WIDTH:0.742269
G1 X123.301 Y107.426 E.04729
;WIDTH:0.749195
G1 X122.94 Y107.305 E.02236
;WIDTH:0.770548
G1 X122.142 Y106.924 E.0535
;WIDTH:0.77091
G1 X121.818 Y106.708 E.02357
;WIDTH:0.808022
G1 X121.203 Y106.244 E.04901
G1 X120.847 Y105.87 E.03285
;WIDTH:0.847871
G1 X120.495 Y105.471 E.03561
G1 X120.228 Y105.075 E.03197
;WIDTH:0.888597
G1 X119.885 Y104.486 E.04793
;WIDTH:0.918471
G1 X119.552 Y103.62 E.06755
G1 X119.496 Y103.54 E.00711
;WIDTH:0.875694
G1 X119.441 Y103.46 E.00672
;WIDTH:0.832917
G1 X119.386 Y103.38 E.00638
;WIDTH:0.79014
G1 X119.33 Y103.3 E.00607
;WIDTH:0.747362
G1 X119.152 Y103.111 E.01521
;WIDTH:0.698681
G1 X118.974 Y102.921 E.0142
;WIDTH:0.649999
G1 X118.67 Y102.778 E.01696
G1 X118.442 Y102.749 E.0116
G1 X114.908 Y102.749 E.17839
G1 X114.573 Y102.813 E.01722
G1 X114.344 Y102.945 E.01334
G1 X114.114 Y103.215 E.0179
G1 X114 Y103.589 E.01974
G1 X114.012 Y103.708 E.00604
M204 S1000
G1 X114.616 Y103.743 F10800
M204 S800
;TYPE:External perimeter
G1 F1200
G1 X115.134 Y105.548 E.09479
G1 X115.783 Y106.963 E.07858
G1 X116.661 Y108.303 E.08087
G1 X117.723 Y109.484 E.08017
G1 X119.01 Y110.535 E.08388
G1 X120.392 Y111.344 E.08084
G1 X121.882 Y111.934 E.0809
G1 X122.777 Y112.14 E.04636
G1 X117.858 Y124.016 E.64888
G1 X115.133 Y122.887 E.14889
G1 X118.753 Y114.148 E.47748
G1 X118.768 Y114.098 E.00264
G1 X118.754 Y113.918 E.00911
G1 X118.637 Y113.777 E.00925
G1 X116.955 Y112.687 E.10117
G1 X115.599 Y111.526 E.09011
G1 X114.408 Y110.196 E.09012
G1 X113.402 Y108.721 E.09012
G1 X112.601 Y107.126 E.0901
G1 X112.017 Y105.439 E.09012
G1 X111.667 Y103.722 E.08845
G1 X111.539 Y101.908 E.0918
G1 X111.654 Y100.127 E.09009
G1 X111.996 Y98.408 E.08847
G1 X112.58 Y96.687 E.09174
G1 X113.374 Y95.089 E.09007
G1 X114.374 Y93.609 E.09016
G1 X115.56 Y92.275 E.0901
G1 X116.911 Y91.109 E.09008
G1 X118.569 Y90.024 E.10002
G1 X118.695 Y89.855 E.01064
G1 X118.694 Y89.683 E.00868
G1 X118.35 Y88.537 E.0604
G1 X118.153 Y88.071 E.02554
G1 X117.924 Y87.625 E.02531
M73 Q5 S12
G1 X117.659 Y86.656 E.05071
G1 X118.37 Y87.199 E.04516
M73 P5 R12
G1 X119.002 Y87.88 E.0469
G1 X119.396 Y88.226 E.02647
G1 X121.873 Y90.124 E.15752
G1 X123.225 Y95.064 E.25854
G1 X123.225 Y98.839 E.19056
G1 X122.662 Y99.158 E.03266
G1 X121.979 Y99.783 E.04673
G1 X121.447 Y100.579 E.04833
G1 X121.12 Y101.479 E.04834
G1 X121.017 Y102.431 E.04834
G1 X121.145 Y103.38 E.04834
G1 X121.496 Y104.271 E.04834
G1 X122 Y104.998 E.04465
G1 X122.773 Y105.68 E.05204
G1 X123.625 Y106.116 E.04831
G1 X124.557 Y106.336 E.04834
G1 X125.515 Y106.327 E.04836
G1 X126.442 Y106.09 E.0483
G1 X127.227 Y105.68 E.04471
G1 X127.373 Y105.562 E.00948
G1 X127.999 Y104.998 E.04253
G1 X128.538 Y104.207 E.04832
G1 X128.872 Y103.309 E.04836
G1 X128.969 Y102.533 E.03948
G1 X128.947 Y102.055 E.02415
G1 X128.862 Y101.408 E.03294
G1 X128.553 Y100.579 E.04466
G1 X128.299 Y100.192 E.02337
M73 P5 R11
G1 X127.972 Y99.728 E.02865
G1 X127.254 Y99.095 E.04832
G1 X126.775 Y98.839 E.02742
G1 X126.775 Y95.064 E.19056
G1 X129.464 Y85.234 E.51444
G1 X129.42 Y84.979 E.01306
G1 X129.056 Y84.46 E.032
;WIDTH:0.692865
G1 X128.932 Y84.245 E.01341
;WIDTH:0.73573
G1 X128.808 Y84.03 E.0143
;WIDTH:0.778595
G1 X128.683 Y83.815 E.01521
;WIDTH:0.82146
G1 X128.559 Y83.6 E.01607
G1 X127.391 Y81.932 E.13182
;WIDTH:0.859033
G1 X127.189 Y81.592 E.02684
;WIDTH:0.896607
G1 X126.988 Y81.253 E.02798
G1 X127.141 Y80.985 E.02191
;WIDTH:0.859516
G1 X127.294 Y80.717 E.02095
;WIDTH:0.822424
G1 X127.503 Y80.1 E.04222
;WIDTH:0.820738
G1 X127.555 Y79.502 E.03882
;WIDTH:0.820194
G1 X127.467 Y78.907 E.03887
;WIDTH:0.820811
G1 X127.237 Y78.339 E.03964
G1 X127.127 Y78.226 E.0102
;WIDTH:0.778108
G1 X127.017 Y78.112 E.00968
;WIDTH:0.735405
G1 X126.907 Y77.999 E.00908
;WIDTH:0.692702
G1 X126.797 Y77.886 E.00852
;WIDTH:0.649999
G1 X126.372 Y77.522 E.02825
G1 X125.841 Y77.254 E.03002
G1 X125.261 Y77.121 E.03004
G1 X124.666 Y77.13 E.03004
G1 X124.09 Y77.28 E.03005
G1 X123.567 Y77.564 E.03004
;WIDTH:0.692488
G1 X123.067 Y78.014 E.03633
;WIDTH:0.732089
G1 X122.951 Y78.152 E.01033
;WIDTH:0.77169
G1 X122.835 Y78.29 E.01092
;WIDTH:0.811291
G1 X122.72 Y78.429 E.01153
G1 X122.511 Y79.006 E.03921
;WIDTH:0.810917
G1 X122.445 Y79.617 E.03924
;WIDTH:0.810575
G1 X122.528 Y80.226 E.03923
;WIDTH:0.838373
G1 X122.741 Y80.805 E.04081
;WIDTH:0.8677
G1 X122.876 Y81.049 E.01912
;WIDTH:0.897027
G1 X123.011 Y81.292 E.01974
G1 X122.812 Y81.611 E.0267
;WIDTH:0.859893
G1 X122.612 Y81.931 E.02563
;WIDTH:0.825021
G1 X121.445 Y83.602 E.13255
;WIDTH:0.830944
G1 X121.262 Y83.9 E.02291
;WIDTH:0.785708
G1 X121.157 Y84.09 E.01341
;WIDTH:0.740472
G1 X121.053 Y84.279 E.01251
;WIDTH:0.695236
G1 X120.949 Y84.468 E.0117
;WIDTH:0.649999
G1 X120.595 Y84.975 E.03121
G1 X120.554 Y85.26 E.01453
G1 X120.751 Y85.801 E.02906
G1 X121.118 Y86.604 E.04457
G1 X121.331 Y87.383 E.04077
G1 X120.619 Y86.84 E.0452
G1 X119.987 Y86.16 E.04686
G1 X119.593 Y85.813 E.0265
G1 X117.116 Y83.915 E.15752
G1 X114.446 Y74.157 E.51068
G1 X135.553 Y74.157 E1.06546
G1 X131.303 Y89.69 E.81291
G1 X131.301 Y89.842 E.00767
M73 Q5 S11
G1 X131.43 Y90.024 E.01126
G1 X133.087 Y91.109 E.09998
G1 X134.438 Y92.275 E.09008
G1 X135.624 Y93.61 E.09014
G1 X136.623 Y95.089 E.09009
G1 X137.417 Y96.688 E.09012
G1 X137.994 Y98.377 E.0901
G1 X138.349 Y100.224 E.09494
G1 X138.457 Y101.909 E.08523
G1 X138.335 Y103.689 E.09006
G1 X137.979 Y105.439 E.09015
G1 X137.396 Y107.125 E.09005
G1 X136.595 Y108.72 E.0901
G1 X135.59 Y110.196 E.09014
