; generated by PrusaSlicer 2.4.2+arm64 on 2022-05-15 at 14:45:45 UTC


;
;
; 

; external perimeters extrusion width = 0.45mm
; perimeters extrusion width = 0.45mm
; infill extrusion width = 0.45mm
; solid infill extrusion width = 0.45mm
; top infill extrusion width = 0.40mm
; first layer extrusion width = 0.42mm

M73 P0 R31
M73 Q0 S31
M201 X1000 Y1000 Z200 E5000 ; sets maximum accelerations, mm/sec^2
M203 X200 Y200 Z12 E120 ; sets maximum feedrates, mm / sec
M204 P1250 R1250 T1250 ; sets acceleration (P, T) and retract acceleration (R), mm/sec^2
M205 X8.00 Y8.00 Z0.40 E4.50 ; sets the jerk limits, mm/sec
M205 S0 T0 ; sets the minimum extruding and travel feed rate, mm/sec
M107
;TYPE:Custom
M862.3 P "MK3S" ; printer model check
M862.1 P0.4 ; nozzle diameter check
M115 U3.11.0 ; tell printer latest fw version
G90 ; use absolute coordinates
M83 ; extruder relative mode
M104 S230 ; set extruder temp
M140 S85 ; set bed temp
M190 S85 ; wait for bed temp
M109 S230 ; wait for extruder temp
G28 W ; home all without mesh bed level
G80 ; mesh bed leveling
G1 Z0.2 F720
G1 Y-3 F1000 ; go outside print area
G92 E0
G1 X60 E9 F1000 ; intro line
G1 X100 E12.5 F1000 ; intro line
G92 E0
M221 S95

; Don't change E values below. Excessive value can damage the printer.
M907 E430 ; set extruder motor current
G21 ; set units to millimeters
G90 ; use absolute coordinates
M83 ; use relative distances for extrusion
M900 K0.08 ; Filament gcode LA 1.5
M900 K45 ; Filament gcode LA 1.0
M107
;LAYER_CHANGE
;Z:0.2
;HEIGHT:0.2
;BEFORE_LAYER_CHANGE
G92 E0.0
;0.2


G1 E-1 F2100
G1 Z.2 F720
;AFTER_LAYER_CHANGE
;0.2
G1 Z.4
G1 X116.72 Y61.943 F10800
G1 Z.2 F720
G1 E1 F2100
M204 S800
;TYPE:Skirt/Brim
;WIDTH:0.42
G1 F1200
G1 X117.467 Y60.801 E.04278
G1 X119 Y60.24 E.05119
G1 X131 Y60.24 E.37625
G1 X132.307 Y60.632 E.04278
G1 X133.279 Y61.941 E.05113
G1 X140.726 Y87.046 E.82104
G1 X141.185 Y89.151 E.06756
G1 X141.374 Y91.504 E.07401
G1 X143.293 Y131.669 E1.26078
G1 X143.083 Y134.231 E.0806
G1 X142.414 Y137.063 E.09126
G1 X141.455 Y139.455 E.08079
G1 X140.353 Y141.408 E.07031
G1 X138.803 Y143.466 E.08079
G1 X136.725 Y145.504 E.09126
G1 X134.918 Y146.833 E.07031
G1 X132.66 Y148.074 E.08079
G1 X129.929 Y149.078 E.09126
G1 X127.404 Y149.596 E.08079
G1 X125.167 Y149.754 E.07031
G1 X122.596 Y149.596 E.08079
G1 X120.071 Y149.078 E.08079
G1 X117.645 Y148.211 E.08079
G1 X115.365 Y147.012 E.08079
G1 X113.02 Y145.287 E.09126
G1 X111.197 Y143.466 E.08079
G1 X109.832 Y141.687 E.07031
G1 X108.573 Y139.503 E.07903
G1 X107.586 Y137.063 E.08253
G1 X106.971 Y134.561 E.08079
G1 X106.707 Y131.669 E.09105
G1 X108.697 Y90.122 E1.30416
G1 X109.09 Y87.749 E.07543
G1 X116.703 Y62.001 E.84187
M204 S1000
; printing object flagclip3.stl id:0 copy 0
;WIPE_START
G1 F8640
G1 X117.467 Y60.801 E-.32835
G1 X119 Y60.24 E-.37699
G1 X120.06 Y60.24 E-.24467
;WIPE_END
G1 E-.05 F2100
G1 Z.4 F720
G1 X130.213 Y83.107 F10800
G1 Z.2 F720
G1 E1 F2100
M204 S800
;TYPE:Perimeter
G1 F1200
G1 X131.143 Y82.69 E.03196
G1 X132.831 Y84.194 E.07088
G1 X133.966 Y85.614 E.05699
G1 X134.846 Y87.204 E.05699
G1 X135.792 Y89.904 E.0897
G1 X132.069 Y89.904 E.11673
M73 Q1 S31
G1 X131.484 Y88.462 E.04878
M73 P1 R31
G1 X131.001 Y87.619 E.03049
G1 X130.213 Y86.593 E.04055
G1 X130.213 Y83.167 E.10741
M204 S1000
G1 X130.59 Y83.352 F10800
M204 S800
;TYPE:External perimeter
G1 F1200
G1 X131.075 Y83.134 E.01665
G1 X132.556 Y84.455 E.06223
G1 X133.651 Y85.825 E.05499
G1 X134.501 Y87.359 E.05499
G1 X135.261 Y89.527 E.07203
G1 X132.323 Y89.527 E.0921
G1 X131.824 Y88.297 E.04162
G1 X131.315 Y87.409 E.03209
G1 X130.59 Y86.465 E.03733
G1 X130.59 Y83.412 E.09574
M204 S1000
G1 X130.457 Y82.975 F10800
;WIPE_START
G1 F8640
G1 X131.075 Y83.134 E-.1289
G1 X132.556 Y84.455 E-.45827
G1 X133.537 Y85.682 E-.36283
;WIPE_END
G1 E-.05 F2100
G1 Z.4 F720
G1 X119.787 Y83.107 F10800
G1 Z.2 F720
G1 E1 F2100
M204 S800
;TYPE:Perimeter
G1 F1200
G1 X119.787 Y86.593 E.10929
G1 X118.999 Y87.619 E.04055
G1 X118.516 Y88.462 E.03049
G1 X117.931 Y89.904 E.04878
G1 X114.208 Y89.904 E.11673
G1 X115.154 Y87.204 E.0897
G1 X116.034 Y85.614 E.05699
G1 X117.169 Y84.194 E.05699
G1 X118.857 Y82.69 E.07088
G1 X119.732 Y83.083 E.03008
M204 S1000
G1 X119.41 Y83.352 F10800
M204 S800
;TYPE:External perimeter
G1 F1200
G1 X119.41 Y86.465 E.09762
G1 X118.685 Y87.409 E.03733
G1 X118.176 Y88.297 E.03209
G1 X117.677 Y89.527 E.04162
G1 X114.739 Y89.527 E.0921
G1 X115.499 Y87.359 E.07203
G1 X116.349 Y85.825 E.05499
G1 X117.444 Y84.455 E.05499
G1 X118.925 Y83.134 E.06223
G1 X119.355 Y83.327 E.01477
M204 S1000
G1 X119.804 Y83.284 F10800
;WIPE_START
G1 F8640
G1 X119.41 Y86.465 E-.72466
G1 X118.815 Y87.239 E-.22534
;WIPE_END
G1 E-.05 F2100
G1 Z.4 F720
G1 X120.715 Y67.931 F10800
G1 Z.2 F720
G1 E1 F2100
M204 S800
;TYPE:Perimeter
G1 F1200
G1 X120.642 Y68.079 E.00516
G1 X125.662 Y81.132 E.4385
G1 X123.618 Y87.062 E.19667
G1 X123.015 Y87.255 E.01986
G1 X122.057 Y87.835 E.03513
G1 X121.26 Y88.621 E.03507
G1 X120.685 Y89.532 E.0338
G1 X120.329 Y90.548 E.03374
G1 X120.208 Y91.617 E.03374
G1 X120.329 Y92.687 E.03374
G1 X120.685 Y93.702 E.03374
G1 X121.259 Y94.612 E.03373
G1 X122.018 Y95.368 E.03358
G1 X122.925 Y95.937 E.03357
G1 X123.936 Y96.29 E.03357
G1 X125 Y96.409 E.03357
G1 X126.064 Y96.29 E.03357
G1 X127.075 Y95.937 E.03357
G1 X127.982 Y95.368 E.03357
G1 X128.741 Y94.612 E.03358
G1 X129.315 Y93.702 E.03373
G1 X129.671 Y92.687 E.03374
G1 X129.792 Y91.617 E.03374
G1 X129.671 Y90.548 E.03374
G1 X129.315 Y89.532 E.03374
G1 X128.74 Y88.621 E.03379
G1 X127.949 Y87.839 E.03487
G1 X126.997 Y87.261 E.03492
G1 X126.783 Y87.191 E.00706
G1 X128.822 Y81.143 E.20013
G1 X125.311 Y68.102 E.42344
G1 X126.39 Y63.404 E.15113
G1 X130.213 Y63.404 E.11986
G1 X130.213 Y79.428 E.50241
G1 X132.283 Y80.595 E.07451
G1 X133.759 Y81.728 E.05835
G1 X135.062 Y83.057 E.05835
G1 X136.165 Y84.556 E.05835
G1 X137.047 Y86.195 E.05835
G1 X137.689 Y87.941 E.05835
G1 X138.08 Y89.761 E.05835
G1 X138.211 Y91.618 E.05837
G1 X138.085 Y93.436 E.05714
G1 X137.71 Y95.22 E.05716
G1 X137.093 Y96.935 E.05716
G1 X136.246 Y98.55 E.05716
G1 X135.185 Y100.032 E.05716
G1 X133.929 Y101.354 E.05716
G1 X132.042 Y102.858 E.07567
G1 X139.614 Y127.532 E.80922
G1 X140.022 Y129.637 E.06726
G1 X140.129 Y131.766 E.06683
G1 X139.936 Y133.889 E.06683
G1 X139.457 Y135.923 E.06554
G1 X138.671 Y137.949 E.06813
G1 X137.624 Y139.805 E.0668
G1 X136.327 Y141.496 E.06683
G1 X134.804 Y142.988 E.06683
G1 X133.088 Y144.251 E.06683
G1 X131.211 Y145.261 E.06683
G1 X129.21 Y145.996 E.06683
G1 X127.126 Y146.444 E.06683
G1 X125 Y146.594 E.06683
G1 X122.874 Y146.444 E.06683
G1 X120.79 Y145.996 E.06683
G1 X118.789 Y145.261 E.06683
G1 X116.912 Y144.251 E.06683
G1 X115.196 Y142.988 E.06683
G1 X113.673 Y141.496 E.06683
G1 X112.376 Y139.805 E.06683
G1 X111.329 Y137.949 E.06683
G1 X110.553 Y135.963 E.06683
G1 X110.073 Y133.929 E.06554
G1 X109.871 Y131.765 E.06813
G1 X109.978 Y129.637 E.06681
G1 X110.386 Y127.532 E.06726
G1 X110.612 Y126.795 E.02417
G1 X112.817 Y128.645 E.09026
G1 X112.496 Y130.33 E.05378
G1 X112.45 Y132.332 E.0628
G1 X112.723 Y134.314 E.06274
G1 X113.307 Y136.228 E.06274
G1 X114.186 Y138.026 E.06274
G1 X115.34 Y139.66 E.06274
G1 X116.739 Y141.091 E.06274
G1 X118.347 Y142.282 E.06274
G1 X120.124 Y143.203 E.06274
G1 X122.024 Y143.83 E.06274
G1 X124 Y144.147 E.06274
G1 X126 Y144.147 E.06274
G1 X127.976 Y143.83 E.06274
G1 X129.876 Y143.203 E.06274
G1 X131.653 Y142.282 E.06274
G1 X133.262 Y141.09 E.06279
G1 X134.697 Y139.608 E.06469
G1 X135.814 Y138.026 E.06072
G1 X136.693 Y136.228 E.06274
G1 X137.277 Y134.314 E.06274
G1 X137.55 Y132.332 E.06274
G1 X137.504 Y130.332 E.06274
G1 X137.145 Y128.381 E.0622
G1 X128.934 Y101.624 E.87756
G1 X129.896 Y101.232 E.03257
G1 X131.447 Y100.269 E.05725
G1 X132.814 Y99.058 E.05725
G1 X133.956 Y97.634 E.05725
G1 X134.843 Y96.038 E.05725
G1 X135.793 Y93.33 E.08997
M73 Q2 S31
G1 X132.086 Y93.33 E.11623
M73 P2 R31
G1 X131.29 Y95.14 E.062
G1 X130.498 Y96.28 E.04351
G1 X129.503 Y97.247 E.04351
G1 X128.341 Y98.005 E.04351
G1 X127.056 Y98.527 E.0435
G1 X125.694 Y98.793 E.04351
G1 X124.306 Y98.793 E.04351
G1 X122.944 Y98.527 E.04351
G1 X121.659 Y98.005 E.04351
G1 X120.497 Y97.247 E.04351
G1 X119.502 Y96.28 E.04351
G1 X118.71 Y95.14 E.04351
G1 X117.914 Y93.33 E.062
G1 X114.207 Y93.33 E.11623
G1 X115.157 Y96.038 E.08997
G1 X116.044 Y97.634 E.05725
G1 X117.186 Y99.058 E.05725
G1 X118.553 Y100.269 E.05725
G1 X120.104 Y101.232 E.05725
G1 X121.066 Y101.624 E.03257
G1 X113.762 Y125.425 E.78062
G1 X111.591 Y123.603 E.08886
G1 X117.957 Y102.861 E.68028
G1 X115.959 Y101.25 E.08046
G1 X114.625 Y99.795 E.06191
G1 X113.522 Y98.157 E.06191
G1 X112.675 Y96.373 E.06191
G1 X112.104 Y94.483 E.06191
G1 X111.821 Y92.528 E.06191
G1 X111.832 Y90.554 E.06191
G1 X112.138 Y88.603 E.06191
G1 X112.731 Y86.719 E.06191
G1 X113.598 Y84.945 E.06191
G1 X114.72 Y83.32 E.06191
G1 X116.071 Y81.881 E.06191
G1 X117.622 Y80.658 E.06191
G1 X119.787 Y79.426 E.07811
G1 X119.787 Y63.404 E.50234
G1 X122.937 Y63.404 E.09877
G1 X120.741 Y67.877 E.15624
M204 S1000
G1 X121.053 Y68.097 F10800
M204 S800
;TYPE:External perimeter
G1 F1200
G1 X126.064 Y81.125 E.43764
G1 X123.913 Y87.363 E.2069
G1 X123.172 Y87.601 E.02439
G1 X122.29 Y88.135 E.03235
G1 X121.556 Y88.858 E.03232
G1 X121.027 Y89.697 E.0311
G1 X120.699 Y90.633 E.03107
G1 X120.587 Y91.617 E.03107
G1 X120.699 Y92.602 E.03107
G1 X121.027 Y93.537 E.03107
G1 X121.555 Y94.375 E.03107
G1 X122.254 Y95.071 E.03092
G1 X123.089 Y95.595 E.03091
G1 X124.02 Y95.92 E.03091
G1 X125 Y96.03 E.03091
G1 X125.98 Y95.92 E.03091
G1 X126.911 Y95.595 E.03091
G1 X127.746 Y95.071 E.03091
G1 X128.445 Y94.375 E.03092
G1 X128.973 Y93.537 E.03107
G1 X129.301 Y92.602 E.03107
G1 X129.413 Y91.617 E.03107
G1 X129.301 Y90.633 E.03107
G1 X128.973 Y89.697 E.03107
G1 X128.444 Y88.859 E.0311
G1 X127.715 Y88.139 E.03213
M73 P2 R30
G1 X126.839 Y87.606 E.03215
G1 X126.304 Y87.432 E.01764
G1 X128.428 Y81.13 E.20852
G1 X124.922 Y68.109 E.42281
G1 X126.09 Y63.027 E.1635
G1 X130.59 Y63.027 E.14109
G1 X130.59 Y79.208 E.50732
G1 X132.491 Y80.28 E.06844
G1 X134.01 Y81.445 E.06002
G1 X135.35 Y82.812 E.06002
G1 X136.485 Y84.354 E.06002
G1 X137.392 Y86.039 E.06002
G1 X138.052 Y87.836 E.06002
G1 X138.454 Y89.708 E.06002
G1 X138.589 Y91.617 E.06003
G1 X138.46 Y93.488 E.05879
G1 X138.074 Y95.323 E.0588
G1 X137.439 Y97.088 E.05879
G1 X136.568 Y98.748 E.0588
G1 X135.476 Y100.272 E.0588
G1 X134.185 Y101.632 E.05879
G1 X132.478 Y102.993 E.06844
G1 X139.981 Y127.44 E.8018
G1 X140.397 Y129.592 E.06872
G1 X140.507 Y131.774 E.0685
G1 X140.309 Y133.949 E.0685
G1 X139.818 Y136.035 E.06719
G1 X139.013 Y138.111 E.0698
G1 X137.94 Y140.014 E.06849
G1 X136.61 Y141.747 E.0685
G1 X135.049 Y143.276 E.0685
G1 X133.29 Y144.571 E.0685
G1 X131.366 Y145.605 E.0685
G1 X129.315 Y146.359 E.0685
G1 X127.179 Y146.818 E.0685
G1 X125 Y146.972 E.0685
G1 X122.821 Y146.818 E.0685
G1 X120.685 Y146.359 E.0685
G1 X118.634 Y145.605 E.0685
M73 Q2 S30
G1 X116.71 Y144.571 E.0685
G1 X114.951 Y143.276 E.0685
G1 X113.39 Y141.747 E.0685
G1 X112.06 Y140.014 E.0685
G1 X110.987 Y138.111 E.0685
G1 X110.192 Y136.076 E.0685
G1 X109.7 Y133.99 E.06719
G1 X109.493 Y131.774 E.0698
G1 X109.603 Y129.592 E.06849
G1 X110.02 Y127.44 E.06872
G1 X110.419 Y126.14 E.04264
G1 X113.229 Y128.498 E.11504
G1 X112.872 Y130.37 E.05974
G1 X112.828 Y132.311 E.06087
G1 X113.092 Y134.233 E.06085
G1 X113.658 Y136.09 E.06085
G1 X114.512 Y137.833 E.06085
G1 X115.631 Y139.418 E.06085
G1 X116.988 Y140.806 E.06085
G1 X118.547 Y141.961 E.06085
G1 X120.27 Y142.854 E.06085
G1 X122.113 Y143.462 E.06085
G1 X124.03 Y143.77 E.06085
G1 X125.97 Y143.77 E.06085
G1 X127.887 Y143.462 E.06085
G1 X129.73 Y142.854 E.06085
G1 X131.453 Y141.961 E.06085
G1 X133.013 Y140.806 E.06087
M73 P3 R30
M73 Q3 S30
G1 X134.406 Y139.366 E.0628
G1 X135.488 Y137.833 E.05886
G1 X136.342 Y136.09 E.06085
G1 X136.908 Y134.233 E.06085
G1 X137.172 Y132.311 E.06085
G1 X137.128 Y130.37 E.06085
G1 X136.778 Y128.471 E.06057
G1 X128.472 Y101.404 E.8877
G1 X129.724 Y100.895 E.04239
G1 X131.221 Y99.966 E.05524
G1 X132.54 Y98.797 E.05524
G1 X133.642 Y97.423 E.05524
G1 X134.498 Y95.883 E.05524
G1 X135.261 Y93.707 E.07229
G1 X132.332 Y93.707 E.09184
G1 X131.62 Y95.325 E.05543
G1 X130.787 Y96.525 E.04579
G1 X129.74 Y97.543 E.04579
G1 X128.517 Y98.341 E.04579
G1 X127.164 Y98.89 E.04579
G1 X125.73 Y99.17 E.04579
G1 X124.27 Y99.17 E.04579
G1 X122.836 Y98.89 E.04579
G1 X121.483 Y98.341 E.04579
G1 X120.26 Y97.543 E.04579
G1 X119.213 Y96.525 E.04579
G1 X118.38 Y95.325 E.04579
G1 X117.668 Y93.707 E.05543
G1 X114.739 Y93.707 E.09184
G1 X115.502 Y95.883 E.07229
G1 X116.358 Y97.423 E.05524
G1 X117.46 Y98.797 E.05524
G1 X118.779 Y99.966 E.05524
G1 X120.276 Y100.895 E.05524
G1 X121.528 Y101.404 E.04239
G1 X113.956 Y126.08 E.80928
G1 X111.158 Y123.731 E.11454
G1 X117.521 Y102.995 E.68012
G1 X115.701 Y101.526 E.07335
G1 X114.328 Y100.029 E.06369
G1 X113.193 Y98.344 E.06369
G1 X112.322 Y96.509 E.06369
G1 X111.735 Y94.565 E.06369
G1 X111.444 Y92.554 E.06369
G1 X111.455 Y90.523 E.06369
G1 X111.77 Y88.517 E.06369
G1 X112.38 Y86.579 E.06369
G1 X113.272 Y84.754 E.06369
G1 X114.426 Y83.083 E.06369
G1 X115.816 Y81.602 E.06369
G1 X117.411 Y80.345 E.06369
G1 X119.41 Y79.206 E.07212
G1 X119.41 Y63.027 E.50729
G1 X123.542 Y63.027 E.12957
G1 X121.079 Y68.043 E.17521
M204 S1000
G1 X120.796 Y68.404 F10800
;WIPE_START
G1 F8640
G1 X122.544 Y71.888 E-.95
;WIPE_END
G1 E-.05 F2100
G1 Z.4 F720
G1 X130.1 Y64.283 F10800
G1 Z.2 F720
G1 E1 F2100
M204 S800
;TYPE:Solid infill
;WIDTH:0.421822
G1 F1200
G1 X129.503 Y63.687 E.02658
G1 X128.968 Y63.687 E.01688
G1 X129.93 Y64.65 E.04289
G1 X129.93 Y65.186 E.01688
G1 X128.432 Y63.687 E.06677
G1 X127.896 Y63.687 E.01688
G1 X129.93 Y65.721 E.09064
G1 X129.93 Y66.257 E.01688
G1 X127.36 Y63.687 E.11452
G1 X126.824 Y63.687 E.01688
G1 X129.93 Y66.793 E.13839
G1 X129.93 Y67.329 E.01688
G1 X126.554 Y63.953 E.15041
G1 X126.454 Y64.389 E.01409
G1 X129.93 Y67.865 E.15487
G1 X129.93 Y68.401 E.01688
G1 X126.354 Y64.825 E.15933
G1 X126.254 Y65.26 E.01409
G1 X129.93 Y68.936 E.16379
G1 X129.93 Y69.472 E.01688
G1 X126.154 Y65.696 E.16825
G1 X126.054 Y66.132 E.01409
G1 X129.93 Y70.008 E.17271
G1 X129.93 Y70.544 E.01688
G1 X125.954 Y66.568 E.17717
G1 X125.854 Y67.003 E.01409
G1 X129.93 Y71.08 E.18163
G1 X129.93 Y71.616 E.01688
G1 X125.754 Y67.439 E.18609
G1 X125.653 Y67.875 E.01409
G1 X129.93 Y72.152 E.19055
G1 X129.93 Y72.687 E.01688
G1 X125.699 Y68.457 E.18851
G1 X125.897 Y69.19 E.02392
G1 X129.93 Y73.223 E.17971
G1 X129.93 Y73.759 E.01688
G1 X126.094 Y69.923 E.17091
G1 X126.292 Y70.656 E.02392
G1 X129.93 Y74.295 E.16212
G1 X129.93 Y74.831 E.01688
G1 X126.489 Y71.39 E.15332
G1 X126.686 Y72.123 E.02392
G1 X129.93 Y75.367 E.14452
G1 X129.93 Y75.902 E.01688
G1 X126.884 Y72.856 E.13573
G1 X127.081 Y73.589 E.02392
G1 X129.93 Y76.438 E.12693
G1 X129.93 Y76.974 E.01688
G1 X127.279 Y74.323 E.11814
G1 X127.476 Y75.056 E.02392
G1 X129.93 Y77.51 E.10934
G1 X129.93 Y78.046 E.01688
G1 X127.674 Y75.789 E.10054
G1 X127.871 Y76.523 E.02392
G1 X130.1 Y78.751 E.09931
M204 S1000
;WIPE_START
G1 F8640
G1 X127.871 Y76.523 E-.72782
G1 X127.674 Y75.789 E-.17534
G1 X127.817 Y75.933 E-.04684
;WIPE_END
G1 E-.05 F2100
G1 Z.4 F720
G1 X131.802 Y80.454 F10800
G1 Z.2 F720
G1 E1 F2100
M204 S800
G1 F1200
G1 X135.564 Y84.215 E.1676
G1 X135.926 Y84.707 E.01924
G1 X136.398 Y85.586 E.03142
G1 X131.02 Y80.208 E.23962
G1 X129.93 Y79.593 E.03943
G1 X129.93 Y79.118 E.01498
G1 X128.068 Y77.256 E.08295
G1 X128.266 Y77.989 E.02392
M73 P4 R30
M73 Q4 S30
G1 X136.905 Y86.628 E.38493
G1 X137.217 Y87.476 E.02845
G1 X128.463 Y78.722 E.39002
G1 X128.661 Y79.456 E.02392
G1 X137.469 Y88.264 E.39248
G1 X137.616 Y88.947 E.02199
G1 X134.296 Y85.627 E.14791
G1 X134.202 Y85.456 E.00615
G1 X133.037 Y83.999 E.05877
G1 X131.194 Y82.357 E.07775
G1 X131.079 Y82.409 E.004
G1 X128.858 Y80.189 E.09894
G1 X129.055 Y80.922 E.02392
G1 X130.709 Y82.575 E.07366
G1 X130.339 Y82.741 E.01277
G1 X129.025 Y81.427 E.05855
G1 X128.889 Y81.828 E.01332
G1 X129.969 Y82.907 E.04809
G1 X129.93 Y82.924 E.00133
G1 X129.93 Y83.404 E.01512
G1 X128.754 Y82.229 E.05239
