; generated by PrusaSlicer 2.6.0-rc1+MacOS-arm64 on 2023-06-19 at 22:12:15 UTC


;
;
; 

; external perimeters extrusion width = 0.65mm
; perimeters extrusion width = 0.65mm
; infill extrusion width = 0.65mm
; solid infill extrusion width = 0.65mm
; top infill extrusion width = 0.60mm
; first layer extrusion width = 0.65mm

M73 P0 R18
M73 Q0 S18
M201 X1000 Y1000 Z200 E5000 ; sets maximum accelerations, mm/sec^2
M203 X200 Y200 Z12 E120 ; sets maximum feedrates, mm / sec
M204 S1250 T1250 ; sets acceleration (S) and retract acceleration (R), mm/sec^2
M205 X8.00 Y8.00 Z0.40 E4.50 ; sets the jerk limits, mm/sec
M205 S0 T0 ; sets the minimum extruding and travel feed rate, mm/sec
;TYPE:Custom
M862.3 P "MK3S" ; printer model check
M862.1 P0.6 ; nozzle diameter check
M115 U3.12.2 ; tell printer latest fw version
G90 ; use absolute coordinates
M83 ; extruder relative mode
M104 S230 ; set extruder temp
M140 S85 ; set bed temp
M190 S85 ; wait for bed temp
M109 S230 ; wait for extruder temp
G28 W ; home all without mesh bed level
G80 ; mesh bed leveling

G1 Z0.2 F720
G1 Y-3 F1000 ; go outside print area
G92 E0
G1 X60 E9 F1000 ; intro line
G1 X100 E12.5 F1000 ; intro line

G92 E0
M221 S95
G21 ; set units to millimeters
G90 ; use absolute coordinates
M83 ; use relative distances for extrusion
M900 K0.04 ; Filament gcode LA 1.5
M900 K24 ; Filament gcode LA 1.0
M107
;LAYER_CHANGE
;Z:0.2
;HEIGHT:0.2
;BEFORE_LAYER_CHANGE
G92 E0.0
;0.2


G1 E-1 F2100
G1 Z.2 F720
;AFTER_LAYER_CHANGE
;0.2
G1 Z.4
G1 X111.968 Y61.703 F10800
G1 Z.2 F720
G1 E1 F1500
M204 S800
;TYPE:Skirt/Brim
;WIDTH:0.65
G1 F1200
G1 X113.892 Y60.856 E.10612
G1 X136.108 Y60.856 E1.12144
G1 X137.484 Y61.248 E.07222
G1 X138.671 Y62.983 E.10612
G1 X145.175 Y97.686 E1.78227
G1 X145.56 Y100.569 E.14682
G1 X145.571 Y103.007 E.12307
G1 X145.23 Y105.777 E.14088
G1 X140.834 Y135.223 E1.50287
G1 X140.341 Y137.619 E.12348
M73 P1 R18
M73 Q1 S18
G1 X139.652 Y139.547 E.10335
G1 X138.512 Y141.711 E.12347
G1 X136.79 Y143.974 E.14355
G1 X135.316 Y145.395 E.10335
G1 X133.334 Y146.828 E.12346
G1 X131.157 Y147.942 E.12344
G1 X128.445 Y148.801 E.1436
G1 X126.024 Y149.144 E.12343
G1 X123.977 Y149.144 E.10333
G1 X121.555 Y148.801 E.12348
G1 X119.214 Y148.091 E.12349
G1 X117.009 Y147.033 E.12346
G1 X114.684 Y145.395 E.14356
G1 X113.21 Y143.974 E.10335
G1 X111.705 Y142.047 E.12342
G1 X110.512 Y139.911 E.1235
G1 X109.659 Y137.619 E.12345
G1 X109.148 Y135.115 E.129
G1 X104.451 Y103.36 E1.6204
G1 X104.44 Y100.569 E.14089
G1 X104.825 Y97.686 E.14682
G1 X111.329 Y62.983 E1.78227
G1 X111.928 Y61.784 E.06766
M204 S1000
; printing object flagclip_v4.stl id:0 copy 0
;WIPE_START
G1 F8640
G1 X113.892 Y60.856 E-.50157
G1 X116.051 Y60.856 E-.49843
;WIPE_END
G1 Z.4 F720
G1 X127.864 Y66.372 F10800
G1 Z.2 F720
G1 E1 F1500
M204 S800
;TYPE:Perimeter
;WIDTH:0.649999
G1 F1200
G1 X127.793 Y66.385 E.00364
G1 X127.485 Y66.572 E.01819
G1 X127.245 Y66.933 E.02188
G1 X127.197 Y67.146 E.01102
G1 X127.218 Y67.29 E.00735
G1 X126.949 Y67.029 E.01892
G1 X126.325 Y66.634 E.03728
G1 X125.626 Y66.398 E.03724
G1 X124.891 Y66.336 E.03723
G1 X124.162 Y66.45 E.03725
G1 X123.481 Y66.735 E.03727
G1 X123.052 Y67.029 E.02625
G1 X122.783 Y67.29 E.01892
G1 X122.804 Y67.146 E.00735
G1 X122.755 Y66.933 E.01103
G1 X122.572 Y66.629 E.01791
G1 X122.207 Y66.385 E.02216
G1 X121.898 Y66.331 E.01583
G1 X118.395 Y66.331 E.17683
G1 X117.992 Y66.425 E.02089
G1 X117.697 Y66.656 E.01891
G1 X117.521 Y66.987 E.01892
G1 X117.498 Y67.4 E.02088
G1 X119.776 Y80.315 E.662
G1 X118.013 Y80.315 E.08899
G1 X115.241 Y64.595 E.80577
G1 X134.759 Y64.595 E.98525
G1 X131.097 Y85.364 E1.06457
G1 X131.083 Y85.522 E.00801
M73 P2 R18
M73 Q2 S18
G1 X131.132 Y85.817 E.0151
G1 X131.344 Y86.161 E.0204
G1 X131.572 Y86.33 E.01433
G1 X133.808 Y87.499 E.12737
G1 X135.671 Y88.821 E.11531
G1 X137.338 Y90.383 E.11532
G1 X138.779 Y92.156 E.11533
G1 X139.967 Y94.108 E.11535
G1 X140.88 Y96.202 E.11531
G1 X141.502 Y98.4 E.11531
G1 X141.821 Y100.727 E.11856
G1 X141.831 Y102.947 E.11206
G1 X141.533 Y105.212 E.11532
G1 X140.931 Y107.416 E.11533
G1 X140.037 Y109.519 E.11535
G1 X138.867 Y111.481 E.11531
G1 X137.442 Y113.267 E.11534
G1 X135.789 Y114.844 E.11532
G1 X133.938 Y116.183 E.11532
G1 X131.678 Y117.391 E.12936
G1 X131.433 Y117.583 E.01571
G1 X131.276 Y117.824 E.01452
G1 X131.197 Y118.166 E.01772
G1 X131.266 Y118.542 E.0193
G1 X137.209 Y132.889 E.7839
G1 X137.146 Y134.602 E.08653
G1 X136.792 Y136.441 E.09453
G1 X136.16 Y138.205 E.09459
G1 X135.267 Y139.852 E.09457
G1 X134.133 Y141.342 E.09452
G1 X132.784 Y142.642 E.09457
G1 X131.252 Y143.721 E.09459
G1 X129.574 Y144.553 E.09454
G1 X127.788 Y145.119 E.09457
G1 X125.937 Y145.405 E.09455
G1 X124.064 Y145.405 E.09455
G1 X122.212 Y145.119 E.09459
G1 X120.426 Y144.553 E.09457
G1 X118.748 Y143.721 E.09454
G1 X117.216 Y142.642 E.09459
G1 X115.868 Y141.342 E.09453
G1 X114.733 Y139.852 E.09455
G1 X113.84 Y138.205 E.09457
G1 X113.209 Y136.441 E.09457
G1 X112.856 Y134.611 E.09408
G1 X112.847 Y134.405 E.01041
G1 X114.353 Y135.029 E.08229
G1 X114.631 Y136.359 E.06859
G1 X115.378 Y138.198 E.1002
G1 X116.449 Y139.869 E.10019
G1 X117.682 Y141.206 E.09181
G1 X117.806 Y141.318 E.00843
G1 X119.262 Y142.407 E.09178
G1 X119.405 Y142.494 E.00845
G1 X120.996 Y143.28 E.08958
G1 X121.191 Y143.36 E.01064
G1 X122.566 Y143.748 E.07212
G1 X123.106 Y143.884 E.02811
G1 X125.084 Y144.051 E.1002
G1 X126.895 Y143.884 E.09181
G1 X127.059 Y143.854 E.00842
G1 X128.809 Y143.36 E.09179
G1 X128.965 Y143.3 E.00844
G1 X130.588 Y142.498 E.09138
G1 X130.738 Y142.407 E.00886
G1 X132.318 Y141.206 E.10018
G1 X133.653 Y139.737 E.1002
G1 X134.622 Y138.198 E.0918
G1 X134.698 Y138.049 E.00844
G1 X135.369 Y136.359 E.09179
G1 X135.416 Y136.199 E.00842
G1 X135.774 Y134.388 E.09319
G1 X135.794 Y134.226 E.00824
G1 X135.725 Y133.844 E.01959
G1 X128.564 Y116.555 E.94463
G1 X129.331 Y116.378 E.03973
G1 X131.349 Y115.615 E.1089
G1 X133.237 Y114.573 E.10886
G1 X134.958 Y113.273 E.10887
G1 X136.477 Y111.741 E.1089
G1 X137.762 Y110.009 E.10886
G1 X138.788 Y108.112 E.10887
G1 X139.534 Y106.088 E.10889
G1 X140.021 Y103.854 E.11542
G1 X139.962 Y103.286 E.02883
G1 X139.686 Y102.937 E.02246
G1 X139.458 Y102.809 E.0132
G1 X139.132 Y102.749 E.01673
G1 X134.633 Y102.749 E.2271
G1 X134.326 Y102.802 E.01573
G1 X134.103 Y102.919 E.01271
G1 X133.759 Y103.402 E.02993
G1 X133.256 Y105.107 E.08973
G1 X132.586 Y106.467 E.07653
G1 X131.694 Y107.692 E.07649
G1 X130.606 Y108.747 E.0765
G1 X129.355 Y109.602 E.07649
G1 X127.976 Y110.23 E.07649
G1 X126.51 Y110.615 E.07651
G1 X125 Y110.745 E.0765
G1 X123.49 Y110.615 E.0765
G1 X122.025 Y110.23 E.07646
G1 X120.646 Y109.602 E.07649
G1 X119.394 Y108.747 E.07653
G1 X118.307 Y107.692 E.07646
G1 X117.415 Y106.467 E.07649
G1 X116.744 Y105.107 E.07655
G1 X116.219 Y103.336 E.09324
G1 X115.898 Y102.919 E.02656
G1 X115.675 Y102.802 E.01271
G1 X115.369 Y102.749 E.01568
G1 X110.87 Y102.749 E.2271
G1 X110.543 Y102.809 E.01678
G1 X110.315 Y102.937 E.0132
G1 X110.038 Y103.286 E.02249
G1 X109.979 Y103.854 E.02883
G1 X110.503 Y106.212 E.12193
G1 X111.266 Y108.23 E.1089
G1 X112.238 Y110.009 E.10233
G1 X113.524 Y111.741 E.10889
G1 X115.042 Y113.273 E.10887
G1 X116.872 Y114.643 E.11539
G1 X118.77 Y115.669 E.10891
G1 X120.794 Y116.415 E.10889
M73 P3 R18
M73 Q3 S18
G1 X121.436 Y116.555 E.03317
G1 X115.117 Y131.812 E.8336
G1 X113.513 Y131.148 E.08763
G1 X118.734 Y118.542 E.68875
G1 X118.803 Y118.166 E.0193
G1 X118.725 Y117.824 E.01771
G1 X118.568 Y117.582 E.01456
G1 X118.322 Y117.391 E.01572
G1 X116.062 Y116.183 E.12936
G1 X114.211 Y114.844 E.11532
G1 X112.558 Y113.267 E.11532
G1 X111.134 Y111.481 E.1153
G1 X109.963 Y109.519 E.11534
G1 X109.069 Y107.416 E.11535
G1 X108.467 Y105.212 E.11533
G1 X108.169 Y102.947 E.11532
G1 X108.179 Y100.663 E.11529
G1 X108.498 Y98.4 E.11536
G1 X109.12 Y96.202 E.11531
G1 X110.033 Y94.108 E.11531
G1 X111.221 Y92.156 E.11535
G1 X112.662 Y90.383 E.11533
G1 X114.329 Y88.821 E.11532
G1 X116.192 Y87.499 E.11531
G1 X118.428 Y86.33 E.12737
G1 X118.656 Y86.161 E.01433
G1 X118.868 Y85.817 E.0204
G1 X118.917 Y85.522 E.0151
G1 X118.903 Y85.364 E.00801
G1 X118.589 Y83.579 E.09149
G1 X120.351 Y83.579 E.08894
G1 X121.868 Y92.182 E.44097
G1 X121.868 Y95.52 E.1685
G1 X121.049 Y95.951 E.04672
G1 X120.02 Y96.802 E.0674
G1 X119.789 Y97.025 E.01621
G1 X118.811 Y98.361 E.08358
G1 X118.32 Y99.484 E.06187
G1 X118.169 Y99.888 E.02177
G1 X117.986 Y100.899 E.05186
G1 X117.898 Y101.521 E.03171
G1 X117.976 Y102.964 E.07295
G1 X118.011 Y103.173 E.0107
G1 X118.414 Y104.536 E.07175
G1 X118.504 Y104.754 E.01191
G1 X118.963 Y105.555 E.0466
G1 X119.349 Y106.178 E.037
G1 X120.338 Y107.231 E.07292
G1 X120.506 Y107.372 E.01107
G1 X121.576 Y108.066 E.06438
G1 X121.944 Y108.277 E.02141
G1 X122.638 Y108.53 E.03729
G1 X123.459 Y108.804 E.04369
G1 X124.894 Y108.972 E.07293
G1 X125.106 Y108.972 E.0107
G1 X126.252 Y108.838 E.05824
G1 X126.748 Y108.755 E.02539
G1 X128.294 Y108.164 E.08355
G1 X129.5 Y107.368 E.07294
G1 X129.662 Y107.231 E.01071
G1 X130.36 Y106.488 E.05146
G1 X130.778 Y106.007 E.03217
G1 X131.58 Y104.559 E.08356
G1 X131.989 Y103.173 E.07295
G1 X132.025 Y102.964 E.01071
G1 X132.087 Y101.813 E.05819
G1 X132.089 Y101.309 E.02544
G1 X131.99 Y100.761 E.02811
G1 X131.769 Y99.685 E.05545
G1 X131.198 Y98.382 E.07181
G1 X131.082 Y98.178 E.01185
G1 X130.065 Y96.872 E.08356
G1 X128.951 Y95.951 E.07296
G1 X128.773 Y95.836 E.0107
G1 X128.132 Y95.52 E.03608
G1 X128.132 Y92.182 E.1685
G1 X132.502 Y67.4 E1.27027
G1 X132.48 Y66.987 E.02088
G1 X132.303 Y66.656 E.01895
G1 X132.008 Y66.425 E.01891
G1 X131.605 Y66.331 E.02089
G1 X128.102 Y66.331 E.17683
G1 X127.953 Y66.357 E.00763
M204 S1000
G1 X127.796 Y67.259 F10800
M204 S800
;TYPE:External perimeter
;WIDTH:0.749909
G1 F1200
G1 X127.776 Y67.378 E.00709
;WIDTH:0.791386
G1 X127.809 Y67.511 E.00853
;WIDTH:0.832862
G1 X127.842 Y67.643 E.00894
G1 X128.212 Y68.541 E.06379
;WIDTH:0.824304
G1 X128.327 Y69.321 E.05123
;WIDTH:0.824181
G1 X128.256 Y70.106 E.0512
;WIDTH:0.824045
G1 X128.001 Y70.853 E.05127
;WIDTH:0.823901
G1 X127.636 Y71.446 E.04522
;WIDTH:0.823745
G1 X127.273 Y71.833 E.03445
;WIDTH:0.849058
G1 X126.852 Y72.221 E.03838
G1 X126.817 Y72.364 E.00987
;WIDTH:0.799449
G1 X126.782 Y72.507 E.00926
;WIDTH:0.78565
G1 X126.804 Y72.626 E.00747
;WIDTH:0.821458
G1 X126.827 Y72.744 E.00778
G1 X127.448 Y73.554 E.06607
G1 X126.83 Y74.028 E.05042
G1 X126.593 Y73.719 E.02521
;WIDTH:0.821727
G1 X126.111 Y73.09 E.05132
G1 X126.093 Y72.799 E.01888
;WIDTH:0.785784
G1 X126.075 Y72.507 E.01807
;WIDTH:0.784407
G1 X126.092 Y72.246 E.01613
;WIDTH:0.818974
G1 X126.11 Y71.984 E.01695
;WIDTH:0.853541
G1 X126.127 Y71.723 E.01763
G1 X126.334 Y71.607 E.01599
;WIDTH:0.849058
G1 X126.755 Y71.268 E.03623
;WIDTH:0.808805
G1 X127.146 Y70.797 E.03898
G1 X127.414 Y70.247 E.03896
G1 X127.543 Y69.649 E.03896
G1 X127.526 Y69.037 E.03899
G1 X127.364 Y68.447 E.03896
;WIDTH:0.832862
G1 X127.13 Y67.982 E.03419
G1 X127.061 Y67.928 E.00576
;WIDTH:0.791386
G1 X126.992 Y67.874 E.00545
;WIDTH:0.749909
G1 X126.799 Y67.702 E.0152
;WIDTH:0.699954
G1 X126.606 Y67.53 E.01412
;WIDTH:0.649999
G1 X126.111 Y67.202 E.02997
G1 X125.553 Y67.001 E.02994
G1 X124.964 Y66.939 E.0299
G1 X124.376 Y67.018 E.02995
G1 X123.824 Y67.235 E.02994
G1 X123.34 Y67.578 E.02994
;WIDTH:0.695715
G1 X123.223 Y67.679 E.00839
;WIDTH:0.741431
G1 X123.105 Y67.78 E.00902
;WIDTH:0.787147
G1 X122.988 Y67.881 E.00956
;WIDTH:0.832863
G1 X122.871 Y67.982 E.01015
G1 X122.602 Y68.533 E.04027
;WIDTH:0.811613
G1 X122.461 Y69.128 E.03908
;WIDTH:0.81187
G1 X122.466 Y69.741 E.0392
;WIDTH:0.81214
G1 X122.617 Y70.334 E.03914
;WIDTH:0.812421
G1 X122.904 Y70.875 E.03918
G1 X123.266 Y71.29 E.03524
;WIDTH:0.849058
G1 X123.667 Y71.607 E.03426
;WIDTH:0.853542
G1 X123.873 Y71.723 E.01594
G1 X123.891 Y72.146 E.02854
;WIDTH:0.818975
G1 X123.908 Y72.327 E.01173
;WIDTH:0.784408
G1 X123.925 Y72.507 E.01115
;WIDTH:0.785785
G1 X123.907 Y72.799 E.01807
;WIDTH:0.821729
G1 X123.889 Y73.09 E.01888
G1 X123.791 Y73.218 E.01044
;WIDTH:0.821461
G1 X123.17 Y74.028 E.06607
G1 X122.552 Y73.554 E.05042
G1 X123.174 Y72.744 E.06611
G1 X123.196 Y72.626 E.00777
;WIDTH:0.785651
G1 X123.218 Y72.507 E.00747
;WIDTH:0.799449
G1 X123.184 Y72.364 E.00925
;WIDTH:0.849058
G1 X123.149 Y72.221 E.00987
G1 X122.685 Y71.79 E.04245
;WIDTH:0.812421
G1 X122.285 Y71.328 E.0391
;WIDTH:0.823901
G1 X121.999 Y70.853 E.03601
G1 X121.85 Y70.453 E.02772
;WIDTH:0.81187
G1 X121.708 Y69.858 E.03911
;WIDTH:0.824182
G1 X121.673 Y69.321 E.03496
G1 X121.697 Y69.063 E.01683
;WIDTH:0.824306
G1 X121.788 Y68.541 E.03443
G1 X121.945 Y68.119 E.02925
;WIDTH:0.808807
G1 X122.205 Y67.455 E.04541
;WIDTH:0.774095
G1 X122.203 Y67.373 E.00499
;WIDTH:0.73273
G1 X122.202 Y67.291 E.0047
;WIDTH:0.691365
G1 X122.2 Y67.21 E.00437
;WIDTH:0.649999
G1 X122.104 Y67.018 E.01084
G1 X121.898 Y66.938 E.01116
G1 X118.395 Y66.938 E.17683
G1 X118.343 Y66.943 E.00264
G1 X118.163 Y67.046 E.01047
G1 X118.104 Y67.157 E.00635
G1 X118.096 Y67.294 E.00693
G1 X120.499 Y80.922 E.69854
G1 X117.504 Y80.922 E.15118
G1 X114.518 Y63.988 E.868
G1 X135.483 Y63.988 E1.05829
M73 P4 R18
M73 Q4 S18
G1 X131.695 Y85.47 E1.10112
M73 P4 R17
G1 X131.707 Y85.621 E.00765
G1 X131.853 Y85.792 E.01135
G1 X134.126 Y86.98 E.12946
G1 X136.056 Y88.35 E.11947
G1 X137.784 Y89.968 E.1195
G1 X139.276 Y91.806 E.1195
G1 X140.507 Y93.827 E.11945
G1 X141.453 Y95.997 E.1195
G1 X142.097 Y98.275 E.1195
G1 X142.428 Y100.724 E.12475
G1 X142.439 Y102.986 E.11418
G1 X142.129 Y105.333 E.1195
G1 X141.506 Y107.616 E.11946
G1 X140.579 Y109.794 E.11949
G1 X139.367 Y111.827 E.11948
G1 X137.891 Y113.678 E.11951
G1 X136.178 Y115.312 E.1195
G1 X134.261 Y116.699 E.11944
G1 X131.964 Y117.926 E.13146
G1 X131.83 Y118.071 E.00997
G1 X131.827 Y118.31 E.01207
G1 X137.821 Y132.779 E.79057
G1 X137.751 Y134.671 E.09557
G1 X137.379 Y136.602 E.09927
G1 X136.716 Y138.453 E.09925
G1 X135.779 Y140.182 E.09927
G1 X134.588 Y141.747 E.09927
G1 X133.172 Y143.112 E.09928
G1 X131.564 Y144.244 E.09927
G1 X129.802 Y145.118 E.09928
G1 X127.927 Y145.712 E.09928
G1 X125.983 Y146.012 E.09929
G1 X124.017 Y146.012 E.09924
G1 X122.073 Y145.712 E.09929
G1 X120.199 Y145.118 E.09924
G1 X118.437 Y144.244 E.09928
G1 X116.829 Y143.112 E.09927
G1 X115.413 Y141.747 E.09928
G1 X114.222 Y140.182 E.09927
G1 X113.284 Y138.453 E.09929
G1 X112.621 Y136.602 E.09925
G1 X112.25 Y134.671 E.09926
G1 X112.206 Y133.482 E.06006
G1 X114.886 Y134.593 E.14645
G1 X115.195 Y136.135 E.07939
G1 X115.892 Y137.874 E.09457
G1 X116.895 Y139.458 E.09464
G1 X118.169 Y140.832 E.09458
G1 X119.626 Y141.921 E.09182
G1 X121.265 Y142.736 E.0924
G1 X121.356 Y142.775 E.005
G1 X123.161 Y143.28 E.09461
G1 X125.028 Y143.446 E.09462
G1 X126.839 Y143.28 E.0918
G1 X128.696 Y142.755 E.09741
G1 X130.374 Y141.921 E.09459
M73 Q4 S17
G1 X131.872 Y140.795 E.0946
G1 X133.139 Y139.414 E.09461
G1 X134.108 Y137.874 E.09185
G1 X134.821 Y136.081 E.0974
G1 X135.178 Y134.271 E.09313
G1 X135.165 Y134.076 E.00987
G1 X127.725 Y116.117 E.98126
G1 X129.119 Y115.81 E.07205
G1 X131.055 Y115.084 E.10437
G1 X132.768 Y114.148 E.09854
G1 X132.873 Y114.087 E.00613
G1 X134.529 Y112.843 E.10455
G1 X135.991 Y111.377 E.10451
G1 X137.229 Y109.718 E.10449
G1 X138.22 Y107.899 E.10456
G1 X138.941 Y105.958 E.10452
G1 X139.428 Y103.724 E.11542
M73 P5 R17
G1 X139.408 Y103.535 E.00959
G1 X139.316 Y103.419 E.00747
G1 X139.132 Y103.356 E.00982
G1 X134.633 Y103.356 E.2271
M73 Q5 S17
G1 X134.456 Y103.413 E.00939
G1 X134.341 Y103.574 E.00999
G1 X133.823 Y105.329 E.09237
G1 X133.107 Y106.782 E.08177
G1 X132.154 Y108.091 E.08173
G1 X130.991 Y109.219 E.08178
G1 X129.654 Y110.132 E.08172
G1 X128.18 Y110.804 E.08177
G1 X126.614 Y111.216 E.08174
G1 X125 Y111.354 E.08177
G1 X123.386 Y111.216 E.08177
G1 X121.82 Y110.804 E.08174
G1 X120.346 Y110.132 E.08177
G1 X119.009 Y109.219 E.08172
G1 X117.846 Y108.091 E.08178
G1 X116.893 Y106.782 E.08173
G1 X116.177 Y105.329 E.08177
G1 X115.659 Y103.574 E.09237
G1 X115.544 Y103.413 E.00999
G1 X115.368 Y103.356 E.00934
G1 X110.87 Y103.356 E.22705
G1 X110.76 Y103.376 E.00564
G1 X110.592 Y103.535 E.01168
G1 X110.572 Y103.724 E.00959
G1 X111.059 Y105.958 E.11542
