; generated by PrusaSlicer 2.6.0+MacOS-arm64 on 2023-06-23 at 20:24:01 UTC


;
;
; 

; external perimeters extrusion width = 0.65mm
; perimeters extrusion width = 0.65mm
; infill extrusion width = 0.65mm
; solid infill extrusion width = 0.65mm
; top infill extrusion width = 0.60mm
; first layer extrusion width = 0.65mm

M73 P0 R7
M73 Q0 S7
M201 X1000 Y1000 Z200 E5000 ; sets maximum accelerations, mm/sec^2
M203 X200 Y200 Z12 E120 ; sets maximum feedrates, mm / sec
M204 S1250 T1250 ; sets acceleration (S) and retract acceleration (R), mm/sec^2
M205 X8.00 Y8.00 Z0.40 E4.50 ; sets the jerk limits, mm/sec
M205 S0 T0 ; sets the minimum extruding and travel feed rate, mm/sec
;TYPE:Custom
M862.3 P "MK3S" ; printer model check
M862.1 P0.6 ; nozzle diameter check
M115 U3.12.2 ; tell printer latest fw version
G90 ; use absolute coordinates
M83 ; extruder relative mode
M104 S230 ; set extruder temp
M140 S85 ; set bed temp
M190 S85 ; wait for bed temp
M109 S230 ; wait for extruder temp
G28 W ; home all without mesh bed level
G80 ; mesh bed leveling

G1 Z0.2 F720
G1 Y-3 F1000 ; go outside print area
G92 E0
G1 X60 E9 F1000 ; intro line
G1 X100 E12.5 F1000 ; intro line

G92 E0
M221 S95
G21 ; set units to millimeters
G90 ; use absolute coordinates
M83 ; use relative distances for extrusion
M900 K0.04 ; Filament gcode LA 1.5
M900 K24 ; Filament gcode LA 1.0
M107
;LAYER_CHANGE
;Z:0.2
;HEIGHT:0.2
;BEFORE_LAYER_CHANGE
G92 E0.0
;0.2


G1 E-1 F2100
M73 P1 R7
M73 Q1 S7
G1 Z.2 F720
;AFTER_LAYER_CHANGE
;0.2
G1 Z.4
G1 X115.201 Y72.427 F10800
G1 Z.2 F720
G1 E1 F1500
M204 S800
;TYPE:Skirt/Brim
;WIDTH:0.65
G1 F1200
G1 X117.049 Y71.66 E.101
G1 X132.951 Y71.66 E.80272
G1 X134.326 Y72.052 E.07217
G1 X135.49 Y73.678 E.10094
G1 X141.164 Y98.122 E1.26671
G1 X141.533 Y100.517 E.12232
M73 Q2 S7
G1 X141.577 Y102.635 E.10694
G1 X139.796 Y132.227 E1.49647
M73 P2 R7
G1 X139.588 Y134.121 E.09618
G1 X138.947 Y136.567 E.12764
G1 X138.254 Y138.199 E.0895
G1 X137.158 Y140.05 E.10859
G1 X135.805 Y141.723 E.10861
G1 X133.926 Y143.415 E.12764
G1 X132.449 Y144.397 E.08953
G1 X130.704 Y145.253 E.09811
G1 X128.467 Y145.996 E.11899
G1 X125.967 Y146.377 E.12765
G1 X124.194 Y146.386 E.0895
G1 X122.06 Y146.114 E.10859
G1 X119.634 Y145.402 E.12763
G1 X117.691 Y144.478 E.10861
G1 X115.902 Y143.283 E.1086
G1 X114.306 Y141.841 E.10858
G1 X112.935 Y140.183 E.1086
G1 X111.819 Y138.344 E.10859
G1 X110.981 Y136.363 E.10858
G1 X110.44 Y134.281 E.10859
G1 X110.21 Y132.359 E.09771
G1 X108.434 Y102.633 E1.50321
G1 X108.477 Y100.518 E.10678
M73 P3 R7
M73 Q3 S7
G1 X108.813 Y98.297 E.11339
G1 X114.509 Y73.679 E1.27552
G1 X115.158 Y72.506 E.06767
M204 S1000
; printing object flagclip_v4.stl id:0 copy 0
;WIPE_START
G1 F8640
G1 X117.049 Y71.66 E-.47834
G1 X119.308 Y71.66 E-.52166
;WIPE_END
G1 Z.4 F720
G1 X119.933 Y90.81 F10800
G1 Z.2 F720
G1 E1 F1500
M204 S800
;TYPE:Perimeter
;WIDTH:0.697699
G1 F1200
G1 X120.036 Y90.761 E.00621
;WIDTH:0.746304
G1 X120.192 Y90.725 E.00936
;WIDTH:0.794909
G1 X120.348 Y90.688 E.01002
;WIDTH:0.843513
G1 X120.504 Y90.652 E.01066
G1 X120.596 Y90.72 E.00762
;WIDTH:0.802563
G1 X120.687 Y90.787 E.00714
;WIDTH:0.761613
G1 X120.779 Y90.855 E.00684
;WIDTH:0.720663
G1 X120.871 Y90.923 E.00645
;WIDTH:0.679713
G1 X120.962 Y90.99 E.00598
;WIDTH:0.638763
G1 X121.162 Y91.276 E.01729
;WIDTH:0.674196
G1 X121.228 Y91.46 E.01026
;WIDTH:0.71438
G1 X121.295 Y91.644 E.01093
G1 X121.919 Y95.183 E.20064
G1 X121.981 Y95.654 E.02652
;WIDTH:0.672878
G1 X122.043 Y96.125 E.02488
;WIDTH:0.631374
G1 X122.043 Y96.437 E.01527
;WIDTH:0.67368
G1 X121.997 Y96.588 E.00828
;WIDTH:0.716079
G1 X121.951 Y96.738 E.00878
;WIDTH:0.758477
G1 X121.905 Y96.889 E.00939
G1 X121.708 Y97.057 E.0154
;WIDTH:0.72417
G1 X120.924 Y97.727 E.05842
;WIDTH:0.71006
G1 X120.667 Y97.997 E.02068
;WIDTH:0.724316
G1 X120.152 Y98.655 E.04734
G1 X119.871 Y99.149 E.0322
;WIDTH:0.730091
G1 X119.634 Y99.619 E.03008
G1 X119.451 Y100.157 E.03247
;WIDTH:0.749464
G1 X119.24 Y100.893 E.04498
G1 X119.121 Y101.053 E.01171
;WIDTH:0.702307
G1 X119.003 Y101.213 E.0109
;WIDTH:0.679927
G1 X118.633 Y101.475 E.02401
;WIDTH:0.71438
G1 X118.324 Y101.545 E.01769
G1 X113.83 Y101.545 E.25091
G1 X113.505 Y101.468 E.01865
;WIDTH:0.676838
G1 X113.283 Y101.331 E.01375
;WIDTH:0.678746
G1 X113.092 Y101.036 E.01858
;WIDTH:0.707493
G1 X112.901 Y100.742 E.01937
G1 X112.922 Y100.412 E.01827
;WIDTH:0.713189
G1 X113.294 Y98.623 E.10184
;WIDTH:0.690443
G1 X113.33 Y98.499 E.00695
;WIDTH:0.714447
G1 X113.863 Y97.022 E.08768
;WIDTH:0.715935
G1 X114.349 Y96.056 E.06051
G1 X114.649 Y95.515 E.03462
;WIDTH:0.717634
G1 X115.234 Y94.67 E.05766
G1 X115.638 Y94.133 E.0377
;WIDTH:0.719515
G1 X116.297 Y93.417 E.05475
G1 X116.811 Y92.902 E.04093
;WIDTH:0.694021
G1 X116.907 Y92.815 E.00701
;WIDTH:0.721543
G1 X117.52 Y92.318 E.04453
G1 X118.143 Y91.847 E.04407
;WIDTH:0.723792
G1 X118.881 Y91.393 E.04905
G1 X119.852 Y90.85 E.06298
M204 S1000
G1 X120.186 Y91.383 F10800
M204 S800
;TYPE:External perimeter
;WIDTH:0.649999
G1 F1200
G1 X120.388 Y91.346 E.01037
G1 X120.589 Y91.475 E.01206
G1 X120.665 Y91.755 E.01465
G1 X121.454 Y96.229 E.22933
G1 X121.454 Y96.334 E.0053
G1 X121.354 Y96.511 E.01026
G1 X120.33 Y97.399 E.06842
M73 Q4 S7
G1 X119.592 Y98.324 E.05973
G1 X119.035 Y99.367 E.05969
G1 X118.612 Y100.698 E.0705
M73 P4 R7
G1 X118.5 Y100.85 E.00953
G1 X118.324 Y100.906 E.00932
G1 X113.83 Y100.906 E.22685
G1 X113.648 Y100.845 E.00969
G1 X113.526 Y100.607 E.0135
G1 X113.533 Y100.54 E.0034
G1 X113.919 Y98.711 E.09436
G1 X114.453 Y97.235 E.07923
G1 X115.204 Y95.809 E.08136
G1 X116.147 Y94.502 E.08136
G1 X117.295 Y93.31 E.08354
G1 X118.531 Y92.343 E.07922
G1 X120.108 Y91.428 E.09203
M204 S1000
G1 X120.228 Y91.182 F10800
;WIPE_START
G1 F8640
G1 X120.388 Y91.346 E-.06737
G1 X120.589 Y91.475 E-.05515
G1 X120.665 Y91.755 E-.06699
G1 X121.275 Y95.212 E-.81049
;WIPE_END
G1 Z.4 F720
G1 X129.95 Y90.794 F10800
G1 Z.2 F720
G1 E1 F1500
M204 S800
;TYPE:Perimeter
;WIDTH:0.687015
G1 F1200
G1 X130.076 Y90.811 E.00681
;WIDTH:0.68854
G1 X130.133 Y90.842 E.00348
;WIDTH:0.728018
G1 X131.118 Y91.398 E.06443
G1 X131.9 Y91.876 E.05221
;WIDTH:0.725195
G1 X132.475 Y92.316 E.04108
G1 X133.368 Y93.066 E.06616
;WIDTH:0.719986
G1 X133.699 Y93.405 E.02667
G1 X134.634 Y94.469 E.07974
;WIDTH:0.712414
G1 X134.769 Y94.648 E.01248
G1 X135.672 Y96.054 E.09302
;WIDTH:0.708197
G1 X135.737 Y96.18 E.00784
;WIDTH:0.715326
G1 X136.357 Y97.569 E.08505
G1 X136.488 Y97.914 E.02063
;WIDTH:0.720189
G1 X136.827 Y99.14 E.07163
G1 X137 Y99.864 E.04192
;WIDTH:0.689239
G1 X137.035 Y100.115 E.01362
G1 X136.915 Y100.518 E.0226
;WIDTH:0.649999
G1 X136.445 Y100.947 E.03212
G1 X136.104 Y101.013 E.01753
G1 X131.557 Y101.013 E.22953
G1 X131.224 Y100.95 E.01711
G1 X131.13 Y100.907 E.00522
;WIDTH:0.68257
G1 X130.904 Y100.676 E.01719
;WIDTH:0.715141
G1 X130.678 Y100.445 E.01806
;WIDTH:0.717973
G1 X130.669 Y100.425 E.00123
;WIDTH:0.725582
G1 X130.245 Y99.351 E.06554
G1 X129.971 Y98.863 E.03177
;WIDTH:0.728751
G1 X129.726 Y98.481 E.02588
G1 X129.325 Y97.991 E.03611
;WIDTH:0.714622
G1 X129.077 Y97.72 E.02052
;WIDTH:0.723978
G1 X128.289 Y97.055 E.05839
;WIDTH:0.763167
G1 X128.082 Y96.879 E.01627
G1 X128.04 Y96.732 E.00916
;WIDTH:0.719166
G1 X127.998 Y96.585 E.0086
;WIDTH:0.675165
G1 X127.956 Y96.438 E.00804
;WIDTH:0.631255
G1 X127.956 Y96.126 E.01526
;WIDTH:0.672819
G1 X128.018 Y95.655 E.02488
;WIDTH:0.714383
G1 X128.08 Y95.183 E.02658
G1 X128.733 Y91.479 E.20999
G1 X128.842 Y91.277 E.01282
;WIDTH:0.682218
G1 X128.95 Y91.075 E.01218
;WIDTH:0.649999
G1 X129.264 Y90.824 E.02029
G1 X129.559 Y90.738 E.01551
;WIDTH:0.687015
G1 X129.861 Y90.781 E.01634
M204 S1000
G1 X129.816 Y91.381 F10800
M204 S800
;TYPE:External perimeter
;WIDTH:0.649999
G1 F1200
G1 X131.58 Y92.419 E.10332
G1 X132.967 Y93.554 E.09047
G1 X134.162 Y94.89 E.09048
G1 X135.135 Y96.396 E.09051
G1 X135.863 Y98.032 E.09039
G1 X136.398 Y100.024 E.10412
G1 X136.375 Y100.241 E.01102
G1 X136.164 Y100.4 E.01334
G1 X131.557 Y100.406 E.23256
G1 X131.415 Y100.371 E.00738
G1 X131.266 Y100.192 E.01176
G1 X130.816 Y99.041 E.06238
G1 X130.273 Y98.126 E.05371
G1 X129.587 Y97.313 E.0537
G1 X128.647 Y96.514 E.06228
G1 X128.545 Y96.335 E.0104
G1 X128.71 Y95.294 E.0532
G1 X129.363 Y91.59 E.18986
G1 X129.425 Y91.454 E.00754
G1 X129.628 Y91.341 E.01173
G1 X129.728 Y91.363 E.00517
M204 S1000
G1 X130.253 Y90.971 F10800
;WIPE_START
G1 F8640
G1 X131.58 Y92.419 E-.49226
G1 X132.967 Y93.554 E-.41382
G1 X133.238 Y93.857 E-.09392
;WIPE_END
G1 Z.4 F720
G1 X137.013 Y103.837 F10800
G1 Z.2 F720
M73 P5 R7
M73 Q5 S7
G1 E1 F1500
M204 S800
;TYPE:Perimeter
;WIDTH:0.702478
G1 F1200
G1 X137.027 Y103.762 E.00418
;WIDTH:0.686789
G1 X136.959 Y103.345 E.02262
;WIDTH:0.650359
G1 X136.678 Y102.953 E.02436
;WIDTH:0.649999
G1 X136.444 Y102.815 E.01371
G1 X136.104 Y102.749 E.01748
G1 X131.558 Y102.749 E.22948
G1 X131.28 Y102.793 E.01421
;WIDTH:0.698599
G1 X130.779 Y103.144 E.03335
;WIDTH:0.735728
G1 X130.652 Y103.357 E.01429
G1 X130.276 Y104.316 E.05934
;WIDTH:0.72032
G1 X130.113 Y104.657 E.02129
;WIDTH:0.728313
G1 X129.595 Y105.453 E.05412
G1 X129.289 Y105.795 E.02615
;WIDTH:0.737215
G1 X128.793 Y106.29 E.04045
G1 X128.361 Y106.616 E.03124
;WIDTH:0.736877
G1 X127.901 Y106.922 E.03188
G1 X126.94 Y107.372 E.06123
;WIDTH:0.727274
G1 X125.912 Y107.63 E.06031
G1 X125.608 Y107.66 E.01738
;WIDTH:0.737712
G1 X124.785 Y107.696 E.04759
G1 X124.274 Y107.642 E.02969
;WIDTH:0.738799
G1 X123.669 Y107.542 E.03548
G1 X122.632 Y107.197 E.06324
;WIDTH:0.730558
G1 X121.804 Y106.741 E.05405
;WIDTH:0.722666
G1 X121.498 Y106.518 E.0214
;WIDTH:0.733839
G1 X120.844 Y105.953 E.04965
G1 X120.491 Y105.539 E.03126
;WIDTH:0.736461
G1 X120.157 Y105.102 E.03172
G1 X119.885 Y104.628 E.03152
;WIDTH:0.729926
G1 X119.636 Y104.14 E.0313
G1 X119.219 Y102.873 E.0762
;WIDTH:0.708466
G1 X119.043 Y102.651 E.01568
;WIDTH:0.679233
G1 X118.867 Y102.429 E.01499
;WIDTH:0.679927
G1 X118.633 Y102.287 E.0145
;WIDTH:0.714381
G1 X118.324 Y102.217 E.01769
G1 X113.83 Y102.217 E.25091
G1 X113.505 Y102.294 E.01865
;WIDTH:0.676838
G1 X113.283 Y102.431 E.01375
;WIDTH:0.649999
G1 X113.062 Y102.67 E.01643
;WIDTH:0.676055
G1 X112.912 Y103.261 E.0321
;WIDTH:0.678926
G1 X112.924 Y103.349 E.0047
;WIDTH:0.712084
G1 X113.049 Y104.027 E.03836
G1 X113.291 Y105.128 E.06272
;WIDTH:0.712199
G1 X113.448 Y105.624 E.02895
G1 X113.853 Y106.719 E.06497
;WIDTH:0.712589
G1 X114.058 Y107.152 E.02668
G1 X114.63 Y108.218 E.06736
;WIDTH:0.713226
G1 X114.87 Y108.583 E.02435
G1 X115.607 Y109.594 E.06973
;WIDTH:0.714087
G1 X115.867 Y109.892 E.02207
G1 X116.766 Y110.822 E.07219
;WIDTH:0.715132
G1 X117.031 Y111.054 E.01969
G1 X118.083 Y111.878 E.07469
;WIDTH:0.716323
G1 X118.341 Y112.048 E.0173
G1 X119.534 Y112.741 E.07725
;WIDTH:0.704724
G1 X119.548 Y112.749 E.00089
;WIDTH:0.740812
G1 X120.106 Y113.007 E.03567
;WIDTH:0.781444
G1 X120.251 Y113.088 E.0102
;WIDTH:0.822076
G1 X120.395 Y113.17 E.01074
;WIDTH:0.862708
G1 X120.54 Y113.252 E.01136
;WIDTH:0.90334
G1 X120.685 Y113.333 E.01188
;WIDTH:0.943972
G1 X120.83 Y113.415 E.01248
G1 X121.254 Y113.569 E.0338
G1 X121.074 Y114.004 E.03527
G1 X121.012 Y114.213 E.01633
;WIDTH:0.898054
G1 X120.951 Y114.422 E.01548
;WIDTH:0.852136
G1 X120.889 Y114.631 E.01467
;WIDTH:0.806218
G1 X120.827 Y114.84 E.01384
;WIDTH:0.7603
G1 X120.766 Y115.049 E.01299
;WIDTH:0.714381
G1 X117.012 Y124.111 E.54765
G1 X116.392 Y123.854 E.03747
G1 X120.145 Y114.792 E.54763
;WIDTH:0.724068
G1 X120.199 Y114.637 E.0093
;WIDTH:0.768049
G1 X120.208 Y114.512 E.00756
;WIDTH:0.81203
G1 X120.217 Y114.387 E.00801
;WIDTH:0.856011
G1 X120.226 Y114.261 E.00854
;WIDTH:0.899992
G1 X120.235 Y114.136 E.00893
;WIDTH:0.943972
G1 X120.245 Y114.011 E.0094
G1 X120.144 Y113.929 E.00975
;WIDTH:0.902348
G1 X120.044 Y113.847 E.00924
;WIDTH:0.860723
G1 X119.943 Y113.765 E.00885
;WIDTH:0.819098
G1 X119.843 Y113.683 E.00835
;WIDTH:0.777473
G1 X119.743 Y113.601 E.0079
;WIDTH:0.735848
G1 X119.204 Y113.315 E.03516
;WIDTH:0.716323
G1 X118.005 Y112.632 E.07726
G1 X117.68 Y112.398 E.02242
;WIDTH:0.715132
G1 X116.619 Y111.585 E.07471
G1 X116.297 Y111.28 E.02479
;WIDTH:0.714087
G1 X115.387 Y110.361 E.07218
G1 X115.083 Y109.982 E.02711
;WIDTH:0.713226
G1 X114.317 Y108.964 E.07101
G1 X114.059 Y108.53 E.02814
;WIDTH:0.712589
G1 X113.471 Y107.473 E.06735
G1 X113.247 Y106.949 E.03173
;WIDTH:0.712199
G1 X112.822 Y105.861 E.065
G1 X112.66 Y105.273 E.03394
;WIDTH:0.712084
G1 X112.397 Y104.177 E.06271
G1 X112.282 Y103.331 E.04751
;WIDTH:0.676055
G1 X112.17 Y102.43 E.0478
;WIDTH:0.649999
G1 X112.184 Y101.864 E.02858
;WIDTH:0.678746
G1 X112.212 Y101.323 E.02864
;WIDTH:0.707493
G1 X112.24 Y100.782 E.02994
G1 X112.294 Y100.295 E.02708
;WIDTH:0.713189
G1 X112.519 Y98.999 E.07331
G1 X112.718 Y98.295 E.04077
;WIDTH:0.714447
G1 X113.023 Y97.337 E.05614
G1 X113.337 Y96.617 E.04386
;WIDTH:0.715935
G1 X113.768 Y95.718 E.05579
G1 X114.183 Y95.041 E.04444
;WIDTH:0.717634
G1 X114.703 Y94.254 E.05292
G1 X115.241 Y93.599 E.04755
;WIDTH:0.719515
M73 Q6 S7
G1 X115.827 Y92.931 E.04999
M73 P6 R7
G1 X116.489 Y92.317 E.0508
;WIDTH:0.721543
G1 X117.119 Y91.771 E.04704
G1 X117.903 Y91.22 E.05407
;WIDTH:0.723792
G1 X118.557 Y90.795 E.04416
G1 X119.563 Y90.269 E.06427
;WIDTH:0.697699
G1 X119.77 Y90.166 E.01259
;WIDTH:0.741833
G1 X119.959 Y90.085 E.01195
;WIDTH:0.785967
G1 X120.148 Y90.003 E.01273
;WIDTH:0.830101
G1 X120.337 Y89.922 E.01346
;WIDTH:0.843513
G1 X120.589 Y89.572 E.02871
G1 X120.901 Y90.033 E.03706
G1 X121.004 Y90.148 E.01028
;WIDTH:0.802563
G1 X121.107 Y90.263 E.00975
;WIDTH:0.761613
G1 X121.209 Y90.378 E.00919
;WIDTH:0.720663
G1 X121.312 Y90.493 E.0087
;WIDTH:0.679713
G1 X121.414 Y90.608 E.00814
;WIDTH:0.638763
G1 X121.676 Y90.99 E.02295
;WIDTH:0.674196
G1 X121.81 Y91.223 E.01411
;WIDTH:0.714381
G1 X121.944 Y91.457 E.01506
G1 X122.58 Y95.067 E.20466
G1 X122.606 Y95.806 E.04129
;WIDTH:0.672831
G1 X122.627 Y96.488 E.03574
;WIDTH:0.675398
G1 X122.605 Y96.768 E.01477
;WIDTH:0.719514
G1 X122.583 Y97.048 E.0158
;WIDTH:0.76363
G1 X122.561 Y97.328 E.01683
G1 X122.147 Y97.577 E.02895
;WIDTH:0.72417
G1 X121.354 Y98.237 E.05844
;WIDTH:0.71006
G1 X121.196 Y98.404 E.01275
;WIDTH:0.709645
G1 X120.51 Y99.35 E.06478
;WIDTH:0.730091
G1 X120.269 Y99.885 E.03353
G1 X120.048 Y100.46 E.0352
;WIDTH:0.750954
G1 X119.922 Y101.07 E.03667
G1 X119.91 Y101.331 E.01538
;WIDTH:0.717303
G1 X119.897 Y101.592 E.01465
;WIDTH:0.683651
G1 X119.885 Y101.853 E.01392
;WIDTH:0.679233
G1 X119.913 Y102.288 E.02306
;WIDTH:0.708466
G1 X119.941 Y102.723 E.02412
;WIDTH:0.715532
G1 X120.004 Y103.107 E.02176
;WIDTH:0.729926
G1 X120.287 Y103.92 E.04918
G1 X120.456 Y104.283 E.02287
;WIDTH:0.712785
G1 X121.028 Y105.14 E.05739
;WIDTH:0.733839
G1 X121.343 Y105.478 E.02654
G1 X122.129 Y106.144 E.05919
;WIDTH:0.730558
G1 X122.961 Y106.593 E.05406
G1 X123.255 Y106.71 E.01809
;WIDTH:0.715828
G1 X124.255 Y106.961 E.05769
;WIDTH:0.737712
G1 X124.798 Y107 E.03145
G1 X125.744 Y106.967 E.05469
;WIDTH:0.727238
G1 X126.742 Y106.717 E.05854
G1 X126.96 Y106.627 E.01342
;WIDTH:0.716561
G1 X127.972 Y106.074 E.0646
;WIDTH:0.737215
G1 X128.358 Y105.75 E.02909
G1 X128.821 Y105.315 E.03668
;WIDTH:0.728313
G1 X129.022 Y105.077 E.01775
G1 X129.547 Y104.285 E.05415
;WIDTH:0.72032
G1 X129.648 Y104.077 E.01302
;WIDTH:0.735728
G1 X130.005 Y103.11 E.05938
G1 X130.038 Y102.881 E.01333
;WIDTH:0.698599
G1 X130.115 Y101.853 E.0562
;WIDTH:0.649999
G1 X130.109 Y101.63 E.01126
;WIDTH:0.68257
G1 X130.051 Y101.129 E.02682
;WIDTH:0.715141
G1 X129.993 Y100.627 E.02825
;WIDTH:0.716855
G1 X129.929 Y100.383 E.01414
G1 X129.532 Y99.431 E.0578
;WIDTH:0.728751
G1 X129.189 Y98.907 E.03571
G1 X128.646 Y98.235 E.04927
;WIDTH:0.723978
G1 X127.853 Y97.578 E.05832
;WIDTH:0.763167
G1 X127.438 Y97.329 E.02898
G1 X127.416 Y96.897 E.02591
;WIDTH:0.719166
G1 X127.394 Y96.693 E.01154
;WIDTH:0.675165
G1 X127.372 Y96.489 E.01079
;WIDTH:0.631255
G1 X127.372 Y96.075 E.02025
;WIDTH:0.672819
G1 X127.396 Y95.571 E.02643
;WIDTH:0.714436
G1 X127.419 Y95.067 E.02817
G1 X128.072 Y91.363 E.21001
G1 X128.113 Y91.039 E.01824
;WIDTH:0.682218
G1 X128.154 Y90.715 E.01736
;WIDTH:0.649999
G1 X128.267 Y90.072 E.03296
;WIDTH:0.670271
G1 X128.39 Y89.431 E.03405
