; generated by PrusaSlicer 2.6.0-rc1+MacOS-arm64 on 2023-06-19 at 23:48:11 UTC


;
;
; 

; external perimeters extrusion width = 0.65mm
; perimeters extrusion width = 0.65mm
; infill extrusion width = 0.65mm
; solid infill extrusion width = 0.65mm
; top infill extrusion width = 0.60mm
; first layer extrusion width = 0.65mm

M73 P0 R17
M73 Q0 S17
M201 X1000 Y1000 Z200 E5000 ; sets maximum accelerations, mm/sec^2
M203 X200 Y200 Z12 E120 ; sets maximum feedrates, mm / sec
M204 S1250 T1250 ; sets acceleration (S) and retract acceleration (R), mm/sec^2
M205 X8.00 Y8.00 Z0.40 E4.50 ; sets the jerk limits, mm/sec
M205 S0 T0 ; sets the minimum extruding and travel feed rate, mm/sec
;TYPE:Custom
M862.3 P "MK3S" ; printer model check
M862.1 P0.6 ; nozzle diameter check
M115 U3.12.2 ; tell printer latest fw version
G90 ; use absolute coordinates
M83 ; extruder relative mode
M104 S230 ; set extruder temp
M140 S85 ; set bed temp
M190 S85 ; wait for bed temp
M109 S230 ; wait for extruder temp
G28 W ; home all without mesh bed level
G80 ; mesh bed leveling

G1 Z0.2 F720
G1 Y-3 F1000 ; go outside print area
G92 E0
G1 X60 E9 F1000 ; intro line
G1 X100 E12.5 F1000 ; intro line

G92 E0
M221 S95
G21 ; set units to millimeters
G90 ; use absolute coordinates
M83 ; use relative distances for extrusion
M900 K0.04 ; Filament gcode LA 1.5
M900 K24 ; Filament gcode LA 1.0
M107
;LAYER_CHANGE
;Z:0.2
;HEIGHT:0.2
;BEFORE_LAYER_CHANGE
G92 E0.0
;0.2


G1 E-1 F2100
G1 Z.2 F720
;AFTER_LAYER_CHANGE
;0.2
G1 Z.4
G1 X111.922 Y61.753 F10800
G1 Z.2 F720
G1 E1 F1500
M204 S800
;TYPE:Skirt/Brim
;WIDTH:0.65
G1 F1200
G1 X113.121 Y60.972 E.07223
G1 X113.89 Y60.856 E.03926
G1 X136.107 Y60.856 E1.12149
G1 X137.482 Y61.248 E.07217
G1 X138.444 Y62.307 E.07222
G1 X138.681 Y63.048 E.03927
G1 X144.411 Y98.633 E1.81943
G1 X144.785 Y101.3 E.13594
G1 X144.797 Y103.961 E.13433
G1 X140.832 Y135.223 E1.59071
G1 X140.34 Y137.619 E.12347
M73 P1 R17
M73 Q1 S17
G1 X139.65 Y139.547 E.10337
G1 X138.511 Y141.711 E.12344
G1 X136.789 Y143.974 E.14355
G1 X135.315 Y145.395 E.10335
G1 X133.333 Y146.828 E.12346
G1 X131.155 Y147.942 E.12349
G1 X128.444 Y148.801 E.14355
G1 X126.022 Y149.144 E.12348
G1 X123.975 Y149.144 E.10333
G1 X121.553 Y148.801 E.12348
G1 X118.842 Y147.942 E.14355
G1 X117.008 Y147.033 E.10333
G1 X114.991 Y145.649 E.12348
G1 X112.943 Y143.676 E.14355
G1 X111.486 Y141.711 E.12348
G1 X110.347 Y139.547 E.12344
G1 X109.552 Y137.234 E.12346
G1 X109.139 Y135.059 E.11175
G1 X105.203 Y103.961 E1.58232
G1 X105.215 Y101.3 E.13433
G1 X105.584 Y98.664 E.13436
G1 X111.317 Y63.049 E1.82095
G1 X111.884 Y61.835 E.06764
M204 S1000
; printing object flagclip_v4a.stl id:0 copy 0
;WIPE_START
G1 F8640
G1 X113.121 Y60.972 E-.34827
G1 X113.89 Y60.856 E-.17957
G1 X115.935 Y60.856 E-.47216
;WIPE_END
G1 Z.4 F720
G1 X127.863 Y66.372 F10800
G1 Z.2 F720
G1 E1 F1500
M204 S800
;TYPE:Perimeter
;WIDTH:0.649999
G1 F1200
G1 X127.791 Y66.385 E.00369
G1 X127.484 Y66.572 E.01815
G1 X127.244 Y66.933 E.02188
G1 X127.195 Y67.146 E.01103
G1 X127.216 Y67.29 E.00735
G1 X126.947 Y67.029 E.01892
G1 X126.324 Y66.634 E.03724
G1 X125.625 Y66.398 E.03724
G1 X124.89 Y66.336 E.03723
G1 X124.161 Y66.45 E.03725
G1 X123.48 Y66.735 E.03727
G1 X123.05 Y67.029 E.02629
G1 X122.781 Y67.29 E.01892
G1 X122.802 Y67.146 E.00735
G1 X122.753 Y66.933 E.01103
G1 X122.57 Y66.629 E.01791
G1 X122.206 Y66.385 E.02212
G1 X121.897 Y66.331 E.01583
G1 X118.394 Y66.331 E.17683
G1 X117.991 Y66.425 E.02089
G1 X117.696 Y66.656 E.01891
G1 X117.519 Y66.987 E.01895
G1 X117.497 Y67.4 E.02088
G1 X118.486 Y73.008 E.28745
G1 X116.723 Y73.008 E.08899
G1 X115.24 Y64.595 E.43123
G1 X134.758 Y64.595 E.98525
G1 X130.821 Y86.921 E1.14438
G1 X130.807 Y87.078 E.00796
M73 P2 R17
M73 Q2 S17
G1 X130.878 Y87.43 E.01813
G1 X130.989 Y87.624 E.01128
G1 X131.295 Y87.885 E.0203
;WIDTH:0.69126
G1 X131.425 Y87.977 E.00859
;WIDTH:0.732521
G1 X131.556 Y88.069 E.00918
;WIDTH:0.773782
G1 X131.687 Y88.161 E.00973
;WIDTH:0.815042
G1 X131.817 Y88.252 E.01019
G1 X131.672 Y88.247 E.00931
;WIDTH:0.773782
G1 X131.526 Y88.241 E.00888
;WIDTH:0.732521
G1 X131.38 Y88.235 E.00838
;WIDTH:0.69126
G1 X131.234 Y88.229 E.00788
;WIDTH:0.649999
G1 X130.857 Y88.37 E.02032
G1 X130.686 Y88.515 E.01132
G1 X130.459 Y88.974 E.02585
G1 X129.635 Y93.647 E.23953
G1 X129.635 Y93.962 E.0159
G1 X129.812 Y94.362 E.02208
G1 X129.952 Y94.507 E.01017
G1 X131.146 Y95.494 E.0782
G1 X132.036 Y96.49 E.06742
G1 X132.766 Y97.608 E.0674
G1 X133.319 Y98.824 E.06743
G1 X133.753 Y100.351 E.08013
G1 X133.867 Y100.6 E.01382
G1 X134.003 Y100.763 E.01072
G1 X134.323 Y100.96 E.01897
G1 X134.629 Y101.013 E.01568
G1 X139.129 Y101.013 E.22715
G1 X139.343 Y100.988 E.01088
G1 X139.685 Y100.824 E.01915
;WIDTH:0.665827
G1 X139.977 Y100.456 E.02433
;WIDTH:0.708993
G1 X140.034 Y100.292 E.00962
;WIDTH:0.752158
G1 X140.09 Y100.127 E.01028
G1 X140.075 Y99.962 E.00977
;WIDTH:0.757992
G1 X139.782 Y98.617 E.08185
;WIDTH:0.727401
G1 X139.588 Y97.782 E.04879
;WIDTH:0.703569
G1 X139.481 Y97.449 E.01921
G1 X139.18 Y96.659 E.04644
;WIDTH:0.673605
G1 X138.88 Y95.868 E.04436
;WIDTH:0.651731
G1 X138.713 Y95.522 E.01945
G1 X138.319 Y94.796 E.04182
;WIDTH:0.62264
G1 X137.924 Y94.07 E.03984
;WIDTH:0.603417
G1 X137.685 Y93.709 E.02018
G1 X137.212 Y93.063 E.03731
;WIDTH:0.575426
G1 X136.739 Y92.418 E.03542
;WIDTH:0.559502
G1 X136.413 Y92.047 E.02121
G1 X135.845 Y91.458 E.03515
;WIDTH:0.580714
G1 X135.818 Y91.393 E.00315
;WIDTH:0.630327
G1 X135.791 Y91.327 E.00348
;WIDTH:0.679941
G1 X135.763 Y91.261 E.0038
;WIDTH:0.729555
G1 X135.736 Y91.196 E.00402
;WIDTH:0.779168
G1 X135.709 Y91.13 E.00437
;WIDTH:0.828782
G1 X135.682 Y91.064 E.00466
;WIDTH:0.878395
G1 X135.655 Y90.999 E.00489
;WIDTH:0.928009
G1 X135.627 Y90.933 E.00528
;WIDTH:0.977622
G1 X135.6 Y90.867 E.00554
G1 X135.666 Y90.895 E.00557
;WIDTH:0.928009
G1 X135.731 Y90.922 E.00518
;WIDTH:0.878395
G1 X135.797 Y90.949 E.00495
;WIDTH:0.828782
G1 X135.863 Y90.977 E.00468
;WIDTH:0.779168
G1 X135.928 Y91.004 E.00431
;WIDTH:0.729555
G1 X135.994 Y91.031 E.00407
;WIDTH:0.679941
G1 X136.059 Y91.059 E.00375
;WIDTH:0.630327
G1 X136.125 Y91.086 E.00348
;WIDTH:0.580714
G1 X136.191 Y91.114 E.00321
;WIDTH:0.559502
G1 X136.802 Y91.708 E.0366
G1 X137.14 Y92.113 E.02266
;WIDTH:0.575426
G1 X137.636 Y92.741 E.03543
;WIDTH:0.603417
G1 X138.131 Y93.37 E.0373
G1 X138.403 Y93.799 E.02367
;WIDTH:0.62264
G1 X138.823 Y94.51 E.03981
;WIDTH:0.651731
G1 X139.243 Y95.222 E.04185
G1 X139.437 Y95.645 E.02356
;WIDTH:0.673605
G1 X139.765 Y96.424 E.04433
;WIDTH:0.703569
G1 X140.093 Y97.204 E.04648
G1 X140.221 Y97.622 E.02401
;WIDTH:0.727401
G1 X140.445 Y98.45 E.04882
;WIDTH:0.757992
G1 X140.68 Y99.325 E.05387
G1 X140.796 Y100.084 E.04565
;WIDTH:0.752158
G1 X140.854 Y100.328 E.01479
;WIDTH:0.708993
G1 X140.912 Y100.571 E.01384
;WIDTH:0.665827
G1 X141.048 Y101.483 E.04776
;WIDTH:0.649999
G1 X141.064 Y102.709 E.06189
;WIDTH:0.691162
G1 X141.036 Y102.969 E.0141
;WIDTH:0.732324
G1 X141.007 Y103.23 E.01505
;WIDTH:0.773487
G1 X140.978 Y103.49 E.01589
;WIDTH:0.814649
G1 X140.95 Y103.751 E.01684
;WIDTH:0.855811
G1 X140.921 Y104.011 E.01768
;WIDTH:0.895294
G1 X140.8 Y104.843 E.05959
;WIDTH:0.934776
G1 X140.679 Y105.674 E.06228
G1 X140.521 Y106.321 E.04939
;WIDTH:0.941926
G1 X140.379 Y106.828 E.03936
G1 X140.377 Y106.931 E.0077
;WIDTH:0.893272
G1 X140.376 Y107.034 E.00728
;WIDTH:0.844617
G1 X140.374 Y107.137 E.00687
;WIDTH:0.795963
G1 X140.372 Y107.239 E.00639
;WIDTH:0.747308
G1 X140.371 Y107.342 E.00603
;WIDTH:0.698654
G1 X140.369 Y107.445 E.00562
;WIDTH:0.649999
G1 X140.271 Y107.821 E.01961
G1 X139.451 Y109.819 E.10902
G1 X138.371 Y111.69 E.10905
G1 X137.051 Y113.4 E.10904
G1 X135.513 Y114.917 E.10905
G1 X133.786 Y116.215 E.10905
G1 X131.663 Y117.403 E.1228
G1 X131.428 Y117.592 E.01522
G1 X131.276 Y117.826 E.01409
G1 X131.197 Y118.169 E.01777
G1 X131.266 Y118.546 E.01935
G1 X137.207 Y132.889 E.78367
G1 X137.144 Y134.602 E.08653
G1 X136.79 Y136.441 E.09453
G1 X136.159 Y138.205 E.09457
G1 X135.266 Y139.852 E.09457
G1 X134.131 Y141.342 E.09455
G1 X132.783 Y142.642 E.09453
G1 X131.271 Y143.707 E.09336
G1 X129.572 Y144.553 E.09581
G1 X127.787 Y145.119 E.09453
G1 X125.935 Y145.405 E.09459
G1 X124.062 Y145.405 E.09455
G1 X122.211 Y145.119 E.09455
G1 X120.425 Y144.553 E.09457
G1 X118.746 Y143.721 E.09459
G1 X117.215 Y142.642 E.09455
G1 X115.866 Y141.342 E.09457
G1 X114.732 Y139.852 E.09452
G1 X113.838 Y138.205 E.0946
G1 X113.207 Y136.441 E.09457
G1 X112.855 Y134.611 E.09407
G1 X112.846 Y134.405 E.01041
G1 X114.352 Y135.029 E.08229
G1 X114.63 Y136.359 E.06859
G1 X115.377 Y138.198 E.1002
G1 X116.447 Y139.869 E.10016
G1 X117.681 Y141.206 E.09184
G1 X117.804 Y141.318 E.0084
G1 X119.261 Y142.407 E.09182
G1 X119.403 Y142.494 E.00841
G1 X120.995 Y143.28 E.08962
G1 X121.19 Y143.36 E.01064
G1 X123.104 Y143.884 E.10017
G1 X125.082 Y144.051 E.1002
G1 X126.893 Y143.884 E.09181
G1 X127.057 Y143.854 E.00842
G1 X128.808 Y143.36 E.09184
G1 X128.963 Y143.3 E.00839
G1 X130.594 Y142.494 E.09184
G1 X130.736 Y142.407 E.00841
G1 X132.317 Y141.206 E.10022
G1 X133.652 Y139.737 E.1002
G1 X134.62 Y138.198 E.09178
G1 X134.696 Y138.049 E.00844
G1 X135.368 Y136.359 E.09181
G1 X135.415 Y136.199 E.00842
G1 X135.772 Y134.388 E.09318
G1 X135.793 Y134.226 E.00825
G1 X135.724 Y133.844 E.01959
G1 X128.563 Y116.555 E.94463
G1 X129.33 Y116.378 E.03973
G1 X131.347 Y115.615 E.10886
G1 X133.236 Y114.573 E.1089
G1 X134.952 Y113.277 E.10855
G1 X136.475 Y111.741 E.10919
G1 X137.761 Y110.009 E.10889
G1 X138.733 Y108.23 E.10233
G1 X139.177 Y107.068 E.06279
;WIDTH:0.698654
G1 X139.234 Y106.983 E.00558
;WIDTH:0.747308
G1 X139.292 Y106.898 E.00603
;WIDTH:0.795963
G1 X139.35 Y106.813 E.00644
;WIDTH:0.844617
G1 X139.407 Y106.728 E.00682
;WIDTH:0.893272
G1 X139.465 Y106.643 E.00728
;WIDTH:0.941926
G1 X139.523 Y106.558 E.00769
G1 X139.666 Y106.117 E.03466
;WIDTH:0.934776
G1 X139.961 Y104.701 E.10726
;WIDTH:0.895294
G1 X140.12 Y103.876 E.05955
;WIDTH:0.865775
G1 X140.146 Y103.587 E.01985
G1 X140.089 Y103.493 E.00752
;WIDTH:0.82262
G1 X140.032 Y103.399 E.00713
;WIDTH:0.779465
G1 X139.975 Y103.305 E.00673
;WIDTH:0.73631
G1 X139.918 Y103.211 E.00634
;WIDTH:0.693155
G1 X139.861 Y103.116 E.00599
;WIDTH:0.649999
G1 X139.526 Y102.84 E.02191
G1 X139.13 Y102.749 E.02051
G1 X134.631 Y102.749 E.2271
G1 X134.324 Y102.802 E.01573
G1 X134.101 Y102.919 E.01271
G1 X133.758 Y103.402 E.0299
G1 X133.254 Y105.107 E.08975
G1 X132.584 Y106.467 E.07653
M73 P3 R17
M73 Q3 S17
G1 X131.692 Y107.692 E.07649
G1 X130.605 Y108.747 E.07646
G1 X129.353 Y109.602 E.07653
G1 X127.974 Y110.23 E.07649
G1 X126.509 Y110.615 E.07646
G1 X124.999 Y110.745 E.0765
G1 X123.489 Y110.615 E.0765
G1 X122.023 Y110.23 E.07651
G1 X120.644 Y109.602 E.07649
G1 X119.393 Y108.747 E.07649
G1 X118.305 Y107.692 E.0765
G1 X117.413 Y106.467 E.07649
G1 X116.743 Y105.107 E.07653
G1 X116.217 Y103.336 E.09326
G1 X115.896 Y102.919 E.02656
G1 X115.673 Y102.802 E.01271
G1 X115.367 Y102.749 E.01568
G1 X110.868 Y102.749 E.2271
G1 X110.472 Y102.839 E.0205
G1 X110.137 Y103.116 E.02194
;WIDTH:0.692888
G1 X110.08 Y103.21 E.00594
;WIDTH:0.735777
G1 X110.023 Y103.305 E.00638
;WIDTH:0.778666
G1 X109.966 Y103.399 E.00673
;WIDTH:0.821555
G1 X109.909 Y103.493 E.00712
;WIDTH:0.864444
G1 X109.852 Y103.587 E.00751
G1 X109.878 Y103.875 E.01975
;WIDTH:0.893991
G1 X110.037 Y104.701 E.05953
;WIDTH:0.933492
G1 X110.332 Y106.117 E.10711
;WIDTH:0.941924
G1 X110.483 Y106.58 E.0364
G1 X110.541 Y106.665 E.00769
;WIDTH:0.89327
G1 X110.598 Y106.75 E.00724
;WIDTH:0.844616
G1 X110.656 Y106.835 E.00686
;WIDTH:0.795962
G1 X110.714 Y106.921 E.0065
;WIDTH:0.747308
G1 X110.772 Y107.006 E.00603
;WIDTH:0.698654
G1 X110.829 Y107.091 E.00558
;WIDTH:0.649999
G1 X111.265 Y108.23 E.06156
G1 X112.307 Y110.118 E.10886
G1 X113.607 Y111.839 E.10887
G1 X115.041 Y113.273 E.10237
G1 X116.762 Y114.573 E.10887
G1 X118.65 Y115.615 E.10886
G1 X120.792 Y116.415 E.11542
G1 X121.435 Y116.555 E.03322
G1 X115.115 Y131.812 E.83362
G1 X113.511 Y131.148 E.08763
G1 X118.731 Y118.546 E.68855
G1 X118.8 Y118.169 E.01935
G1 X118.721 Y117.826 E.01777
G1 X118.57 Y117.592 E.01406
G1 X118.335 Y117.403 E.01522
G1 X116.212 Y116.214 E.12283
G1 X114.486 Y114.917 E.10898
G1 X112.948 Y113.399 E.10908
G1 X111.628 Y111.69 E.109
G1 X110.548 Y109.819 E.10905
G1 X109.745 Y107.86 E.10687
G1 X109.637 Y107.468 E.02052
;WIDTH:0.698654
G1 X109.635 Y107.365 E.00562
;WIDTH:0.747308
G1 X109.633 Y107.262 E.00603
;WIDTH:0.795962
G1 X109.632 Y107.159 E.00645
;WIDTH:0.844616
G1 X109.63 Y107.056 E.00687
;WIDTH:0.89327
G1 X109.629 Y106.954 E.00721
;WIDTH:0.941924
G1 X109.627 Y106.851 E.0077
G1 X109.478 Y106.321 E.04115
;WIDTH:0.933492
G1 X109.32 Y105.674 E.04932
G1 X109.199 Y104.842 E.06226
;WIDTH:0.893991
G1 X109.078 Y104.011 E.05943
;WIDTH:0.864444
G1 X109.012 Y103.384 E.04307
;WIDTH:0.821555
G1 X108.993 Y103.215 E.01101
;WIDTH:0.778666
G1 X108.974 Y103.046 E.0104
;WIDTH:0.735777
G1 X108.955 Y102.878 E.00974
;WIDTH:0.692888
G1 X108.936 Y102.709 E.00919
;WIDTH:0.649999
G1 X108.961 Y101.37 E.0676
;WIDTH:0.665598
G1 X109.088 Y100.572 E.04184
;WIDTH:0.703927
G1 X109.167 Y100.175 E.02225
;WIDTH:0.742255
G1 X109.245 Y99.778 E.02353
;WIDTH:0.756704
G1 X109.33 Y99.278 E.0301
G1 X109.554 Y98.451 E.05085
;WIDTH:0.726138
G1 X109.778 Y97.623 E.04873
;WIDTH:0.702354
G1 X109.906 Y97.204 E.02402
G1 X110.234 Y96.425 E.04635
;WIDTH:0.672431
G1 X110.562 Y95.646 E.04424
;WIDTH:0.650632
G1 X110.756 Y95.223 E.02352
G1 X111.176 Y94.511 E.04177
;WIDTH:0.621595
G1 X111.596 Y93.799 E.03978
;WIDTH:0.602472
G1 X111.868 Y93.371 E.02359
G1 X112.363 Y92.742 E.03724
;WIDTH:0.574548
G1 X112.858 Y92.113 E.03538
;WIDTH:0.558751
G1 X113.22 Y91.683 E.02411
G1 X113.794 Y91.127 E.03428
;WIDTH:0.580696
G1 X113.86 Y91.1 E.00319
;WIDTH:0.630317
G1 X113.926 Y91.072 E.0035
;WIDTH:0.679939
G1 X113.991 Y91.045 E.00373
;WIDTH:0.729561
G1 X114.057 Y91.017 E.00409
;WIDTH:0.779182
G1 X114.122 Y90.99 E.00431
;WIDTH:0.828804
G1 X114.188 Y90.963 E.00466
;WIDTH:0.878425
G1 X114.254 Y90.935 E.00498
;WIDTH:0.928047
G1 X114.319 Y90.908 E.00518
;WIDTH:0.977668
G1 X114.385 Y90.88 E.00557
G1 X114.358 Y90.946 E.00554
;WIDTH:0.928047
G1 X114.33 Y91.012 E.00528
;WIDTH:0.878425
G1 X114.303 Y91.078 E.00495
;WIDTH:0.828804
G1 X114.276 Y91.143 E.0046
;WIDTH:0.779182
G1 X114.249 Y91.209 E.00437
;WIDTH:0.729561
G1 X114.221 Y91.275 E.00409
;WIDTH:0.679939
G1 X114.194 Y91.34 E.00373
;WIDTH:0.630317
G1 X114.167 Y91.406 E.00348
;WIDTH:0.580696
G1 X114.14 Y91.472 E.00319
;WIDTH:0.546624
G1 X113.259 Y92.418 E.05414
;WIDTH:0.574548
G1 X112.786 Y93.063 E.03536
;WIDTH:0.602472
G1 X112.313 Y93.709 E.03725
G1 X112.074 Y94.07 E.02014
;WIDTH:0.621595
G1 X111.679 Y94.796 E.03977
;WIDTH:0.650632
G1 X111.285 Y95.522 E.04174
G1 X111.118 Y95.868 E.01941
;WIDTH:0.672431
G1 X110.818 Y96.659 E.04428
;WIDTH:0.702354
G1 X110.517 Y97.449 E.04636
G1 X110.41 Y97.782 E.01918
;WIDTH:0.726138
G1 X110.216 Y98.617 E.0487
;WIDTH:0.756704
G1 X110.022 Y99.452 E.05088
G1 X109.908 Y100.127 E.04063
;WIDTH:0.75085
G1 X109.964 Y100.292 E.01026
;WIDTH:0.708224
G1 X110.021 Y100.456 E.0096
;WIDTH:0.665598
G1 X110.313 Y100.824 E.02432
;WIDTH:0.649999
G1 X110.473 Y100.923 E.0095
G1 X110.868 Y101.013 E.02045
G1 X115.366 Y101.013 E.22705
G1 X115.674 Y100.96 E.01578
G1 X115.897 Y100.844 E.01269
G1 X116.065 Y100.689 E.01154
G1 X116.244 Y100.351 E.01931
G1 X116.678 Y98.824 E.08013
G1 X117.232 Y97.608 E.06745
G1 X117.962 Y96.49 E.0674
G1 X118.851 Y95.494 E.06739
G1 X120.144 Y94.412 E.08511
G1 X120.347 Y94.032 E.02175
G1 X120.362 Y93.647 E.01945
G1 X119.538 Y88.974 E.23953
G1 X119.311 Y88.515 E.02585
G1 X119.14 Y88.37 E.01132
G1 X118.763 Y88.23 E.0203
;WIDTH:0.691235
G1 X118.618 Y88.235 E.00782
;WIDTH:0.73247
G1 X118.472 Y88.241 E.00838
;WIDTH:0.773705
G1 X118.326 Y88.247 E.00888
;WIDTH:0.81494
G1 X118.18 Y88.253 E.00938
G1 X118.387 Y88.095 E.01672
;WIDTH:0.773705
G1 X118.594 Y87.938 E.01579
;WIDTH:0.73247
G1 X118.801 Y87.781 E.0149
;WIDTH:0.691235
G1 X119.009 Y87.624 E.01405
;WIDTH:0.649999
G1 X119.12 Y87.43 E.01128
G1 X119.19 Y87.078 E.01812
G1 X119.176 Y86.921 E.00796
G1 X117.299 Y76.272 E.54584
G1 X119.061 Y76.272 E.08894
G1 X121.867 Y92.182 E.81551
