; generated by PrusaSlicer 2.6.0-rc1+MacOS-arm64 on 2023-06-21 at 01:20:44 UTC


;
;
; 

; external perimeters extrusion width = 0.65mm
; perimeters extrusion width = 0.65mm
; infill extrusion width = 0.65mm
; solid infill extrusion width = 0.65mm
; top infill extrusion width = 0.60mm
; first layer extrusion width = 0.65mm

M73 P0 R17
M73 Q0 S17
M201 X1000 Y1000 Z200 E5000 ; sets maximum accelerations, mm/sec^2
M203 X200 Y200 Z12 E120 ; sets maximum feedrates, mm / sec
M204 S1250 T1250 ; sets acceleration (S) and retract acceleration (R), mm/sec^2
M205 X8.00 Y8.00 Z0.40 E4.50 ; sets the jerk limits, mm/sec
M205 S0 T0 ; sets the minimum extruding and travel feed rate, mm/sec
;TYPE:Custom
M862.3 P "MK3S" ; printer model check
M862.1 P0.6 ; nozzle diameter check
M115 U3.12.2 ; tell printer latest fw version
G90 ; use absolute coordinates
M83 ; extruder relative mode
M104 S230 ; set extruder temp
M140 S85 ; set bed temp
M190 S85 ; wait for bed temp
M109 S230 ; wait for extruder temp
G28 W ; home all without mesh bed level
G80 ; mesh bed leveling

G1 Z0.2 F720
G1 Y-3 F1000 ; go outside print area
G92 E0
G1 X60 E9 F1000 ; intro line
G1 X100 E12.5 F1000 ; intro line

G92 E0
M221 S95
G21 ; set units to millimeters
G90 ; use absolute coordinates
M83 ; use relative distances for extrusion
M900 K0.04 ; Filament gcode LA 1.5
M900 K24 ; Filament gcode LA 1.0
M107
;LAYER_CHANGE
;Z:0.2
;HEIGHT:0.2
;BEFORE_LAYER_CHANGE
G92 E0.0
;0.2


G1 E-1 F2100
G1 Z.2 F720
;AFTER_LAYER_CHANGE
;0.2
G1 Z.4
G1 X111.916 Y61.761 F10800
G1 Z.2 F720
G1 E1 F1500
M204 S800
;TYPE:Skirt/Brim
;WIDTH:0.65
G1 F1200
G1 X113.111 Y60.975 E.0722
G1 X113.891 Y60.856 E.03983
G1 X136.108 Y60.856 E1.12149
G1 X137.483 Y61.248 E.07217
G1 X138.445 Y62.307 E.07222
G1 X138.684 Y63.059 E.03983
G1 X144.653 Y101.411 E1.95927
G1 X144.669 Y104.051 E.13327
G1 X140.833 Y135.223 E1.5854
G1 X140.341 Y137.619 E.12347
M73 P1 R17
M73 Q1 S17
G1 X139.651 Y139.547 E.10337
G1 X138.512 Y141.711 E.12344
G1 X136.79 Y143.974 E.14355
G1 X135.316 Y145.395 E.10335
G1 X133.334 Y146.828 E.12346
G1 X131.156 Y147.942 E.12349
G1 X128.445 Y148.801 E.14355
G1 X126.422 Y149.114 E.10333
G1 X123.976 Y149.144 E.12348
G1 X121.554 Y148.801 E.12348
G1 X118.843 Y147.942 E.14355
G1 X117.009 Y147.033 E.10333
G1 X114.992 Y145.649 E.12348
G1 X112.919 Y143.643 E.14562
G1 X111.487 Y141.711 E.12139
G1 X110.348 Y139.547 E.12344
G1 X109.553 Y137.234 E.12346
G1 X109.138 Y135.049 E.11227
G1 X105.331 Y104.051 E1.5765
G1 X105.376 Y101.063 E.15085
G1 X111.316 Y63.059 E1.94169
G1 X111.879 Y61.843 E.06764
M204 S1000
; printing object flagclip_v4.stl id:0 copy 0
;WIPE_START
G1 F8640
G1 X113.111 Y60.975 E-.34799
G1 X113.891 Y60.856 E-.18219
G1 X115.926 Y60.856 E-.46982
;WIPE_END
G1 Z.4 F720
G1 X109.896 Y103.764 F10800
G1 Z.2 F720
G1 E1 F1500
M204 S800
;TYPE:Perimeter
;WIDTH:0.798713
G1 F1200
G1 X109.907 Y103.869 E.00663
;WIDTH:0.839717
G1 X110.076 Y104.744 E.05904
;WIDTH:0.882392
G1 X110.245 Y105.619 E.06221
G1 X110.396 Y106.252 E.04542
;WIDTH:0.911588
G1 X110.617 Y106.892 E.04891
;WIDTH:0.947005
G1 X110.837 Y107.532 E.05088
G1 X111.138 Y108.3 E.06201
;WIDTH:0.941639
G1 X111.206 Y108.374 E.00751
;WIDTH:0.893033
G1 X111.275 Y108.449 E.0072
;WIDTH:0.844426
G1 X111.343 Y108.524 E.00675
;WIDTH:0.795819
G1 X111.412 Y108.599 E.00638
;WIDTH:0.747213
G1 X111.481 Y108.674 E.00597
;WIDTH:0.698606
G1 X111.549 Y108.749 E.00552
;WIDTH:0.649999
G1 X112.308 Y110.118 E.07902
G1 X113.523 Y111.741 E.10234
G1 X115.14 Y113.358 E.11543
G1 X116.763 Y114.573 E.10234
G1 X118.651 Y115.615 E.10886
G1 X120.793 Y116.415 E.11542
G1 X121.436 Y116.555 E.03322
G1 X115.116 Y131.812 E.83362
G1 X113.512 Y131.148 E.08763
G1 X118.732 Y118.547 E.6885
G1 X118.801 Y118.17 E.01935
M73 Q2 S17
G1 X118.722 Y117.827 E.01777
G1 X118.572 Y117.594 E.01399
G1 X118.339 Y117.406 E.01511
G1 X116.239 Y116.218 E.12179
G1 X114.534 Y114.925 E.10802
M73 P2 R17
G1 X113.016 Y113.417 E.10801
G1 X111.713 Y111.718 E.10808
G1 X110.649 Y109.862 E.10799
G1 X110.415 Y109.287 E.03134
;WIDTH:0.698606
G1 X110.4 Y109.187 E.00551
;WIDTH:0.747213
G1 X110.386 Y109.086 E.00597
;WIDTH:0.795819
G1 X110.371 Y108.986 E.00633
;WIDTH:0.844426
G1 X110.356 Y108.886 E.00674
;WIDTH:0.893033
G1 X110.342 Y108.785 E.00721
;WIDTH:0.941639
G1 X110.327 Y108.685 E.00756
G1 X110.244 Y108.487 E.01604
;WIDTH:0.947005
G1 X109.976 Y107.804 E.05516
G1 X109.789 Y107.153 E.05092
;WIDTH:0.911588
G1 X109.603 Y106.502 E.0489
;WIDTH:0.876171
G1 X109.55 Y106.304 E.0142
;WIDTH:0.882392
G1 X109.418 Y105.758 E.03921
G1 X109.291 Y104.876 E.0622
;WIDTH:0.839717
G1 X109.164 Y103.994 E.05904
;WIDTH:0.798713
G1 X109.107 Y103.342 E.04113
;WIDTH:0.749142
G1 X109.087 Y103.05 E.01719
;WIDTH:0.699571
G1 X109.066 Y102.759 E.01593
;WIDTH:0.649999
G1 X109.093 Y101.485 E.06432
;WIDTH:0.651122
G1 X109.22 Y100.641 E.04316
;WIDTH:0.676274
G1 X109.316 Y100.086 E.02966
;WIDTH:0.679054
G1 X109.422 Y99.409 E.03625
G1 X109.66 Y98.53 E.04817
;WIDTH:0.646277
G1 X109.898 Y97.651 E.04569
;WIDTH:0.61692
G1 X109.991 Y97.348 E.01513
G1 X110.339 Y96.521 E.04282
;WIDTH:0.585008
G1 X110.688 Y95.694 E.04046
;WIDTH:0.558012
G1 X110.833 Y95.378 E.01489
G1 X111.22 Y94.721 E.03266
;WIDTH:0.580816
G1 X111.276 Y94.677 E.00319
;WIDTH:0.63039
G1 X111.332 Y94.634 E.00345
;WIDTH:0.679965
G1 X111.388 Y94.59 E.00377
;WIDTH:0.72954
G1 X111.444 Y94.546 E.00407
;WIDTH:0.779114
G1 X111.5 Y94.502 E.00436
;WIDTH:0.828689
G1 X111.556 Y94.458 E.00465
;WIDTH:0.878263
G1 X111.612 Y94.415 E.0049
;WIDTH:0.927838
G1 X111.668 Y94.371 E.00524
;WIDTH:0.977412
G1 X111.724 Y94.327 E.00553
G1 X111.715 Y94.397 E.00548
;WIDTH:0.927838
G1 X111.706 Y94.468 E.00527
;WIDTH:0.878263
G1 X111.697 Y94.539 E.00497
;WIDTH:0.828689
G1 X111.689 Y94.609 E.0046
;WIDTH:0.779114
G1 X111.68 Y94.68 E.00438
;WIDTH:0.72954
G1 X111.671 Y94.75 E.00403
;WIDTH:0.679965
G1 X111.662 Y94.821 E.00379
;WIDTH:0.63039
G1 X111.654 Y94.891 E.00344
;WIDTH:0.580816
G1 X111.645 Y94.962 E.0032
;WIDTH:0.553095
G1 X111.161 Y95.884 E.04417
;WIDTH:0.585008
G1 X110.842 Y96.722 E.04042
;WIDTH:0.61692
G1 X110.451 Y97.79 E.05428
;WIDTH:0.646277
G1 X110.245 Y98.677 E.04568
;WIDTH:0.679054
G1 X110.039 Y99.564 E.04817
G1 X109.946 Y100.126 E.03013
;WIDTH:0.676274
G1 X110.054 Y100.509 E.02096
;WIDTH:0.651122
G1 X110.394 Y100.879 E.02541
;WIDTH:0.649999
G1 X110.51 Y100.939 E.00659
G1 X110.869 Y101.013 E.0185
G1 X115.367 Y101.013 E.22705
G1 X115.675 Y100.96 E.01578
G1 X115.898 Y100.844 E.01269
G1 X116.066 Y100.689 E.01154
G1 X116.245 Y100.351 E.01931
G1 X116.679 Y98.824 E.08013
G1 X117.233 Y97.608 E.06745
G1 X117.963 Y96.49 E.0674
G1 X118.852 Y95.494 E.06739
G1 X120.145 Y94.412 E.08511
G1 X120.348 Y94.032 E.02175
G1 X120.363 Y93.647 E.01945
G1 X119.539 Y88.974 E.23953
G1 X119.349 Y88.558 E.02309
G1 X119.186 Y88.401 E.01142
G1 X118.766 Y88.231 E.02287
;WIDTH:0.646992
G1 X118.499 Y88.293 E.01377
;WIDTH:0.617177
G1 X118.233 Y88.354 E.01303
G1 X118.489 Y88.236 E.01346
;WIDTH:0.646992
G1 X118.745 Y88.117 E.01418
;WIDTH:0.649999
G1 X119.082 Y87.814 E.02288
G1 X119.182 Y87.611 E.01142
G1 X119.232 Y87.312 E.0153
G1 X119.219 Y87.155 E.00795
G1 X118.264 Y81.76 E.27657
G1 X120.568 Y84.809 E.19291
G1 X121.868 Y92.182 E.37792
G1 X121.868 Y95.52 E.1685
G1 X121.049 Y95.951 E.04672
G1 X120.019 Y96.802 E.06744
G1 X119.788 Y97.025 E.01621
G1 X118.811 Y98.361 E.08355
G1 X118.319 Y99.484 E.06189
G1 X118.169 Y99.888 E.02175
G1 X117.985 Y100.899 E.05187
G1 X117.897 Y101.521 E.03171
G1 X117.975 Y102.964 E.07295
G1 X118.011 Y103.173 E.01071
G1 X118.413 Y104.536 E.07173
G1 X118.504 Y104.754 E.01192
G1 X118.963 Y105.555 E.0466
G1 X119.348 Y106.178 E.03697
G1 X120.337 Y107.231 E.07292
G1 X120.5 Y107.368 E.01075
G1 X121.576 Y108.078 E.06507
G1 X121.895 Y108.259 E.01851
G1 X122.637 Y108.53 E.03988
G1 X123.458 Y108.804 E.04369
G1 X124.894 Y108.972 E.07298
G1 X125.106 Y108.972 E.0107
G1 X126.252 Y108.838 E.05824
G1 X126.747 Y108.755 E.02534
G1 X128.239 Y108.185 E.08062
G1 X129.494 Y107.372 E.07548
G1 X129.662 Y107.231 E.01107
G1 X130.36 Y106.488 E.05146
G1 X130.777 Y106.007 E.03213
G1 X131.579 Y104.559 E.08356
G1 X131.988 Y103.173 E.07295
G1 X132.024 Y102.964 E.01071
G1 X132.086 Y101.813 E.05819
G1 X132.089 Y101.309 E.02544
G1 X131.768 Y99.685 E.08356
G1 X131.198 Y98.382 E.07179
G1 X131.081 Y98.178 E.01187
G1 X130.064 Y96.872 E.08356
G1 X128.951 Y95.951 E.07292
G1 X128.773 Y95.836 E.0107
G1 X128.132 Y95.52 E.03608
G1 X128.132 Y92.182 E.1685
G1 X130.806 Y77.016 E.77737
G1 X131.051 Y75.407 E.08216
G1 X131.042 Y75.084 E.01631
G1 X130.978 Y74.888 E.01041
G1 X130.819 Y74.726 E.01146
G1 X131.016 Y74.615 E.01141
G1 X131.133 Y74.444 E.01046
G1 X131.213 Y74.234 E.01134
G1 X131.495 Y73.073 E.06031
G1 X132.501 Y67.4 E.29083
G1 X132.479 Y66.987 E.02088
G1 X132.302 Y66.656 E.01895
G1 X132.007 Y66.424 E.01894
G1 X131.605 Y66.331 E.02083
G1 X128.842 Y66.335 E.13947
G1 X127.555 Y66.413 E.06509
G1 X127.151 Y66.537 E.02133
G1 X126.92 Y66.73 E.01519
G1 X126.812 Y66.965 E.01306
G1 X126.555 Y66.768 E.01635
G1 X126.246 Y66.609 E.01754
G1 X125.627 Y66.399 E.033
G1 X124.889 Y66.336 E.03739
G1 X124.151 Y66.455 E.03773
G1 X123.667 Y66.644 E.02623
G1 X123.187 Y66.965 E.02915
G1 X123.078 Y66.728 E.01317
G1 X122.89 Y66.562 E.01266
G1 X122.444 Y66.413 E.02374
G1 X121.212 Y66.337 E.06231
G1 X118.396 Y66.331 E.14215
G1 X117.992 Y66.424 E.02093
G1 X117.697 Y66.656 E.01894
G1 X117.52 Y66.987 E.01895
G1 X117.498 Y67.4 E.02088
G1 X118.504 Y73.073 E.29083
G1 X118.815 Y74.329 E.06532
G1 X118.989 Y74.622 E.0172
G1 X119.177 Y74.727 E.01087
G1 X119.026 Y74.88 E.01085
G1 X118.959 Y75.077 E.0105
G1 X118.947 Y75.398 E.01622
G1 X119.111 Y76.538 E.05814
G1 X119.374 Y78.008 E.07538
G1 X117.099 Y75.133 E.18507
G1 X115.241 Y64.595 E.54015
G1 X134.759 Y64.595 E.98525
G1 X130.781 Y87.155 E1.15637
G1 X130.767 Y87.312 E.00796
M73 P3 R17
M73 Q3 S17
G1 X130.817 Y87.611 E.0153
G1 X130.917 Y87.814 E.01142
G1 X131.254 Y88.118 E.02291
;WIDTH:0.646977
G1 X131.51 Y88.236 E.01416
;WIDTH:0.617182
G1 X131.767 Y88.354 E.0135
G1 X131.5 Y88.293 E.01308
;WIDTH:0.646977
G1 X131.234 Y88.231 E.01372
;WIDTH:0.649999
G1 X130.814 Y88.401 E.02287
G1 X130.65 Y88.558 E.01146
G1 X130.46 Y88.974 E.02309
G1 X129.636 Y93.647 E.23953
G1 X129.636 Y93.962 E.0159
G1 X129.813 Y94.362 E.02208
G1 X129.953 Y94.507 E.01017
G1 X131.147 Y95.494 E.0782
G1 X132.037 Y96.49 E.06742
G1 X132.767 Y97.608 E.0674
G1 X133.32 Y98.824 E.06743
G1 X133.754 Y100.351 E.08013
G1 X133.868 Y100.6 E.01382
G1 X134.004 Y100.763 E.01072
G1 X134.324 Y100.96 E.01897
G1 X134.63 Y101.013 E.01568
G1 X139.13 Y101.013 E.22715
G1 X139.322 Y100.993 E.00974
G1 X139.606 Y100.879 E.01545
;WIDTH:0.651144
G1 X139.945 Y100.509 E.02538
;WIDTH:0.67673
G1 X140.054 Y100.126 E.02099
;WIDTH:0.679503
G1 X139.961 Y99.564 E.03015
G1 X139.755 Y98.677 E.0482
;WIDTH:0.646719
G1 X139.548 Y97.79 E.04573
;WIDTH:0.617349
G1 X139.157 Y96.722 E.05432
;WIDTH:0.585423
G1 X138.838 Y95.884 E.04045
;WIDTH:0.558403
G1 X138.35 Y94.953 E.04505
;WIDTH:0.580818
G1 X138.341 Y94.882 E.0032
;WIDTH:0.630391
G1 X138.332 Y94.811 E.0035
;WIDTH:0.679964
G1 X138.323 Y94.741 E.00374
;WIDTH:0.729536
G1 X138.315 Y94.67 E.00408
;WIDTH:0.779109
G1 X138.306 Y94.6 E.00432
;WIDTH:0.828682
G1 X138.297 Y94.529 E.00468
;WIDTH:0.878255
G1 X138.288 Y94.459 E.0049
;WIDTH:0.927828
G1 X138.279 Y94.388 E.00527
;WIDTH:0.9774
G1 X138.271 Y94.318 E.00547
G1 X138.327 Y94.362 E.00553
;WIDTH:0.927828
G1 X138.383 Y94.405 E.0052
;WIDTH:0.878255
G1 X138.439 Y94.449 E.00495
;WIDTH:0.828682
G1 X138.495 Y94.493 E.00465
;WIDTH:0.779109
G1 X138.551 Y94.537 E.00436
;WIDTH:0.729536
G1 X138.606 Y94.581 E.00402
;WIDTH:0.679964
G1 X138.662 Y94.624 E.00374
;WIDTH:0.630391
G1 X138.718 Y94.668 E.00348
;WIDTH:0.580818
G1 X138.774 Y94.712 E.00319
;WIDTH:0.558403
G1 X139.167 Y95.377 E.03311
G1 X139.312 Y95.694 E.01494
;WIDTH:0.585423
G1 X139.66 Y96.521 E.04047
;WIDTH:0.617349
G1 X140.009 Y97.347 E.04283
G1 X140.101 Y97.651 E.01517
;WIDTH:0.646719
G1 X140.34 Y98.53 E.04573
;WIDTH:0.679503
G1 X140.578 Y99.409 E.0482
G1 X140.684 Y100.086 E.03627
;WIDTH:0.67673
G1 X140.78 Y100.641 E.02968
;WIDTH:0.651144
G1 X140.916 Y101.6 E.04899
;WIDTH:0.649999
G1 X140.934 Y102.759 E.05851
;WIDTH:0.699168
G1 X140.901 Y103.171 E.02255
;WIDTH:0.748337
G1 X140.869 Y103.583 E.02424
;WIDTH:0.797505
G1 X140.836 Y103.995 E.02593
;WIDTH:0.840173
G1 X140.709 Y104.876 E.05901
;WIDTH:0.882841
G1 X140.572 Y105.813 E.06614
G1 X140.397 Y106.502 E.04965
;WIDTH:0.912018
G1 X140.211 Y107.153 E.04893
;WIDTH:0.947424
G1 X140.005 Y107.861 E.05546
G1 X139.673 Y108.685 E.06681
;WIDTH:0.942043
G1 X139.659 Y108.784 E.00748
;WIDTH:0.893369
G1 X139.644 Y108.884 E.00715
;WIDTH:0.844695
G1 X139.63 Y108.983 E.00667
;WIDTH:0.796021
G1 X139.616 Y109.082 E.00626
;WIDTH:0.747347
G1 X139.602 Y109.182 E.00591
;WIDTH:0.698673
G1 X139.588 Y109.281 E.00545
;WIDTH:0.649999
G1 X139.351 Y109.862 E.03167
G1 X138.287 Y111.719 E.10804
G1 X136.984 Y113.417 E.10804
G1 X135.466 Y114.926 E.10805
G1 X133.76 Y116.218 E.10803
G1 X131.661 Y117.406 E.12175
G1 X131.428 Y117.594 E.01511
G1 X131.277 Y117.827 E.01402
G1 X131.199 Y118.17 E.01776
G1 X131.268 Y118.547 E.01935
G1 X137.208 Y132.889 E.7836
G1 X137.145 Y134.602 E.08653
G1 X136.791 Y136.441 E.09453
G1 X136.16 Y138.205 E.09457
G1 X135.267 Y139.852 E.09457
G1 X134.132 Y141.342 E.09455
G1 X132.784 Y142.642 E.09453
G1 X131.252 Y143.721 E.09459
G1 X129.573 Y144.553 E.09459
G1 X127.788 Y145.119 E.09453
G1 X125.936 Y145.405 E.09459
G1 X124.063 Y145.405 E.09455
G1 X122.212 Y145.119 E.09455
G1 X120.426 Y144.553 E.09457
G1 X118.747 Y143.721 E.09459
G1 X117.216 Y142.642 E.09455
G1 X115.867 Y141.342 E.09457
G1 X114.733 Y139.852 E.09452
G1 X113.839 Y138.205 E.0946
G1 X113.208 Y136.441 E.09457
G1 X112.856 Y134.611 E.09407
G1 X112.847 Y134.405 E.01041
G1 X114.349 Y135.028 E.08208
G1 X114.596 Y136.242 E.06254
G1 X115.27 Y137.985 E.09433
G1 X116.234 Y139.585 E.09429
G1 X117.459 Y140.997 E.09436
G1 X118.908 Y142.177 E.09433
G1 X120.395 Y143.024 E.08638
G1 X122.149 Y143.67 E.09435
G1 X123.987 Y144.004 E.0943
G1 X124.144 Y144.018 E.00796
G1 X126.012 Y144.004 E.0943
G1 X127.851 Y143.67 E.09435
G1 X129.604 Y143.024 E.09431
G1 X131.221 Y142.087 E.09434
G1 X132.653 Y140.887 E.09431
G1 X133.857 Y139.458 E.09432
G1 X134.729 Y137.985 E.08641
G1 X134.797 Y137.843 E.00795
G1 X135.446 Y136.092 E.09426
G1 X135.793 Y134.225 E.09586
G1 X135.725 Y133.843 E.01959
G1 X128.564 Y116.555 E.94458
G1 X129.331 Y116.378 E.03973
G1 X131.348 Y115.615 E.10886
G1 X133.237 Y114.573 E.1089
G1 X134.956 Y113.275 E.10873
G1 X136.476 Y111.741 E.10901
G1 X137.762 Y110.009 E.10889
G1 X138.454 Y108.743 E.07283
;WIDTH:0.698673
G1 X138.522 Y108.669 E.00548
;WIDTH:0.747347
G1 X138.59 Y108.595 E.00589
;WIDTH:0.796021
G1 X138.658 Y108.521 E.00629
;WIDTH:0.844695
G1 X138.726 Y108.447 E.0067
;WIDTH:0.893369
G1 X138.794 Y108.374 E.00705
;WIDTH:0.942043
G1 X138.862 Y108.3 E.00751
G1 X138.922 Y108.162 E.01125
;WIDTH:0.947424
G1 X139.383 Y106.892 E.10161
;WIDTH:0.912018
G1 X139.603 Y106.252 E.04891
;WIDTH:0.876612
G1 X139.643 Y106.112 E.01009
;WIDTH:0.882841
G1 X139.924 Y104.744 E.09754
;WIDTH:0.840173
G1 X140.093 Y103.869 E.05908
;WIDTH:0.799177
G1 X140.116 Y103.645 E.01416
G1 X140.032 Y103.47 E.01221
;WIDTH:0.749451
G1 X139.948 Y103.295 E.0114
;WIDTH:0.699725
G1 X139.864 Y103.119 E.01065
;WIDTH:0.649999
G1 X139.49 Y102.823 E.02408
G1 X139.131 Y102.749 E.0185
G1 X134.632 Y102.749 E.2271
G1 X134.325 Y102.802 E.01573
G1 X134.102 Y102.919 E.01271
G1 X133.759 Y103.402 E.0299
G1 X133.255 Y105.107 E.08975
G1 X132.585 Y106.467 E.07653
G1 X131.693 Y107.692 E.07649
G1 X130.606 Y108.747 E.07646
G1 X129.354 Y109.602 E.07653
M73 Q4 S17
G1 X127.975 Y110.23 E.07649
M73 P4 R17
G1 X126.51 Y110.615 E.07646
G1 X125 Y110.745 E.0765
G1 X123.49 Y110.615 E.0765
G1 X122.024 Y110.23 E.07651
G1 X120.645 Y109.602 E.07649
G1 X119.394 Y108.747 E.07649
G1 X118.306 Y107.692 E.0765
G1 X117.414 Y106.467 E.07649
G1 X116.744 Y105.107 E.07653
G1 X116.218 Y103.336 E.09326
G1 X115.897 Y102.919 E.02656
G1 X115.674 Y102.802 E.01271
G1 X115.368 Y102.749 E.01568
G1 X110.869 Y102.749 E.2271
G1 X110.509 Y102.823 E.01855
G1 X110.135 Y103.119 E.02408
;WIDTH:0.699571
