; generated by PrusaSlicer 2.4.2+arm64 on 2022-07-24 at 03:16:41 UTC


;
;
; 

; external perimeters extrusion width = 0.45mm
; perimeters extrusion width = 0.45mm
; infill extrusion width = 0.45mm
; solid infill extrusion width = 0.45mm
; top infill extrusion width = 0.40mm
; first layer extrusion width = 0.42mm

M73 P0 R22
M73 Q0 S22
M201 X1000 Y1000 Z200 E5000 ; sets maximum accelerations, mm/sec^2
M203 X200 Y200 Z12 E120 ; sets maximum feedrates, mm / sec
M204 P1250 R1250 T1250 ; sets acceleration (P, T) and retract acceleration (R), mm/sec^2
M205 X8.00 Y8.00 Z0.40 E4.50 ; sets the jerk limits, mm/sec
M205 S0 T0 ; sets the minimum extruding and travel feed rate, mm/sec
M107
;TYPE:Custom
M862.3 P "MK3S" ; printer model check
M862.1 P0.4 ; nozzle diameter check
M115 U3.11.0 ; tell printer latest fw version
G90 ; use absolute coordinates
M83 ; extruder relative mode
M104 S230 ; set extruder temp
M140 S85 ; set bed temp
M190 S85 ; wait for bed temp
M109 S230 ; wait for extruder temp
G28 W ; home all without mesh bed level
G80 ; mesh bed leveling
G1 Z0.2 F720
G1 Y-3 F1000 ; go outside print area
G92 E0
G1 X60 E9 F1000 ; intro line
G1 X100 E12.5 F1000 ; intro line
G92 E0
M221 S95

; Don't change E values below. Excessive value can damage the printer.
M907 E430 ; set extruder motor current
G21 ; set units to millimeters
G90 ; use absolute coordinates
M83 ; use relative distances for extrusion
M900 K0.08 ; Filament gcode LA 1.5
M900 K45 ; Filament gcode LA 1.0
M107
;LAYER_CHANGE
;Z:0.2
;HEIGHT:0.2
;BEFORE_LAYER_CHANGE
G92 E0.0
;0.2


G1 E-1 F2100
G1 Z.2 F720
;AFTER_LAYER_CHANGE
;0.2
G1 Z.4
G1 X111.32 Y87.134 F10800
G1 Z.2 F720
G1 E1 F2100
M204 S800
;TYPE:Skirt/Brim
;WIDTH:0.42
G1 F1200
G1 X116.718 Y80.776 E.26151
G1 X118.035 Y79.99 E.04809
G1 X120.969 Y79.365 E.09406
G1 X121.464 Y79.312 E.01561
G1 X129.043 Y79.365 E.23763
G1 X131.977 Y79.99 E.09406
G1 X133.293 Y80.775 E.04806
G1 X138.376 Y86.757 E.24612
G1 X139.646 Y88.421 E.06565
G1 X140.538 Y89.889 E.05385
G1 X141.385 Y91.683 E.0622
G1 X142.095 Y93.818 E.07055
G1 X142.451 Y95.498 E.05385
G1 X142.657 Y97.471 E.0622
G1 X142.621 Y99.721 E.07055
G1 X142.352 Y101.687 E.0622
G1 X141.927 Y103.418 E.05588
G1 X136.875 Y121.823 E.59842
G1 X136.284 Y123.404 E.05293
G1 X135.424 Y124.99 E.05656
G1 X134.343 Y126.434 E.05656
G1 X133.063 Y127.705 E.05656
G1 X131.612 Y128.777 E.05656
G1 X130.021 Y129.626 E.05656
G1 X128.323 Y130.235 E.05656
G1 X126.555 Y130.591 E.05656
G1 X124.407 Y130.674 E.06739
G1 X122.617 Y130.456 E.05656
G1 X120.877 Y129.979 E.05656
G1 X119.534 Y129.412 E.04571
G1 X117.978 Y128.499 E.05656
G1 X116.572 Y127.369 E.05656
G1 X115.346 Y126.046 E.05656
G1 X114.154 Y124.257 E.06739
G1 X113.53 Y122.94 E.04572
G1 X112.98 Y121.222 E.05656
G1 X107.994 Y103.101 E.58928
G1 X107.613 Y101.443 E.05333
G1 X107.393 Y99.757 E.05333
G1 X107.336 Y98.057 E.05333
M73 Q1 S22
G1 X107.419 Y96.587 E.04616
G1 X107.667 Y94.905 E.05333
G1 X108.075 Y93.254 E.05333
M73 P1 R22
G1 X108.728 Y91.438 E.06049
G1 X109.464 Y89.905 E.05333
G1 X110.345 Y88.45 E.05333
G1 X111.284 Y87.182 E.04949
M204 S1000
; printing object flagclip_v2.stl id:0 copy 0
;WIPE_START
G1 F8640
G1 X113.946 Y84.044 E-.95
;WIPE_END
G1 E-.05 F2100
G1 Z.4 F720
G1 X127.928 Y93.263 F10800
G1 Z.2 F720
G1 E1 F2100
M204 S800
;TYPE:External perimeter
G1 F1200
G1 X128.482 Y92.912 E.02056
G1 X129.412 Y93.659 E.03741
G1 X130.108 Y94.434 E.03266
G1 X130.669 Y95.311 E.03266
G1 X131.081 Y96.268 E.03266
G1 X131.333 Y97.278 E.03266
G1 X131.453 Y98.756 E.04648
G1 X126.678 Y97.068 E.15881
G1 X127.524 Y96.104 E.04021
G1 X127.836 Y95.552 E.01989
G1 X128.029 Y94.947 E.01989
G1 X128.095 Y94.305 E.02025
G1 X128.082 Y94.028 E.00869
G1 X128.042 Y93.742 E.00905
G1 X127.941 Y93.321 E.01357
M204 S1000
G1 X127.756 Y92.901 F10800
;WIPE_START
G1 F8640
G1 X128.482 Y92.912 E-.15644
G1 X129.412 Y93.659 E-.27548
G1 X130.108 Y94.434 E-.24049
G1 X130.669 Y95.311 E-.24049
G1 X130.733 Y95.459 E-.03711
;WIPE_END
G1 E-.05 F2100
G1 Z.4 F720
G1 X122.093 Y93.148 F10800
G1 Z.2 F720
G1 E1 F2100
M204 S800
G1 F1200
G1 X121.924 Y94.132 E.03133
G1 X121.958 Y94.811 E.02133
G1 X122.141 Y95.467 E.02133
G1 X122.462 Y96.066 E.02132
G1 X123.33 Y97.07 E.04159
G1 X118.562 Y98.755 E.15854
G1 X118.631 Y97.647 E.03481
G1 X118.735 Y96.988 E.02091
G1 X118.843 Y96.552 E.01406
G1 X118.982 Y96.126 E.01406
G1 X119.242 Y95.512 E.02089
G1 X119.452 Y95.116 E.01406
G1 X119.689 Y94.736 E.01406
G1 X120.089 Y94.203 E.02089
G1 X120.389 Y93.869 E.01406
G1 X120.711 Y93.557 E.01407
G1 X121.234 Y93.134 E.0211
G1 X121.631 Y92.855 E.01519
G1 X122.042 Y93.115 E.01527
M204 S1000
G1 X122.49 Y93.195 F10800
;WIPE_START
G1 F8640
G1 X121.924 Y94.132 E-.23636
G1 X121.958 Y94.811 E-.15704
G1 X122.141 Y95.467 E-.15705
G1 X122.462 Y96.066 E-.15704
G1 X123.149 Y96.861 E-.2425
;WIPE_END
G1 E-.05 F2100
G1 Z.4 F720
G1 X133.715 Y95.029 F10800
G1 Z.2 F720
G1 E1 F2100
M204 S800
;TYPE:Perimeter
G1 F1200
G1 X137.424 Y95.029 E.11629
G1 X137.757 Y97.329 E.07286
G1 X137.775 Y99.024 E.05313
G1 X137.57 Y100.705 E.05313
G1 X137.144 Y102.345 E.05313
G1 X136.504 Y103.915 E.05313
G1 X135.462 Y105.738 E.06587
G1 X134.219 Y105.408 E.04032
G1 X134.219 Y98.333 E.22184
G1 X134.186 Y97.541 E.02484
G1 X134.088 Y96.772 E.02432
G1 X133.728 Y95.088 E.05399
M204 S1000
G1 X134.182 Y95.406 F10800
M204 S800
;TYPE:External perimeter
G1 F1200
G1 X137.098 Y95.406 E.09143
G1 X137.38 Y97.358 E.06184
G1 X137.398 Y99.003 E.05156
G1 X137.198 Y100.635 E.05156
G1 X136.785 Y102.226 E.05156
G1 X136.165 Y103.749 E.05156
G1 X135.278 Y105.3 E.05599
G1 X134.596 Y105.118 E.02213
G1 X134.596 Y98.325 E.21299
G1 X134.562 Y97.51 E.02559
G1 X134.46 Y96.709 E.02532
G1 X134.194 Y95.465 E.03987
M204 S1000
G1 X134.158 Y95.007 F10800
;WIPE_START
G1 F8640
G1 X137.098 Y95.406 E-.67058
G1 X137.271 Y96.604 E-.27942
;WIPE_END
G1 E-.05 F2100
G1 Z.4 F720
G1 X116.297 Y95.029 F10800
G1 Z.2 F720
G1 E1 F2100
M204 S800
;TYPE:Perimeter
G1 F1200
G1 X115.924 Y96.772 E.05587
G1 X115.826 Y97.541 E.02432
G1 X115.793 Y98.333 E.02484
G1 X115.793 Y105.409 E.22185
G1 X114.564 Y105.746 E.03997
G1 X113.7 Y104.292 E.05302
G1 X113.163 Y103.14 E.03986
G1 X112.742 Y101.941 E.03986
G1 X112.443 Y100.705 E.03986
G1 X112.268 Y99.446 E.03986
G1 X112.219 Y98.176 E.03986
G1 X112.296 Y96.907 E.03986
G1 X112.599 Y95.029 E.05964
G1 X116.237 Y95.029 E.11405
M204 S1000
G1 X115.83 Y95.406 F10800
M204 S800
;TYPE:External perimeter
G1 F1200
G1 X115.552 Y96.709 E.04175
G1 X115.45 Y97.51 E.02532
G1 X115.416 Y98.325 E.02559
G1 X115.416 Y105.121 E.21309
G1 X114.741 Y105.307 E.02195
G1 X114.034 Y104.116 E.04342
G1 X113.512 Y102.998 E.03868
G1 X113.104 Y101.834 E.03868
G1 X112.814 Y100.635 E.03868
G1 X112.644 Y99.413 E.03868
G1 X112.596 Y98.18 E.03868
G1 X112.671 Y96.949 E.03868
G1 X112.92 Y95.406 E.04899
G1 X115.77 Y95.406 E.08937
M204 S1000
G1 X116.23 Y95.402 F10800
;WIPE_START
G1 F8640
G1 X115.552 Y96.709 E-.30489
G1 X115.45 Y97.51 E-.18644
G1 X115.416 Y98.325 E-.18845
G1 X115.416 Y99.495 E-.27022
;WIPE_END
G1 E-.05 F2100
G1 Z.4 F720
G1 X122.507 Y92.963 F10800
G1 Z.2 F720
G1 E1 F2100
M204 S800
;TYPE:Perimeter
G1 F1200
G1 X121.62 Y92.402 E.03293
G1 X121.007 Y92.832 E.02349
G1 X120.461 Y93.275 E.02203
G1 X120.117 Y93.608 E.015
G1 X119.798 Y93.963 E.01499
G1 X119.378 Y94.522 E.02192
G1 X119.125 Y94.928 E.01499
G1 X118.901 Y95.35 E.01499
G1 X118.628 Y95.994 E.02192
G1 X118.481 Y96.449 E.01499
G1 X118.365 Y96.913 E.01499
G1 X118.256 Y97.605 E.02199
G1 X118.151 Y99.3 E.05324
G1 X118.219 Y99.276 E.00227
G1 X118.219 Y113.991 E.46138
G1 X116.107 Y116.11 E.09379
G1 X115.746 Y116.521 E.01717
G1 X115.789 Y115.853 E.021
G1 X115.793 Y109.555 E.19746
G1 X114.51 Y108.333 E.05556
G1 X113.595 Y107.278 E.04378
G1 X112.787 Y106.14 E.04378
G1 X112.091 Y104.929 E.04378
G1 X111.516 Y103.657 E.04377
G1 X111.058 Y102.309 E.04463
G1 X110.743 Y100.976 E.04295
G1 X110.553 Y99.593 E.04378
G1 X110.497 Y98.198 E.04378
G1 X110.576 Y96.803 E.04378
G1 X110.788 Y95.423 E.04378
G1 X111.132 Y94.07 E.04378
G1 X111.605 Y92.756 E.04378
G1 X112.201 Y91.493 E.04378
G1 X112.916 Y90.294 E.04378
G1 X113.744 Y89.169 E.04378
G1 X114.675 Y88.129 E.04378
G1 X115.702 Y87.183 E.04378
G1 X116.816 Y86.34 E.04378
G1 X118.005 Y85.608 E.04378
G1 X119.845 Y84.707 E.06423
G1 X119.464 Y82.92 E.05729
M73 Q2 S22
G1 X120.858 Y82.623 E.04471
G1 X121.58 Y86.011 E.1086
G1 X121.127 Y86.131 E.01469
M73 P2 R22
G1 X119.95 Y86.57 E.0394
G1 X118.821 Y87.123 E.0394
G1 X117.752 Y87.785 E.0394
G1 X116.754 Y88.547 E.0394
G1 X115.835 Y89.405 E.0394
G1 X115.004 Y90.348 E.0394
G1 X114.27 Y91.368 E.0394
G1 X113.432 Y92.815 E.05245
G1 X113.886 Y93.604 E.02852
G1 X117.043 Y93.604 E.099
G1 X118.103 Y92.218 E.05469
G1 X119.03 Y91.307 E.04075
G1 X120.076 Y90.536 E.04075
G1 X121.22 Y89.92 E.04075
G1 X122.439 Y89.47 E.04075
G1 X123.71 Y89.197 E.04075
G1 X125.006 Y89.105 E.04075
G1 X126.302 Y89.197 E.04075
G1 X127.573 Y89.47 E.04075
G1 X128.792 Y89.92 E.04075
G1 X129.936 Y90.536 E.04075
G1 X130.982 Y91.307 E.04075
G1 X131.909 Y92.218 E.04075
G1 X132.969 Y93.604 E.05468
G1 X136.13 Y93.604 E.09912
G1 X136.582 Y92.806 E.02876
G1 X135.543 Y91.069 E.06347
G1 X134.545 Y89.798 E.05065
G1 X133.395 Y88.664 E.05065
G1 X132.111 Y87.683 E.05065
G1 X130.714 Y86.872 E.05065
G1 X129.226 Y86.244 E.05065
G1 X128.43 Y86.021 E.02592
G1 X129.153 Y82.623 E.10893
G1 X130.548 Y82.92 E.04471
G1 X130.168 Y84.702 E.05713
G1 X132.21 Y85.723 E.07156
G1 X133.576 Y86.609 E.05107
G1 X134.834 Y87.644 E.05107
G1 X135.969 Y88.813 E.05107
G1 X136.965 Y90.101 E.05107
G1 X137.81 Y91.494 E.05107
G1 X138.494 Y92.972 E.05107
G1 X139.008 Y94.517 E.05107
G1 X139.346 Y96.111 E.05107
G1 X139.503 Y97.732 E.05107
G1 X139.477 Y99.361 E.05107
G1 X139.269 Y100.976 E.05107
G1 X138.881 Y102.558 E.05107
G1 X138.318 Y104.087 E.05107
G1 X137.587 Y105.542 E.05107
G1 X136.698 Y106.907 E.05107
G1 X135.661 Y108.163 E.05107
G1 X134.219 Y109.559 E.06292
G1 X134.219 Y118.288 E.2737
G1 X134.119 Y119.656 E.04301
G1 X133.827 Y120.967 E.04211
G1 X133.356 Y122.201 E.04144
G1 X132.691 Y123.393 E.04278
G1 X131.872 Y124.456 E.04209
G1 X130.906 Y125.39 E.04211
G1 X129.815 Y126.172 E.04211
G1 X128.621 Y126.788 E.04211
G1 X127.351 Y127.224 E.04211
G1 X126.031 Y127.47 E.04211
G1 X124.689 Y127.522 E.04211
G1 X123.354 Y127.378 E.04211
G1 X122.054 Y127.041 E.04211
G1 X120.816 Y126.519 E.04211
G1 X119.668 Y125.823 E.04211
G1 X118.633 Y124.967 E.04211
G1 X117.734 Y123.97 E.04211
G1 X116.989 Y122.852 E.04211
G1 X116.415 Y121.638 E.04211
G1 X116.023 Y120.354 E.04211
G1 X115.873 Y119.362 E.03146
G1 X117.917 Y117.31 E.0908
G1 X118.256 Y116.927 E.01605
G1 X118.225 Y117.38 E.01424
G1 X118.219 Y118.349 E.03038
G1 X118.319 Y119.496 E.03609
G1 X118.625 Y120.639 E.03711
G1 X119.126 Y121.711 E.03711
G1 X119.804 Y122.681 E.03711
G1 X120.641 Y123.518 E.03711
G1 X121.611 Y124.197 E.03711
G1 X122.684 Y124.697 E.03711
G1 X123.827 Y125.003 E.03711
G1 X125.006 Y125.107 E.03711
G1 X126.185 Y125.003 E.03711
G1 X127.328 Y124.697 E.03711
G1 X128.401 Y124.197 E.03711
G1 X129.371 Y123.518 E.03711
G1 X130.207 Y122.681 E.03711
G1 X130.886 Y121.711 E.03711
G1 X131.387 Y120.639 E.03711
G1 X131.693 Y119.496 E.03711
G1 X131.793 Y118.351 E.03603
G1 X131.793 Y99.276 E.59808
G1 X131.876 Y99.305 E.00277
G1 X131.706 Y97.217 E.06569
G1 X131.44 Y96.147 E.03458
G1 X131.003 Y95.134 E.03458
G1 X130.409 Y94.205 E.03458
G1 X129.672 Y93.384 E.03458
G1 X128.508 Y92.45 E.04681
G1 X127.498 Y93.088 E.03745
G1 X127.671 Y93.812 E.02334
G1 X127.717 Y94.294 E.01518
G1 X127.658 Y94.87 E.01815
G1 X127.488 Y95.4 E.01745
G1 X127.215 Y95.885 E.01745
M73 P2 R21
G1 X126.118 Y97.134 E.05211
G1 X126.068 Y96.72 E.01306
G1 X126.489 Y96.504 E.01485
G1 X126.973 Y96.081 E.02015
G1 X127.341 Y95.554 E.02015
G1 X127.571 Y94.954 E.02015
G1 X127.649 Y94.317 E.02014
G1 X127.572 Y93.682 E.02004
G1 X127.344 Y93.085 E.02003
G1 X126.981 Y92.56 E.02003
G1 X126.502 Y92.137 E.02003
G1 X125.935 Y91.842 E.02003
G1 X125.314 Y91.692 E.02003
G1 X124.675 Y91.694 E.02003
G1 X124.056 Y91.85 E.02003
G1 X123.492 Y92.15 E.02003
G1 X123.016 Y92.577 E.02003
G1 X122.657 Y93.105 E.02003
G1 X122.435 Y93.704 E.02003
G1 X122.363 Y94.339 E.02003
G1 X122.446 Y94.973 E.02003
G1 X122.678 Y95.568 E.02003
G1 X123.046 Y96.09 E.02003
G1 X123.529 Y96.508 E.02003
G1 X123.944 Y96.72 E.01461
G1 X123.892 Y97.144 E.01339
G1 X122.775 Y95.851 E.05358
G1 X122.493 Y95.325 E.0187
G1 X122.333 Y94.751 E.01871
G1 X122.303 Y94.155 E.0187
G1 X122.497 Y93.023 E.03602
M204 S1000
;WIPE_START
G1 F8640
G1 X121.62 Y92.402 E-.24814
G1 X121.007 Y92.832 E-.17298
G1 X120.461 Y93.275 E-.16224
G1 X120.117 Y93.608 E-.11045
G1 X119.798 Y93.963 E-.1104
G1 X119.419 Y94.468 E-.14578
;WIPE_END
G1 E-.05 F2100
G1 Z.4 F720
G1 X130.598 Y84.496 F10800
G1 Z.2 F720
G1 E1 F2100
M204 S800
;TYPE:External perimeter
G1 F1200
G1 X132.397 Y85.395 E.06307
G1 X133.799 Y86.305 E.0524
G1 X135.09 Y87.366 E.0524
G1 X136.254 Y88.565 E.0524
G1 X137.276 Y89.888 E.0524
G1 X138.144 Y91.316 E.0524
G1 X138.846 Y92.833 E.0524
G1 X139.373 Y94.418 E.0524
G1 X139.719 Y96.053 E.0524
G1 X139.88 Y97.717 E.0524
G1 X139.854 Y99.388 E.0524
G1 X139.64 Y101.045 E.0524
G1 X139.242 Y102.669 E.0524
G1 X138.664 Y104.237 E.0524
G1 X137.915 Y105.73 E.0524
G1 X137.002 Y107.131 E.0524
G1 X135.939 Y108.42 E.0524
G1 X134.596 Y109.718 E.05857
G1 X134.596 Y118.301 E.26912
G1 X134.493 Y119.711 E.04431
G1 X134.189 Y121.075 E.04384
G1 X133.698 Y122.361 E.04316
G1 X133.007 Y123.601 E.04451
G1 X132.154 Y124.708 E.04383
G1 X131.148 Y125.68 E.04384
G1 X130.012 Y126.495 E.04383
G1 X128.77 Y127.136 E.04383
M73 Q3 S22
G1 X127.447 Y127.589 E.04383
G1 X126.073 Y127.846 E.04383
M73 Q3 S21
G1 X124.676 Y127.9 E.04383
M73 P3 R21
G1 X123.286 Y127.75 E.04384
G1 X121.933 Y127.4 E.04383
G1 X120.645 Y126.856 E.04384
G1 X119.449 Y126.131 E.04383
G1 X118.372 Y125.24 E.04383
G1 X117.436 Y124.202 E.04383
G1 X116.66 Y123.038 E.04383
G1 X116.062 Y121.775 E.04384
G1 X115.655 Y120.437 E.04383
G1 X115.472 Y119.23 E.03829
G1 X117.642 Y117.052 E.09641
G1 X117.965 Y116.687 E.01527
G1 X118.506 Y115.914 E.0296
G1 X118.796 Y115.623 E.01287
G1 X118.796 Y116.012 E.01219
G1 X118.635 Y116.919 E.02889
G1 X118.602 Y117.394 E.01492
G1 X118.596 Y118.334 E.02946
G1 X118.692 Y119.43 E.0345
G1 X118.981 Y120.509 E.03504
G1 X119.453 Y121.522 E.03504
G1 X120.094 Y122.438 E.03504
G1 X120.885 Y123.228 E.03504
G1 X121.8 Y123.869 E.03504
G1 X122.813 Y124.341 E.03504
G1 X123.893 Y124.631 E.03504
G1 X125.006 Y124.728 E.03504
G1 X126.119 Y124.631 E.03504
G1 X127.199 Y124.341 E.03504
G1 X128.212 Y123.869 E.03504
G1 X129.127 Y123.228 E.03504
G1 X129.917 Y122.438 E.03504
G1 X130.559 Y121.522 E.03504
G1 X131.031 Y120.509 E.03504
G1 X131.32 Y119.43 E.03504
G1 X131.416 Y118.334 E.03448
G1 X131.416 Y99.464 E.59167
G1 X125.78 Y97.472 E.18744
G1 X125.657 Y96.471 E.03161
G1 X125.786 Y96.441 E.00415
G1 X126.276 Y96.19 E.01725
G1 X126.69 Y95.828 E.01725
G1 X127.005 Y95.376 E.01725
G1 X127.202 Y94.863 E.01725
G1 X127.269 Y94.317 E.01725
G1 X127.203 Y93.773 E.01716
G1 X127.008 Y93.262 E.01715
G1 X126.697 Y92.812 E.01715
G1 X126.287 Y92.451 E.01715
G1 X125.801 Y92.198 E.01715
G1 X125.27 Y92.069 E.01715
G1 X124.723 Y92.071 E.01715
G1 X124.192 Y92.205 E.01715
G1 X123.709 Y92.462 E.01715
G1 X123.302 Y92.827 E.01715
G1 X122.995 Y93.279 E.01715
G1 X122.804 Y93.792 E.01715
G1 X122.743 Y94.336 E.01715
G1 X122.814 Y94.878 E.01715
G1 X123.013 Y95.388 E.01715
G1 X123.328 Y95.835 E.01715
G1 X123.741 Y96.193 E.01715
G1 X124.229 Y96.442 E.01715
G1 X124.354 Y96.471 E.00405
G1 X124.232 Y97.472 E.0316
G1 X118.596 Y99.464 E.18744
G1 X118.596 Y114.147 E.46037
G1 X116.382 Y116.368 E.09833
G1 X116.056 Y116.735 E.01538
G1 X115.511 Y117.514 E.02982
G1 X115.216 Y117.809 E.01307
G1 X115.216 Y117.347 E.01448
G1 X115.318 Y116.866 E.01544
G1 X115.388 Y116.353 E.01621
G1 X115.412 Y115.844 E.016
G1 X115.416 Y109.717 E.19211
G1 X114.236 Y108.594 E.05106
G1 X113.298 Y107.511 E.04492
G1 X112.469 Y106.343 E.04492
G1 X111.755 Y105.101 E.04492
G1 X111.164 Y103.796 E.04492
G1 X110.696 Y102.413 E.04577
G1 X110.372 Y101.045 E.04408
G1 X110.177 Y99.626 E.04492
G1 X110.12 Y98.194 E.04492
G1 X110.201 Y96.764 E.04492
G1 X110.418 Y95.348 E.04492
