; generated by PrusaSlicer 2.4.2+arm64 on 2022-07-20 at 15:06:32 UTC


;
;
; 

; external perimeters extrusion width = 0.45mm
; perimeters extrusion width = 0.45mm
; infill extrusion width = 0.45mm
; solid infill extrusion width = 0.45mm
; top infill extrusion width = 0.40mm
; first layer extrusion width = 0.42mm

M73 P0 R13
M73 Q0 S13
M201 X1000 Y1000 Z200 E5000 ; sets maximum accelerations, mm/sec^2
M203 X200 Y200 Z12 E120 ; sets maximum feedrates, mm / sec
M204 P1250 R1250 T1250 ; sets acceleration (P, T) and retract acceleration (R), mm/sec^2
M205 X8.00 Y8.00 Z0.40 E4.50 ; sets the jerk limits, mm/sec
M205 S0 T0 ; sets the minimum extruding and travel feed rate, mm/sec
M107
;TYPE:Custom
M862.3 P "MK3S" ; printer model check
M862.1 P0.4 ; nozzle diameter check
M115 U3.11.0 ; tell printer latest fw version
G90 ; use absolute coordinates
M83 ; extruder relative mode
M104 S230 ; set extruder temp
M140 S85 ; set bed temp
M190 S85 ; wait for bed temp
M109 S230 ; wait for extruder temp
G28 W ; home all without mesh bed level
G80 ; mesh bed leveling
G1 Z0.2 F720
G1 Y-3 F1000 ; go outside print area
G92 E0
G1 X60 E9 F1000 ; intro line
G1 X100 E12.5 F1000 ; intro line
G92 E0
M221 S95

; Don't change E values below. Excessive value can damage the printer.
M907 E430 ; set extruder motor current
G21 ; set units to millimeters
G90 ; use absolute coordinates
M83 ; use relative distances for extrusion
M900 K0.08 ; Filament gcode LA 1.5
M900 K45 ; Filament gcode LA 1.0
M107
;LAYER_CHANGE
;Z:0.2
;HEIGHT:0.2
;BEFORE_LAYER_CHANGE
G92 E0.0
;0.2


G1 E-1 F2100
G1 Z.2 F720
;AFTER_LAYER_CHANGE
;0.2
G1 Z.4
G1 X110.382 Y88.195 F10800
G1 Z.2 F720
G1 E1 F2100
M204 S800
;TYPE:Skirt/Brim
;WIDTH:0.42
G1 F1200
G1 X111.183 Y87.228 E.03938
G1 X112.335 Y86.116 E.0502
G1 X113.91 Y84.972 E.06102
G1 X115.323 Y84.22 E.0502
G1 X116.491 Y83.758 E.03938
G1 X118.376 Y83.274 E.06102
G1 X119.967 Y83.094 E.0502
G1 X121.568 Y83.116 E.0502
G1 X123.153 Y83.338 E.0502
M73 Q1 S13
G1 X124.37 Y83.651 E.03938
G1 X125.786 Y84.188 E.0475
G1 X127.28 Y84.972 E.05289
G1 X128.588 Y85.896 E.0502
M73 P1 R13
G1 X129.77 Y86.976 E.0502
G1 X130.807 Y88.195 E.0502
G1 X131.85 Y89.839 E.06102
G1 X132.512 Y91.297 E.0502
G1 X132.9 Y92.491 E.03938
G1 X133.221 Y94.059 E.0502
G1 X133.343 Y95.656 E.0502
G1 X133.343 Y116.005 E.63802
G1 X133.262 Y117.278 E.04001
G1 X132.974 Y118.879 E.05101
G1 X132.354 Y120.757 E.062
G1 X131.63 Y122.214 E.05101
G1 X130.727 Y123.567 E.05101
G1 X129.903 Y124.541 E.04001
G1 X128.718 Y125.656 E.05101
G1 X127.101 Y126.794 E.062
G1 X125.972 Y127.389 E.04001
G1 X124.456 Y127.98 E.05101
G1 X122.531 Y128.431 E.062
G1 X120.91 Y128.575 E.05101
G1 X119.635 Y128.542 E.04001
G1 X118.024 Y128.317 E.05101
G1 X116.124 Y127.769 E.062
G1 X114.64 Y127.102 E.05101
G1 X113.253 Y126.252 E.05101
G1 X111.985 Y125.233 E.05101
G1 X111.088 Y124.325 E.04001
G1 X110.084 Y123.045 E.05101
G1 X109.25 Y121.648 E.05101
G1 X108.602 Y120.156 E.05101
G1 X108.077 Y118.249 E.062
G1 X107.898 Y116.986 E.04001
G1 X107.843 Y115.935 E.033
G1 X107.846 Y95.656 E.63584
G1 X107.968 Y94.059 E.0502
G1 X108.203 Y92.826 E.03938
G1 X108.678 Y91.297 E.0502
G1 X109.283 Y89.959 E.04602
G1 X110.351 Y88.246 E.06329
M204 S1000
G1 X110.668 Y88.444 F10800
M204 S800
G1 F1200
G1 X111.473 Y87.468 E.03967
G1 X112.593 Y86.391 E.04872
G1 X114.091 Y85.303 E.05806
G1 X115.462 Y84.57 E.04872
G1 X116.629 Y84.108 E.03938
G1 X118.423 Y83.648 E.05806
G1 X119.967 Y83.472 E.04872
G1 X121.521 Y83.49 E.04872
G1 X123.06 Y83.704 E.04872
G1 X124.56 Y84.108 E.04872
G1 X126.073 Y84.739 E.05141
G1 X127.35 Y85.462 E.04601
G1 X128.366 Y86.201 E.03938
G1 X129.716 Y87.468 E.05806
G1 X130.692 Y88.677 E.04872
G1 X131.509 Y89.999 E.04872
G1 X132.153 Y91.413 E.04872
G1 X132.541 Y92.607 E.03938
G1 X132.851 Y94.13 E.04872
G1 X132.967 Y95.68 E.04872
G1 X132.967 Y115.981 E.63652
G1 X132.886 Y117.254 E.04001
G1 X132.604 Y118.807 E.0495
G1 X132.014 Y120.594 E.05899
M73 Q2 S13
G1 X131.314 Y122.009 E.0495
G1 X130.44 Y123.324 E.0495
G1 X129.615 Y124.298 E.04001
M73 P2 R13
G1 X128.463 Y125.378 E.0495
G1 X126.925 Y126.46 E.05899
G1 X125.796 Y127.056 E.04001
G1 X124.324 Y127.627 E.0495
G1 X122.492 Y128.056 E.05899
G1 X121.223 Y128.186 E.04001
G1 X119.644 Y128.165 E.0495
G1 X118.081 Y127.944 E.0495
G1 X116.559 Y127.525 E.0495
G1 X115.102 Y126.916 E.0495
G1 X113.485 Y125.955 E.05899
G1 X112.48 Y125.169 E.04001
G1 X111.356 Y124.06 E.0495
G1 X110.383 Y122.816 E.0495
G1 X109.577 Y121.459 E.0495
G1 X108.95 Y120.01 E.0495
G1 X108.45 Y118.196 E.05899
G1 X108.271 Y116.933 E.04001
G1 X108.219 Y115.92 E.03179
G1 X108.222 Y95.68 E.63464
G1 X108.339 Y94.13 E.04872
G1 X108.574 Y92.897 E.03938
G1 X109.036 Y91.413 E.04872
G1 X109.624 Y90.12 E.04454
G1 X110.636 Y88.495 E.06003
M204 S1000
; printing object flagclip_v2.stl id:0 copy 0
;WIPE_START
G1 F8640
G1 X111.473 Y87.468 E-.30591
G1 X112.593 Y86.391 E-.35878
G1 X113.593 Y85.665 E-.28531
;WIPE_END
G1 E-.05 F2100
G1 Z.4 F720
G1 X117.198 Y90.362 F10800
G1 Z.2 F720
G1 E1 F2100
M204 S800
;TYPE:External perimeter
G1 F1200
G1 X117.687 Y90.656 E.01791
G1 X117.52 Y91.54 E.02823
G1 X117.52 Y92.116 E.01806
G1 X117.627 Y92.682 E.01806
G1 X117.837 Y93.219 E.01806
G1 X118.143 Y93.707 E.01806
G1 X118.974 Y94.604 E.03833
G1 X114.133 Y96.443 E.16236
G1 X114.268 Y94.791 E.05197
G1 X114.519 Y93.78 E.03266
G1 X114.931 Y92.824 E.03266
G1 X115.493 Y91.946 E.03266
G1 X116.189 Y91.171 E.03266
G1 X117.151 Y90.399 E.03868
M204 S1000
G1 X117.435 Y90.039 F10800
G1 X117.166 Y89.903
M204 S800
;TYPE:Perimeter
G1 F1200
G1 X115.929 Y90.897 E.04977
G1 X115.192 Y91.717 E.03458
G1 X114.597 Y92.646 E.03458
G1 X114.161 Y93.659 E.03458
G1 X113.895 Y94.73 E.03458
G1 X113.709 Y97.007 E.07166
G1 X113.808 Y96.97 E.00331
G1 X113.808 Y111.503 E.45569
G1 X111.696 Y113.622 E.09379
G1 X111.337 Y114.03 E.01704
G1 X111.381 Y112.911 E.03512
G1 X111.382 Y95.854 E.53481
G1 X111.456 Y94.674 E.03705
M73 P2 R12
G1 X111.673 Y93.538 E.03627
G1 X112.03 Y92.438 E.03627
G1 X112.523 Y91.391 E.03627
G1 X113.143 Y90.415 E.03627
G1 X113.88 Y89.523 E.03627
G1 X114.723 Y88.731 E.03627
G1 X115.659 Y88.051 E.03627
G1 X116.673 Y87.494 E.03627
G1 X117.748 Y87.068 E.03627
G1 X118.869 Y86.781 E.03627
G1 X120.016 Y86.636 E.03627
G1 X121.173 Y86.636 E.03627
G1 X122.321 Y86.781 E.03627
G1 X123.441 Y87.068 E.03627
G1 X124.517 Y87.494 E.03627
G1 X125.53 Y88.051 E.03627
G1 X126.466 Y88.731 E.03627
G1 X127.309 Y89.523 E.03627
G1 X128.047 Y90.415 E.03627
G1 X128.667 Y91.391 E.03627
G1 X129.159 Y92.438 E.03627
M73 Q3 S13
G1 X129.517 Y93.538 E.03627
G1 X129.733 Y94.674 E.03627
G1 X129.808 Y95.854 E.03705
G1 X129.808 Y115.804 E.62552
M73 P3 R12
G1 X129.731 Y117.002 E.03764
G1 X129.507 Y118.156 E.03685
G1 X129.138 Y119.272 E.03685
G1 X128.63 Y120.332 E.03685
G1 X127.992 Y121.318 E.03685
G1 X127.232 Y122.216 E.03685
M73 Q3 S12
G1 X126.365 Y123.009 E.03685
G1 X125.404 Y123.685 E.03685
G1 X124.364 Y124.234 E.03685
G1 X123.263 Y124.645 E.03685
G1 X122.119 Y124.913 E.03685
G1 X120.95 Y125.033 E.03685
G1 X119.775 Y125.004 E.03685
G1 X118.613 Y124.825 E.03685
G1 X117.484 Y124.499 E.03685
G1 X116.749 Y124.181 E.02509
G1 X116.405 Y124.032 E.01176
G1 X115.394 Y123.432 E.03685
G1 X114.469 Y122.708 E.03685
G1 X113.643 Y121.872 E.03685
G1 X112.93 Y120.937 E.03685
G1 X112.342 Y119.92 E.03685
G1 X111.888 Y118.835 E.03685
G1 X111.576 Y117.702 E.03685
G1 X111.459 Y116.877 E.02613
G1 X113.506 Y114.823 E.09094
G1 X113.845 Y114.439 E.01605
G1 X113.814 Y114.892 E.01424
G1 X113.807 Y115.859 E.03032
G1 X113.898 Y116.946 E.0342
G1 X114.173 Y118.034 E.03516
G1 X114.623 Y119.06 E.03516
G1 X115.237 Y119.999 E.03516
G1 X115.996 Y120.824 E.03516
G1 X116.881 Y121.513 E.03516
G1 X117.867 Y122.047 E.03516
G1 X118.928 Y122.411 E.03516
G1 X120.034 Y122.595 E.03516
G1 X121.155 Y122.595 E.03516
G1 X122.219 Y122.418 E.03381
G1 X123.32 Y122.048 E.03644
G1 X124.308 Y121.513 E.03522
G1 X125.193 Y120.824 E.03516
G1 X125.953 Y119.999 E.03516
G1 X126.566 Y119.06 E.03516
G1 X127.017 Y118.034 E.03516
G1 X127.292 Y116.946 E.03516
G1 X127.382 Y115.861 E.03414
G1 X127.382 Y95.797 E.62911
G1 X127.295 Y94.73 E.03358
G1 X127.028 Y93.659 E.03458
G1 X126.592 Y92.646 E.03458
G1 X125.998 Y91.717 E.03458
G1 X125.261 Y90.897 E.03458
G1 X124.096 Y89.962 E.04681
G1 X123.087 Y90.6 E.03745
G1 X123.259 Y91.325 E.02334
G1 X123.306 Y91.806 E.01517
G1 X123.245 Y92.388 E.01835
G1 X123.072 Y92.924 E.01764
G1 X122.793 Y93.412 E.01764
G1 X122.418 Y93.832 E.01764
G1 X121.965 Y94.165 E.01764
G1 X121.665 Y94.302 E.01035
G1 X121.657 Y94.233 E.00218
G1 X122.078 Y94.016 E.01485
G1 X122.562 Y93.594 E.02015
G1 X122.93 Y93.067 E.02015
G1 X123.16 Y92.467 E.02015
G1 X123.238 Y91.83 E.02012
G1 X123.162 Y91.201 E.01986
G1 X122.939 Y90.609 E.01983
G1 X122.582 Y90.087 E.01983
G1 X122.111 Y89.664 E.01983
G1 X121.553 Y89.366 E.01983
G1 X120.941 Y89.209 E.01983
G1 X120.308 Y89.202 E.01983
G1 X119.692 Y89.345 E.01983
G1 X119.128 Y89.631 E.01983
G1 X118.647 Y90.042 E.01983
G1 X118.278 Y90.556 E.01983
G1 X118.042 Y91.143 E.01983
G1 X117.953 Y91.769 E.01983
G1 X118.014 Y92.399 E.01983
G1 X118.223 Y92.996 E.01983
G1 X118.569 Y93.526 E.01983
G1 X119.03 Y93.959 E.01983
G1 X119.532 Y94.242 E.01806
G1 X119.488 Y94.603 E.01143
G1 X118.444 Y93.477 E.04816
G1 X118.175 Y93.048 E.01585
G1 X117.991 Y92.578 E.01585
G1 X117.897 Y92.081 E.01585
G1 X117.897 Y91.576 E.01585
G1 X118.107 Y90.468 E.03536
G1 X117.218 Y89.934 E.03251
M204 S1000
;WIPE_START
G1 F8640
G1 X115.929 Y90.897 E-.37152
G1 X115.192 Y91.717 E-.25468
G1 X114.597 Y92.646 E-.25468
G1 X114.479 Y92.921 E-.06913
;WIPE_END
G1 E-.05 F2100
G1 Z.4 F720
G1 X124.07 Y90.425 F10800
G1 Z.2 F720
G1 E1 F2100
M204 S800
;TYPE:External perimeter
G1 F1200
G1 X123.516 Y90.775 E.02056
G1 X123.63 Y91.255 E.01545
G1 X123.671 Y91.54 E.00905
G1 X123.684 Y91.817 E.00868
G1 X123.616 Y92.467 E.02048
G1 X123.419 Y93.077 E.0201
G1 X123.1 Y93.633 E.0201
G1 X122.674 Y94.112 E.0201
G1 X122.157 Y94.492 E.0201
G1 X121.574 Y94.757 E.02011
G1 X121.347 Y94.808 E.00728
G1 X121.246 Y93.983 E.02604
G1 X121.375 Y93.953 E.00415
G1 X121.865 Y93.702 E.01725
G1 X122.279 Y93.34 E.01725
G1 X122.594 Y92.889 E.01725
G1 X122.791 Y92.375 E.01725
G1 X122.858 Y91.829 E.01724
G1 X122.793 Y91.291 E.017
G1 X122.602 Y90.784 E.01698
G1 X122.296 Y90.337 E.01698
G1 X121.893 Y89.975 E.01698
G1 X121.415 Y89.72 E.01698
G1 X120.891 Y89.585 E.01698
G1 X120.349 Y89.579 E.01698
G1 X119.822 Y89.702 E.01698
G1 X119.338 Y89.947 E.01698
G1 X118.927 Y90.299 E.01698
G1 X118.611 Y90.739 E.01698
G1 X118.409 Y91.242 E.01698
G1 X118.332 Y91.778 E.01698
G1 X118.385 Y92.317 E.01698
G1 X118.564 Y92.828 E.01698
G1 X118.86 Y93.282 E.01698
M73 Q4 S12
G1 X119.255 Y93.653 E.01698
G1 X119.727 Y93.919 E.01698
G1 X119.944 Y93.98 E.00707
G1 X119.818 Y95.011 E.03256
G1 X114.185 Y97.151 E.18894
G1 X114.185 Y111.659 E.45491
M73 P4 R12
G1 X111.971 Y113.881 E.09833
G1 X111.645 Y114.247 E.01538
G1 X111.1 Y115.027 E.02982
G1 X110.805 Y115.322 E.01309
G1 X110.805 Y114.875 E.01401
G1 X110.904 Y114.402 E.01516
G1 X110.975 Y113.895 E.01603
G1 X111.004 Y112.905 E.03106
G1 X111.005 Y95.842 E.53501
G1 X111.081 Y94.627 E.03816
G1 X111.307 Y93.444 E.03776
G1 X111.679 Y92.299 E.03776
G1 X112.192 Y91.209 E.03776
G1 X112.837 Y90.192 E.03776
G1 X113.604 Y89.265 E.03776
G1 X114.482 Y88.44 E.03776
G1 X115.457 Y87.732 E.03776
G1 X116.512 Y87.152 E.03776
G1 X117.631 Y86.709 E.03776
G1 X118.798 Y86.41 E.03776
G1 X119.993 Y86.259 E.03776
G1 X121.197 Y86.259 E.03776
G1 X122.392 Y86.41 E.03776
G1 X123.558 Y86.709 E.03776
G1 X124.678 Y87.152 E.03776
G1 X125.733 Y87.732 E.03776
G1 X126.707 Y88.44 E.03776
G1 X127.585 Y89.265 E.03776
G1 X128.353 Y90.192 E.03776
G1 X128.998 Y91.209 E.03776
G1 X129.51 Y92.299 E.03776
G1 X129.883 Y93.444 E.03776
G1 X130.108 Y94.627 E.03776
G1 X130.185 Y95.842 E.03816
G1 X130.185 Y115.816 E.62627
G1 X130.106 Y117.05 E.03878
G1 X129.873 Y118.251 E.03836
G1 X129.489 Y119.413 E.03836
G1 X128.96 Y120.516 E.03836
G1 X128.295 Y121.543 E.03836
G1 X127.505 Y122.477 E.03836
G1 X126.602 Y123.303 E.03836
G1 X125.601 Y124.007 E.03836
G1 X124.519 Y124.578 E.03836
G1 X123.373 Y125.007 E.03836
G1 X122.181 Y125.286 E.03836
G1 X120.964 Y125.411 E.03836
G1 X119.741 Y125.38 E.03836
G1 X118.532 Y125.194 E.03836
G1 X117.356 Y124.855 E.03836
G1 X116.599 Y124.527 E.02585
G1 X116.233 Y124.369 E.01251
G1 X115.181 Y123.744 E.03836
G1 X114.217 Y122.99 E.03836
G1 X113.357 Y122.12 E.03836
G1 X112.615 Y121.147 E.03836
G1 X112.003 Y120.087 E.03836
G1 X111.531 Y118.959 E.03836
G1 X111.206 Y117.779 E.03836
G1 X111.059 Y116.744 E.03277
G1 X113.231 Y114.564 E.09648
G1 X113.554 Y114.2 E.01527
G1 X114.095 Y113.426 E.0296
G1 X114.385 Y113.136 E.01287
G1 X114.385 Y113.525 E.01219
G1 X114.224 Y114.432 E.02889
G1 X114.191 Y114.907 E.01492
G1 X114.185 Y115.845 E.02943
G1 X114.271 Y116.884 E.03269
G1 X114.531 Y117.911 E.0332
G1 X114.956 Y118.88 E.0332
G1 X115.535 Y119.767 E.0332
G1 X116.252 Y120.546 E.0332
G1 X117.088 Y121.196 E.0332
G1 X118.019 Y121.7 E.0332
G1 X119.021 Y122.044 E.0332
G1 X120.065 Y122.218 E.0332
G1 X121.124 Y122.218 E.0332
G1 X122.127 Y122.051 E.03188
G1 X123.17 Y121.701 E.03448
G1 X124.101 Y121.196 E.03322
G1 X124.937 Y120.546 E.0332
G1 X125.654 Y119.767 E.0332
G1 X126.233 Y118.88 E.0332
G1 X126.659 Y117.911 E.0332
G1 X126.919 Y116.884 E.0332
G1 X127.005 Y115.846 E.03267
G1 X127.005 Y95.812 E.62814
G1 X126.921 Y94.791 E.03213
M73 P5 R12
M73 Q5 S12
G1 X126.67 Y93.78 E.03266
G1 X126.258 Y92.824 E.03266
G1 X125.697 Y91.946 E.03266
G1 X125.001 Y91.171 E.03266
G1 X124.117 Y90.462 E.03553
M204 S1000
G1 X123.829 Y90.106 F10800
;WIPE_START
G1 F8640
G1 X123.516 Y90.775 E-.15644
G1 X123.63 Y91.255 E-.1138
G1 X123.671 Y91.54 E-.06666
G1 X123.684 Y91.817 E-.06394
G1 X123.616 Y92.467 E-.15079
G1 X123.419 Y93.077 E-.14806
G1 X123.1 Y93.633 E-.14806
G1 X122.806 Y93.964 E-.10225
;WIPE_END
G1 E-.05 F2100
G1 Z.4 F720
G1 X125.693 Y88.309 F10800
G1 Z.2 F720
G1 E1 F2100
M204 S800
;TYPE:Solid infill
;WIDTH:0.42358
G1 F1200
G1 X127.114 Y89.73 E.0636
G1 X127.818 Y90.581 E.03496
G1 X128.459 Y91.614 E.03847
G1 X124.84 Y87.994 E.16201
G1 X124.396 Y87.751 E.01602
G1 X123.835 Y87.529 E.01909
G1 X128.918 Y92.611 E.22752
G1 X129.177 Y93.409 E.02654
G1 X123.021 Y87.252 E.27558
G1 X122.297 Y87.066 E.02367
G1 X129.337 Y94.107 E.31516
G1 X129.456 Y94.764 E.02112
G1 X121.676 Y86.984 E.34824
G1 X121.072 Y86.918 E.01923
G1 X123.903 Y89.75 E.12673
G1 X123.573 Y89.958 E.01235
G1 X120.534 Y86.918 E.13607
G1 X120 Y86.923 E.0169
G1 X123.244 Y90.167 E.14521
G1 X123.059 Y90.284 E.00691
G1 X122.796 Y89.899 E.01475
G1 X122.274 Y89.431 E.02218
G1 X121.633 Y89.095 E.02293
G1 X119.522 Y86.983 E.09451
G1 X119.044 Y87.044 E.01525
G1 X120.926 Y88.926 E.08425
G1 X120.382 Y88.92 E.01723
G1 X118.603 Y87.141 E.07962
G1 X118.174 Y87.251 E.014
G1 X119.924 Y89.001 E.07832
G1 X119.595 Y89.077 E.01071
G1 X119.507 Y89.122 E.00311
G1 X117.755 Y87.37 E.07842
G1 X117.369 Y87.523 E.01313
G1 X119.149 Y89.303 E.07968
G1 X118.969 Y89.394 E.00639
G1 X118.826 Y89.517 E.006
G1 X116.984 Y87.675 E.08245
G1 X116.793 Y87.751 E.00648
G1 X116.617 Y87.847 E.00635
G1 X118.536 Y89.766 E.08587
G1 X118.437 Y89.85 E.0041
G1 X118.289 Y90.057 E.00807
G1 X116.27 Y88.038 E.09036
G1 X115.923 Y88.229 E.01255
G1 X117.417 Y89.724 E.0669
G1 X117.143 Y89.559 E.01012
G1 X116.905 Y89.75 E.00965
G1 X115.599 Y88.444 E.05845
G1 X115.288 Y88.671 E.0122
G1 X116.607 Y89.99 E.05904
G1 X116.308 Y90.229 E.01212
G1 X114.976 Y88.897 E.05963
G1 X114.69 Y89.15 E.01207
G1 X116.009 Y90.469 E.05904
G1 X115.714 Y90.712 E.01211
G1 X114.413 Y89.411 E.05825
G1 X114.135 Y89.672 E.01205
G1 X115.459 Y90.996 E.05928
G1 X115.205 Y91.279 E.01207
G1 X113.885 Y89.96 E.05905
G1 X113.642 Y90.255 E.0121
G1 X114.953 Y91.566 E.05868
G1 X114.743 Y91.894 E.01234
G1 X113.398 Y90.549 E.06019
G1 X113.185 Y90.875 E.01231
G1 X114.533 Y92.222 E.06031
G1 X114.328 Y92.556 E.01239
G1 X112.976 Y91.204 E.06051
G1 X112.771 Y91.528 E.01212
G1 X114.166 Y92.933 E.06266
G1 X114.004 Y93.309 E.01297
M73 Q6 S12
G1 X112.596 Y91.901 E.06304
G1 X112.423 Y92.267 E.01281
M73 P6 R12
G1 X113.859 Y93.702 E.06426
G1 X113.752 Y94.133 E.01406
G1 X112.261 Y92.643 E.06672
